P2
# ASCII grayscale bee
243 204
255
255 255 255 255 255 255 255 255 255 255 255 255 255 255 255 255
255 255 255 255 255 255 255 255 255 255 255 255 255 255 255 255
255 255 255 255 255 255 255 255 255 255 255 255 255 255 255 255
255 255 255 255 255 255 255 255 255 255 255 255 255 255 255 255
255 255 255 255 255 255 255 255 255 255 255 255 255 255 255 255
255 255 255 255 255 255 255 255 255 255 255 255 255 255 255 255
255 255 255 255 255 255 255 255 255 255 255 255 255 255 255 255
255 255 255 255 255 255 255 255 255 255 255 255 255 255 255 255
255 255 255 255 255 255 255 255 255 255 255 255 255 255 255 255
255 255 255 255 255 255 255 255 255 255 255 255 255 255 255 255
255 255 255 255 255 255 255 255 255 255 255 255 255 255 255 255
255 255 255 255 255 255 255 255 255 255 255 255 255 255 255 255
255 255 255 255 255 255 255 255 255 255 255 255 255 255 255 255
255 255 255 255 255 255 255 255 255 255 255 255 255 255 255 255
255 255 255 255 255 255 255 255 255 255 255 255 255 255 255 255
255 255 255 255 255 255 255 255 255 255 255 255 255 255 255 255
255 255 255 255 255 255 255 255 255 255 255 255 255 255 255 255
255 255 255 255 255 255 255 255 255 255 255 255 255 255 255 255
255 255 255 255 255 255 255 255 255 255 255 255 255 255 255 255
255 255 255 255 255 255 255 255 255 255 255 255 255 255 255 255
255 255 255 255 255 255 255 255 255 255 255 255 255 255 255 255
255 255 255 255 255 255 255 255 255 255 255 255 255 255 255 255
255 255 255 255 255 255 255 255 255 255 255 255 255 255 255 255
255 255 255 255 255 255 255 255 255 255 255 255 255 255 255 255
255 255 255 255 255 255 255 255 255 255 255 255 255 255 255 255
255 255 255 255 255 255 255 255 255 255 255 255 255 255 255 255
255 255 255 255 255 255 255 255 255 255 255 255 255 255 255 255
255 255 255 255 255 255 255 255 255 255 255 255 255 255 255 255
255 255 255 255 255 255 255 255 255 255 255 255 255 255 255 255
255 255 255 255 255 255 255 255 255 255 255 255 255 255 255 255
255 255 255 255 255 255 255 255 255 255 255 255 255 255 255 255
255 255 255 255 255 255 255 255 255 255 255 255 255 255 255 255
255 255 255 255 255 255 255 255 255 255 255 255 255 255 255 255
255 255 255 255 255 255 255 255 255 255 255 255 255 255 255 255
255 255 255 255 255 255 255 255 255 255 255 255 255 255 255 255
255 255 255 255 255 255 255 255 255 255 255 255 255 255 255 255
255 255 255 255 255 255 255 255 255 255 255 255 255 255 255 255
255 255 255 255 255 255 255 255 255 255 255 255 255 255 255 255
255 255 255 255 255 255 255 255 255 255 255 255 255 255 255 255
255 255 255 255 255 255 255 255 255 255 255 255 255 255 255 255
255 255 255 255 255 255 255 255 255 255 255 255 255 255 255 255
255 255 255 255 255 255 255 255 255 255 255 255 255 255 255 255
255 255 255 255 255 255 255 255 255 255 255 255 255 255 255 255
255 255 255 255 255 255 255 255 255 255 255 255 255 255 255 255
255 255 255 255 255 255 255 255 255 255 255 255 255 255 255 255
255 255 255 255 255 255 255 255 255 255 255 255 255 255 255 255
255 255 255 255 255 255 255 255 255 255 255 255 255 255 255 255
255 255 255 255 255 255 255 255 255 255 255 255 255 255 255 255
255 255 255 255 255 255 255 255 255 255 255 255 255 255 255 255
255 255 255 255 255 255 255 255 255 255 255 255 255 255 255 255
255 255 255 255 255 255 255 255 255 255 255 255 255 255 255 255
255 255 255 255 251 255 251 251 255 246 255 255 255 255 255 255
255 255 255 255 255 255 255 255 255 255 255 255 255 255 255 255
255 255 255 255 255 255 255 255 255 255 255 255 255 255 255 255
255 255 255 255 255 255 255 255 255 255 255 255 255 255 251 255
255 255 251 255 255 255 255 255 255 255 255 255 255 255 255 255
255 255 255 255 255 255 255 255 255 255 255 255 255 255 255 255
255 255 255 255 255 255 255 255 255 255 255 255 255 255 255 255
255 255 255 255 255 255 255 255 255 255 255 255 255 255 255 255
255 255 255 255 255 255 255 255 255 255 255 255 255 255 255 255
255 255 255 255 255 255 255 255 255 255 255 255 255 255 255 255
255 255 255 255 255 255 255 255 255 255 255 255 255 255 255 255
255 255 255 255 255 255 255 255 255 255 255 255 255 255 255 255
255 255 255 255 255 255 255 255 255 255 255 255 255 255 255 255
255 255 255 255 255 255 255 255 255 255 255 255 255 255 255 255
255 255 255 255 255 255 255 255 255 255 255 255 255 255 255 255
255 255 255 255 255 255 255 246 246 255 255 246 255 255 255 255
255 255 255 255 255 255 255 255 255 255 255 255 255 255 255 255
255 255 255 255 255 255 255 255 255 255 255 255 255 255 255 255
255 255 255 255 255 255 255 255 255 255 255 255 255 255 251 255
255 255 251 251 255 255 255 255 255 255 255 255 255 255 255 255
255 255 255 255 255 255 255 255 255 255 255 255 255 255 255 255
255 255 255 255 255 255 255 255 255 255 255 255 255 255 255 255
255 255 255 255 255 255 255 255 255 255 255 255 255 255 255 255
255 255 255 255 255 255 255 255 255 255 255 255 255 255 255 255
255 255 255 255 255 255 255 255 255 255 255 255 255 255 255 255
255 255 255 255 255 255 255 255 255 255 255 255 255 255 255 255
255 255 255 255 255 255 255 255 255 255 255 255 255 255 255 255
255 255 255 255 255 255 255 255 255 255 255 255 255 255 255 255
255 255 255 255 255 255 255 255 255 255 255 255 255 255 255 255
255 255 255 255 255 255 255 255 255 255 255 255 255 255 255 255
255 255 255 255 255 255 255 255 255 255 255 251 251 255 251 255
251 255 255 255 255 255 255 255 255 255 255 255 255 255 255 255
255 255 255 255 255 255 255 255 255 255 255 255 255 255 255 255
255 255 255 255 255 255 255 255 255 255 255 255 255 255 255 255
255 255 255 255 255 255 255 251 255 255 255 255 255 255 255 255
255 255 255 255 255 255 255 255 255 255 255 255 255 255 255 255
255 255 255 255 255 255 255 255 255 255 255 255 255 255 255 255
255 255 255 255 255 255 255 255 255 255 255 255 255 255 255 255
255 255 255 255 255 255 255 255 255 255 255 255 255 255 255 255
255 255 255 255 255 255 255 255 255 255 255 255 255 255 255 255
255 255 255 255 255 255 255 255 255 255 255 255 255 255 255 255
255 255 255 255 255 255 255 255 255 255 255 255 255 255 255 255
255 255 255 255 255 255 255 255 255 255 255 255 255 255 255 255
255 255 255 255 255 255 255 255 255 255 255 255 255 255 255 255
255 255 255 255 255 255 255 255 255 255 255 255 255 255 255 255
255 255 255 255 255 255 255 255 255 255 255 255 246 211 255 255
251 255 255 251 255 255 255 255 255 255 255 255 255 255 255 255
255 255 255 255 255 255 255 255 255 255 255 255 255 255 255 255
255 255 255 255 255 255 255 255 255 255 255 255 255 255 255 255
255 255 255 255 255 255 255 255 255 255 251 255 255 255 255 255
255 255 255 255 255 255 255 255 255 255 255 255 255 255 255 255
255 255 255 255 255 255 255 255 255 255 255 255 255 255 255 255
255 255 255 255 255 255 255 255 255 255 255 255 255 255 255 255
255 255 255 255 255 255 255 255 255 255 255 255 255 255 255 255
255 255 255 255 255 255 255 255 255 255 255 255 255 255 255 255
255 255 255 255 255 255 255 255 255 255 255 255 255 255 255 255
255 255 255 255 255 255 255 255 255 255 255 255 255 255 255 255
255 255 255 255 255 255 255 255 255 255 255 255 255 255 255 255
255 255 255 255 255 255 255 255 255 255 255 255 255 255 255 255
255 255 255 255 255 255 255 255 255 255 255 255 255 255 255 255
255 255 255 255 255 255 255 255 255 255 255 255 255 255 255 230
114 171 243 255 246 255 255 255 255 255 255 255 255 255 255 255
255 255 255 255 255 255 255 255 255 255 255 255 255 255 255 255
255 255 255 255 255 255 255 255 255 255 255 255 255 255 255 255
255 255 255 255 255 255 255 255 255 255 251 251 255 255 255 255
255 255 255 255 255 255 255 255 255 255 255 255 255 255 255 255
255 255 255 255 255 255 255 255 255 255 255 255 255 255 255 255
255 255 255 255 255 255 255 255 255 255 255 255 255 255 255 255
255 255 255 255 255 255 255 255 255 255 255 255 255 255 255 255
255 255 255 255 255 255 255 255 255 255 255 255 255 255 255 255
255 255 255 255 255 255 255 255 255 255 255 255 255 255 255 255
255 255 255 255 255 255 255 255 255 255 255 255 255 255 255 255
255 255 255 255 255 255 255 255 255 255 255 255 255 255 255 255
255 255 255 255 255 255 255 255 255 255 255 255 255 255 255 255
255 255 255 255 255 255 255 255 255 255 255 255 255 255 255 255
255 255 255 255 255 255 255 255 255 255 255 255 255 255 255 255
255 255 235 130 81 146 246 246 251 255 255 255 255 255 255 255
255 255 255 255 255 255 255 255 255 255 255 255 255 255 255 255
255 255 255 255 255 255 255 255 255 255 255 255 255 255 255 255
255 255 255 255 255 255 255 255 255 255 255 255 255 255 255 255
246 246 255 255 255 255 255 255 255 255 255 255 255 255 255 255
255 255 255 255 255 255 255 255 255 255 255 255 255 255 255 255
255 255 255 255 255 255 255 255 255 255 255 255 255 255 255 255
255 255 255 255 255 255 255 255 255 255 255 255 255 255 255 255
255 255 255 255 255 255 255 255 255 255 255 255 255 255 255 255
255 255 255 255 255 255 255 255 255 255 255 255 255 255 255 255
255 255 255 255 255 255 255 255 255 255 255 255 255 255 255 255
255 255 255 255 255 255 255 255 255 255 255 255 255 255 255 255
255 255 255 255 255 255 255 255 255 255 255 255 255 255 255 255
255 255 255 255 255 255 255 255 255 255 255 255 255 255 255 255
255 255 255 255 255 255 255 255 255 255 255 255 255 255 255 255
255 255 255 255 255 255 227 130 84 198 243 255 255 255 255 255
255 255 255 255 255 255 255 255 255 255 255 255 255 255 255 255
255 255 255 255 255 255 255 255 255 255 255 255 255 255 255 255
255 255 255 255 255 255 255 255 255 255 255 255 255 255 255 251
255 251 219 203 214 255 255 255 255 255 255 255 255 255 255 255
255 255 255 255 255 255 255 255 255 255 255 255 255 255 255 255
255 255 255 255 255 255 255 255 255 255 255 255 255 255 255 255
255 255 255 255 255 255 255 255 255 255 255 255 255 255 255 255
255 255 255 255 255 255 255 255 255 255 255 255 255 255 255 255
255 255 255 255 255 255 255 255 255 255 255 255 255 255 255 255
255 255 255 255 255 255 255 255 255 255 255 255 255 255 255 255
255 255 255 255 255 255 255 255 255 255 255 255 255 255 255 255
255 255 255 255 255 255 255 255 255 255 255 255 255 255 255 255
255 255 255 255 255 255 255 255 255 255 255 255 255 255 255 255
255 255 255 255 255 255 255 255 255 255 255 255 255 255 255 255
255 255 255 255 255 255 255 255 246 255 235 108 114 198 251 251
255 255 255 255 255 255 255 255 255 255 255 255 255 255 255 255
255 255 255 255 255 255 255 255 255 255 255 255 255 255 255 255
255 255 255 255 255 255 255 255 255 255 255 255 255 255 255 255
255 255 255 246 195 140 149 203 255 255 255 255 255 255 255 255
255 255 255 255 255 255 255 255 255 255 255 255 255 255 255 255
255 255 255 255 255 255 255 255 255 255 255 255 255 255 255 255
255 255 255 255 255 255 255 255 255 255 255 255 255 255 255 255
255 255 255 255 255 255 255 255 255 255 255 255 255 255 255 255
255 255 255 255 255 255 255 255 255 255 255 255 255 255 255 255
255 255 255 255 255 255 255 255 255 255 255 255 255 255 255 255
255 255 255 255 255 255 255 255 255 255 255 255 255 255 255 255
255 255 255 255 255 255 255 255 255 255 255 255 255 255 255 255
255 255 255 255 255 255 255 255 255 255 255 255 255 255 255 255
255 255 255 255 255 255 255 255 255 255 255 255 255 255 255 255
255 255 255 255 255 255 255 255 255 255 255 255 251 255 214 75
132 230 255 255 251 255 251 255 255 238 255 255 255 255 255 255
255 255 255 255 255 255 255 255 255 255 255 255 255 255 255 255
255 255 255 255 255 255 255 255 255 255 255 255 255 255 255 255
255 251 255 255 255 246 181 81 92 154 255 255 255 255 255 255
255 255 255 255 255 255 255 255 255 255 255 255 255 255 255 255
255 255 255 255 255 255 255 255 255 255 255 255 255 255 255 255
255 255 255 255 255 255 255 255 255 255 255 255 255 255 255 255
255 255 255 255 255 255 255 255 255 255 255 255 255 255 255 255
255 255 255 255 255 255 255 255 255 255 255 255 255 255 255 255
255 255 255 255 255 255 255 255 255 255 255 255 255 255 255 255
255 255 255 255 255 255 255 255 255 255 255 255 255 255 255 255
255 255 255 255 255 255 255 255 255 255 255 255 255 255 255 255
255 255 255 255 255 255 255 255 255 255 255 255 255 255 255 255
255 255 255 255 255 255 255 255 255 255 255 255 255 255 255 255
255 255 255 255 255 255 255 255 255 255 255 255 255 255 255 255
255 238 165 89 171 243 255 251 251 246 255 255 255 255 255 255
255 255 255 255 255 255 255 255 255 255 255 255 255 255 255 255
255 255 255 255 255 255 255 255 255 255 255 255 255 255 255 255
251 255 255 251 251 255 251 251 203 75 81 165 255 246 255 255
255 255 255 255 255 255 255 255 255 255 255 255 255 255 255 255
255 255 255 255 255 255 255 255 255 255 255 255 255 255 255 255
255 255 255 255 255 255 255 255 255 255 255 255 255 255 255 255
255 255 255 255 255 255 255 255 255 255 255 255 255 255 255 255
255 255 255 255 255 255 255 255 255 255 255 255 255 255 255 255
255 255 255 255 255 255 255 255 255 255 255 255 255 255 255 255
255 255 255 255 255 255 255 255 255 255 255 255 255 255 255 255
255 255 255 255 255 255 255 255 255 255 255 255 255 255 255 255
255 255 255 255 255 255 255 255 255 255 255 255 255 255 255 255
255 255 255 255 255 255 255 255 255 255 255 255 255 255 255 255
255 255 255 255 255 255 255 255 255 255 255 255 255 255 255 255
255 255 255 255 255 243 100 105 198 246 251 255 255 255 255 255
251 255 255 255 255 255 255 255 255 255 255 255 255 255 255 255
255 255 255 255 255 255 255 255 255 255 255 255 255 255 255 255
255 255 255 255 255 255 255 255 251 255 222 97 64 154 246 255
255 255 255 255 255 255 255 255 255 255 255 255 255 255 255 255
255 255 255 255 255 255 255 255 255 255 255 255 255 255 255 255
255 255 255 255 255 255 255 255 255 255 255 255 255 255 255 255
255 255 255 255 255 255 255 255 255 255 255 255 255 255 255 255
255 255 255 255 255 255 255 255 255 255 255 255 255 255 255 255
255 255 255 255 255 255 255 255 255 255 255 255 255 255 255 255
255 255 255 255 255 255 255 255 255 255 255 255 255 255 255 255
255 255 255 255 255 255 255 255 255 255 255 255 255 255 255 255
255 255 255 255 255 255 255 255 255 255 255 255 255 255 255 255
255 255 255 255 255 255 255 255 255 255 255 255 255 255 255 255
255 255 255 255 255 255 255 255 255 255 255 255 255 255 255 255
255 255 255 255 255 255 255 255 255 187 89 138 227 255 255 255
255 246 255 255 255 255 255 255 255 255 255 255 255 255 255 255
255 255 255 255 255 255 255 255 255 255 255 255 255 255 255 255
255 255 255 255 255 255 255 255 255 255 255 251 246 130 48 132
255 255 238 255 255 255 255 255 255 255 255 255 255 255 255 255
255 255 255 255 255 255 255 255 255 255 255 255 255 255 255 255
255 255 255 255 255 255 255 255 255 255 255 255 255 255 255 255
255 255 255 255 255 255 255 255 255 255 255 255 255 255 255 255
255 255 255 255 255 255 255 255 255 255 255 255 255 255 255 255
255 255 255 255 255 255 255 255 255 255 255 255 255 255 255 255
255 255 255 255 255 255 255 255 255 255 255 255 255 255 255 255
255 255 255 255 255 255 255 255 255 255 255 255 255 255 255 255
255 255 255 255 255 255 255 255 255 255 255 255 255 255 255 255
255 255 255 255 255 255 255 255 255 255 255 255 255 255 255 255
255 255 255 255 255 255 255 255 255 255 255 255 255 255 255 255
255 255 255 255 255 255 255 255 255 255 251 246 255 140 89 187
246 255 246 255 255 255 255 255 255 255 255 255 255 255 255 255
255 255 255 255 255 255 255 255 255 255 255 255 255 255 255 255
255 255 255 255 255 255 255 255 246 246 255 255 251 251 251 157
56 89 243 251 255 246 255 255 255 255 255 255 255 255 255 255
255 255 255 255 255 255 255 255 255 255 255 255 255 255 255 255
255 255 255 255 255 255 255 255 255 255 255 255 255 255 255 255
255 255 255 255 255 255 255 255 255 255 255 255 255 255 255 255
255 255 255 255 255 255 255 255 255 255 255 255 255 255 255 255
255 255 255 255 255 255 255 255 255 255 255 255 255 255 255 255
255 255 255 255 255 255 255 255 255 255 255 255 255 255 255 255
255 255 255 255 255 255 255 255 255 255 255 255 255 255 255 255
255 255 255 255 255 255 255 255 255 255 255 255 255 255 255 255
255 255 255 255 255 255 255 255 255 255 255 255 255 255 255 255
255 255 255 255 255 255 255 255 255 255 255 255 255 255 255 255
255 255 255 255 255 255 255 255 255 255 255 255 255 255 251 255
214 100 108 206 255 255 255 255 255 255 255 255 255 255 255 255
255 255 255 255 255 255 255 255 255 255 255 255 255 255 255 255
255 255 255 255 255 255 255 255 255 255 255 255 255 251 251 255
251 206 59 67 206 251 255 246 255 255 255 255 255 255 255 255
255 255 255 255 255 255 255 255 255 255 255 255 255 255 255 255
255 255 255 255 255 255 255 255 255 255 255 255 255 255 255 255
255 255 255 255 255 255 255 255 255 255 255 255 255 255 255 255
255 255 255 255 255 255 255 255 255 255 255 255 255 255 255 255
255 255 255 255 255 255 255 255 255 255 255 255 255 255 255 255
255 255 255 255 255 255 255 255 255 255 255 255 255 255 255 255
255 255 255 255 255 255 255 255 255 255 255 255 255 255 255 255
255 255 255 255 255 255 255 255 255 255 255 255 255 255 255 255
255 255 255 255 255 255 255 255 255 255 255 255 255 255 255 255
255 255 255 255 255 255 255 255 255 255 255 255 255 255 255 255
255 255 255 255 255 255 255 255 255 255 255 255 255 255 255 255
255 255 251 255 173 84 140 227 255 255 251 255 255 255 255 255
255 255 255 255 255 255 255 255 255 255 255 255 255 255 255 255
255 255 255 255 255 255 255 255 255 255 255 255 255 251 255 255
246 246 255 206 108 56 171 251 255 255 255 246 255 255 255 255
255 255 255 255 255 255 255 255 255 255 255 255 255 255 255 255
255 255 255 255 255 255 255 255 255 255 255 255 255 255 255 255
255 255 255 255 255 255 255 255 255 255 255 255 255 255 255 255
255 255 255 255 255 255 255 255 255 255 255 255 255 255 255 255
255 255 255 255 255 255 255 255 255 255 255 255 255 255 255 255
255 255 255 255 255 255 255 255 255 255 255 255 255 255 255 255
255 255 255 255 255 255 255 255 255 255 255 255 255 255 255 255
255 255 255 255 255 255 255 255 255 255 255 255 255 255 255 255
255 255 255 255 255 255 255 255 255 255 255 255 255 255 255 255
255 255 255 255 255 255 255 255 255 255 255 255 255 255 255 255
255 255 255 255 255 255 255 255 255 255 255 255 255 255 255 255
255 255 255 251 246 255 255 243 130 92 165 243 251 255 255 255
255 255 255 255 255 255 255 255 255 255 255 255 255 255 255 255
255 255 255 255 255 255 255 255 255 255 255 255 255 255 255 255
255 243 251 255 255 227 138 32 124 238 255 255 255 255 255 255
255 255 255 255 255 255 255 255 255 255 255 255 255 255 255 255
255 255 255 255 255 255 255 255 255 255 255 255 255 255 255 255
255 255 255 255 255 255 255 255 255 255 255 255 255 255 255 255
255 255 255 255 255 255 255 255 255 255 255 255 255 255 255 255
255 255 255 255 255 255 255 255 255 255 255 255 255 255 255 255
255 255 255 255 255 255 255 255 255 255 255 255 255 255 255 255
255 255 255 255 255 255 255 255 255 255 255 255 255 255 255 255
255 255 255 255 255 255 255 255 255 255 255 255 255 255 255 255
255 255 255 255 255 255 255 255 255 255 255 255 255 255 255 255
255 255 255 255 255 255 255 255 255 255 255 255 255 255 255 255
255 255 255 255 255 255 255 255 255 255 255 255 255 255 255 255
255 255 255 255 255 255 255 255 255 255 251 227 116 108 195 255
255 255 251 255 251 255 251 255 255 246 255 255 255 255 255 255
255 255 255 255 255 255 255 255 255 255 255 255 255 255 255 255
255 255 255 251 255 255 243 255 149 40 105 238 246 255 255 255
255 255 255 255 255 255 255 255 255 255 255 255 255 255 255 255
255 255 255 255 255 255 255 255 255 255 255 255 255 255 255 255
255 255 255 255 255 255 255 255 255 255 255 255 255 255 255 255
255 255 255 255 255 255 255 255 255 255 255 255 255 255 255 255
255 255 255 255 255 255 255 255 255 255 255 255 255 255 255 255
255 255 255 255 255 255 255 255 255 255 255 255 255 255 255 255
255 255 255 255 255 255 255 255 255 255 255 255 255 255 255 255
255 255 255 255 255 255 255 255 255 255 255 255 255 255 255 255
255 255 255 255 255 255 255 255 255 255 255 255 255 255 255 255
255 255 255 255 255 255 255 255 255 255 255 255 255 255 255 255
255 255 255 255 255 255 255 255 255 255 255 255 255 255 255 255
255 255 255 255 255 255 255 255 255 255 255 255 255 251 251 211
81 130 214 246 255 255 255 251 255 251 255 255 255 255 255 255
255 255 255 255 255 255 255 255 255 255 255 255 255 255 255 255
255 255 255 255 255 251 255 243 255 246 154 59 81 203 246 251
255 255 255 255 255 255 255 255 255 255 255 255 255 255 255 255
255 255 255 255 255 255 255 255 255 255 255 255 255 255 255 255
255 255 255 255 255 255 255 255 255 255 255 255 255 255 255 255
255 255 255 255 255 255 255 255 255 255 255 255 255 255 255 255
255 255 255 255 255 255 255 255 255 255 255 255 255 255 255 255
255 255 255 255 255 255 255 255 255 255 255 255 255 255 255 255
255 255 255 255 255 255 255 255 255 255 255 255 255 255 255 255
255 255 255 255 255 255 255 255 255 255 255 255 255 255 255 255
255 255 255 255 255 255 255 255 255 255 255 255 255 255 255 255
255 255 255 255 255 255 255 255 255 255 255 255 255 255 255 255
255 255 255 255 255 255 255 255 255 255 255 255 255 255 255 255
255 255 255 255 255 255 255 255 255 255 255 255 255 255 255 255
255 255 255 165 73 149 222 255 255 255 251 255 255 251 255 255
255 255 255 255 255 255 255 255 255 255 255 255 255 255 255 255
255 255 255 255 251 255 255 255 255 255 246 255 190 51 67 195
255 255 255 255 255 255 255 255 255 255 255 255 255 255 255 255
255 255 255 255 255 255 255 255 255 255 255 255 255 255 255 255
255 255 255 255 255 255 255 255 255 255 255 255 255 255 255 255
255 255 255 255 255 255 255 255 255 255 255 255 255 255 255 255
255 255 255 255 255 255 255 255 255 255 255 255 255 255 255 255
255 255 255 255 255 255 255 255 255 255 255 255 255 255 255 255
255 255 255 255 255 255 255 255 255 255 255 255 255 255 255 255
255 255 255 255 255 255 255 255 255 255 255 255 255 255 255 255
255 255 255 255 255 255 255 255 255 255 255 255 255 255 255 255
255 255 255 255 255 255 255 255 255 255 255 255 255 255 255 255
255 255 255 255 255 255 255 255 255 255 255 255 255 255 255 255
255 255 255 255 255 255 255 255 255 255 255 255 255 255 255 255
255 255 255 255 246 255 246 146 81 171 238 251 255 251 255 255
251 251 255 255 255 255 255 255 255 255 255 255 255 255 255 255
255 255 255 255 255 255 251 251 255 255 251 255 251 255 179 67
64 173 255 246 255 255 255 255 255 255 255 255 255 255 255 255
255 255 255 255 255 255 255 255 255 255 255 255 255 255 255 255
255 255 255 255 255 255 255 255 255 255 255 255 255 255 255 255
255 255 255 255 255 255 255 255 255 255 255 255 255 255 255 255
255 255 255 255 255 255 255 255 255 255 255 255 255 255 255 255
255 255 255 255 255 255 255 255 255 255 255 255 255 255 255 255
255 255 255 255 255 255 255 255 255 255 255 255 255 255 255 255
255 255 255 255 255 255 255 255 255 255 255 255 255 255 255 255
255 255 255 255 255 255 255 255 255 255 255 255 255 255 255 255
255 255 255 255 255 255 255 255 255 255 255 255 255 255 255 255
255 255 255 255 255 255 255 255 255 255 255 255 255 255 255 255
255 255 255 255 255 255 255 255 255 255 255 255 255 255 255 255
255 255 255 255 255 255 255 255 255 255 238 124 81 171 246 255
251 251 255 255 251 255 255 255 255 255 255 255 255 255 255 255
255 255 255 255 255 255 255 255 255 255 255 255 251 246 255 255
211 67 40 179 251 246 255 255 255 255 255 255 255 255 255 255
255 255 255 255 255 255 255 255 255 255 255 255 255 255 255 255
255 255 255 255 255 255 255 255 255 255 255 255 255 255 255 255
255 255 255 255 255 255 255 255 255 255 255 255 255 255 255 255
255 255 255 255 255 255 255 255 255 255 255 255 255 255 255 255
255 255 255 255 255 255 255 255 255 255 255 255 255 255 255 255
255 255 255 255 255 255 255 255 255 255 255 255 255 255 255 255
255 255 255 255 255 255 255 255 255 255 255 255 255 255 255 255
255 255 255 255 255 255 255 255 255 255 255 255 255 255 255 255
255 255 255 255 255 255 255 255 255 255 255 255 255 255 255 255
255 255 255 255 255 255 255 255 255 255 255 255 255 255 255 255
255 255 255 255 255 255 255 255 255 255 255 255 255 255 255 255
255 255 255 255 255 255 255 255 255 255 255 251 255 251 222 97
92 195 246 255 251 251 255 255 255 251 255 255 255 255 255 255
255 255 255 255 255 255 255 255 255 255 255 255 255 255 251 251
255 255 214 89 51 157 251 255 251 255 255 255 255 255 255 255
255 255 255 255 255 255 255 255 255 255 255 255 255 255 255 255
255 255 255 255 255 255 255 255 255 255 255 255 255 255 255 255
255 255 255 255 255 255 255 255 255 255 255 255 255 255 255 255
255 255 255 255 255 255 255 255 255 255 255 255 255 255 255 255
255 255 255 255 255 255 255 255 255 255 255 255 255 255 255 255
255 255 255 255 255 255 255 255 255 255 255 255 255 255 255 255
255 255 255 255 255 255 255 255 255 255 255 255 255 255 255 255
255 255 255 255 255 255 255 255 255 255 255 255 255 255 255 255
255 255 255 255 255 255 255 255 255 255 255 255 255 255 255 255
255 255 255 255 255 255 255 255 255 255 255 255 255 255 255 255
255 255 255 255 255 255 255 255 255 255 255 255 255 255 255 255
255 255 255 255 255 255 255 255 255 255 255 255 255 255 255 255
255 246 211 92 108 171 243 255 255 255 255 255 251 255 255 255
255 255 255 255 255 255 255 255 255 255 255 255 255 255 255 255
251 243 255 255 214 105 40 138 251 246 246 255 246 255 255 255
255 255 255 255 255 255 255 255 255 255 255 255 255 255 255 255
255 255 255 255 255 255 255 255 255 255 255 255 255 255 255 255
255 255 255 255 255 255 255 255 255 255 255 255 255 255 255 255
255 255 255 255 255 255 255 255 255 255 255 255 255 255 255 255
255 255 255 255 255 255 255 255 255 255 255 255 255 255 255 255
255 255 255 255 255 255 255 255 255 255 255 255 255 255 255 255
255 255 255 255 255 255 255 255 255 255 255 255 255 255 255 255
255 255 255 255 255 255 255 255 255 255 255 255 255 255 255 255
255 255 255 255 255 255 255 255 255 255 255 255 255 255 255 255
255 255 255 255 255 255 255 255 255 255 255 255 255 255 255 255
255 255 255 255 255 255 255 255 255 255 255 255 255 255 255 255
255 255 255 255 255 255 255 255 255 255 255 255 255 255 255 255
255 251 255 251 255 251 181 48 67 202 255 251 255 255 255 255
255 255 255 255 255 255 255 255 255 255 255 255 255 255 255 255
255 251 255 255 251 255 219 116 43 114 232 255 251 255 251 255
255 255 255 255 255 255 255 255 255 255 255 255 255 255 255 255
255 255 255 255 255 255 255 255 255 255 255 255 255 255 255 255
255 255 255 255 255 255 255 255 255 255 255 255 255 255 255 255
255 255 255 255 255 255 255 255 255 255 255 255 255 255 255 255
255 255 255 255 255 255 255 255 255 255 255 255 255 255 255 255
255 255 255 255 255 255 255 255 255 255 255 255 255 255 255 255
255 255 255 255 255 255 255 255 255 255 255 255 255 255 255 255
255 255 255 255 255 255 255 255 255 255 255 255 255 255 255 255
255 255 255 255 255 255 255 255 255 255 255 255 255 255 255 255
255 255 255 255 255 255 255 255 255 255 255 255 255 255 255 255
255 255 255 255 255 255 255 255 255 255 255 255 255 255 255 255
255 255 255 255 255 255 255 255 255 255 255 255 255 255 255 255
255 255 255 255 247 255 255 249 255 235 158 48 108 238 255 255
249 255 246 255 255 255 255 255 251 248 255 251 255 255 255 255
250 255 255 250 255 244 255 255 221 91 33 107 227 255 251 255
255 255 246 255 251 251 255 255 255 255 255 255 251 255 247 255
255 255 255 255 255 255 255 255 255 255 255 255 255 255 255 255
255 255 255 255 255 255 255 255 255 255 255 255 255 255 255 255
255 255 255 255 255 255 255 255 255 255 255 255 255 255 255 255
255 255 255 255 255 255 255 255 255 255 255 255 255 255 255 255
255 255 255 255 255 255 255 255 255 255 255 255 255 255 255 255
255 255 255 255 255 255 255 255 255 255 255 255 255 255 255 255
255 255 255 255 255 255 255 255 255 255 255 255 255 255 255 255
255 255 255 255 255 255 255 255 255 255 255 255 255 255 255 255
255 255 255 255 255 255 255 255 255 255 255 255 255 255 255 255
255 255 255 255 255 255 255 255 255 255 255 255 255 255 255 255
255 255 255 255 255 255 255 247 255 255 255 255 255 255 255 255
255 255 255 255 255 255 255 251 255 255 243 255 255 232 158 51
194 251 255 250 255 255 251 255 251 251 255 254 251 248 251 255
248 255 255 255 255 255 255 251 255 255 251 138 29 94 207 255
248 248 255 249 255 255 255 255 255 255 251 255 255 255 255 251
255 255 251 251 255 246 255 255 255 255 255 255 255 255 255 255
255 255 255 255 255 255 255 255 255 255 255 255 255 255 255 255
255 255 255 255 255 255 255 255 255 255 255 255 255 255 255 255
255 255 255 255 255 255 255 255 255 255 255 255 255 255 255 255
255 255 255 255 255 255 255 255 255 255 255 255 255 255 255 255
255 255 255 255 255 255 255 255 255 255 255 255 255 255 255 255
255 255 255 255 255 255 255 255 255 255 255 255 255 255 255 255
255 255 255 255 255 255 255 255 255 255 255 255 255 255 255 255
255 255 255 255 255 255 255 255 255 255 255 255 255 255 255 255
255 255 255 255 255 255 255 255 255 255 255 255 255 255 255 255
255 255 255 255 255 255 255 255 255 255 251 255 255 255 255 246
255 255 255 255 255 255 255 255 255 255 251 255 255 251 251 255
255 246 146 111 208 255 251 243 255 250 255 251 251 248 236 251
254 254 255 255 255 255 255 255 253 251 255 251 255 199 64 89
221 255 255 246 255 255 249 255 255 255 255 255 255 255 255 251
243 227 255 246 255 255 255 255 255 255 255 255 255 255 255 255
255 255 255 255 255 255 255 255 255 255 255 255 255 255 255 255
255 255 255 255 255 255 255 255 255 255 255 255 255 255 255 255
255 255 255 255 255 255 255 255 255 255 255 255 255 255 255 255
255 255 255 255 255 255 255 255 255 255 255 255 255 255 255 255
255 255 255 255 255 255 255 255 255 255 255 255 255 255 255 255
255 255 255 255 255 255 255 255 255 255 255 255 255 255 255 255
255 255 255 255 255 255 255 255 255 255 255 255 255 255 255 255
255 255 255 255 255 255 255 255 255 255 255 255 255 255 255 255
255 255 255 255 255 255 255 255 255 255 255 255 255 255 255 255
255 255 255 255 255 255 255 255 255 255 255 255 255 255 255 251
248 255 251 255 255 255 255 255 255 255 255 255 255 255 255 255
255 255 247 251 249 247 73 111 208 244 251 249 255 255 235 232
223 199 215 228 244 248 251 255 251 250 255 255 255 251 251 230
97 105 219 249 249 255 251 255 255 255 255 255 255 255 251 251
255 255 251 248 166 240 248 251 255 255 251 255 255 255 255 255
255 255 255 255 255 255 255 255 255 255 255 255 255 255 255 255
255 255 255 255 255 255 255 255 255 255 255 255 255 255 255 255
255 255 255 255 255 255 255 255 255 255 255 255 255 255 255 255
255 255 255 255 255 255 255 255 255 255 255 255 255 255 255 255
255 255 255 255 255 255 255 255 255 255 255 255 255 255 255 255
255 255 255 255 255 255 255 255 255 255 255 255 255 255 255 255
255 255 255 255 255 255 255 255 255 255 255 255 255 255 255 255
255 255 255 255 255 255 255 255 255 255 255 255 255 255 255 255
255 255 255 255 255 255 255 255 255 255 255 255 255 255 255 255
255 255 255 255 255 255 255 255 255 255 255 255 255 255 255 248
255 223 248 254 251 255 255 255 255 255 255 255 255 255 255 255
255 249 246 255 255 255 255 255 255 176 49 78 124 181 210 232
227 194 178 175 163 172 166 191 199 220 243 255 255 251 251 245
240 202 100 113 239 251 255 255 255 255 255 251 255 255 255 255
255 255 251 251 254 250 236 142 191 247 251 255 255 250 255 255
255 255 255 255 255 255 255 255 255 255 255 255 255 255 255 255
255 255 255 255 255 255 255 255 255 255 255 255 255 255 255 255
255 255 255 255 255 255 255 255 255 255 255 255 255 255 255 255
255 255 255 255 255 255 255 255 255 255 255 255 255 255 255 255
255 255 255 255 255 255 255 255 255 255 255 255 255 255 255 255
255 255 255 255 255 255 255 255 255 255 255 255 255 255 255 255
255 255 255 255 255 255 255 255 255 255 255 255 255 255 255 255
255 255 255 255 255 255 255 255 255 255 255 255 255 255 255 255
255 255 255 255 255 255 255 255 255 255 255 255 255 255 255 255
255 255 255 255 255 255 255 255 255 255 255 255 255 255 255 255
255 255 255 240 183 241 254 247 251 255 255 255 255 255 255 255
255 255 255 255 255 251 255 255 255 255 251 244 236 116 59 33
44 76 118 142 142 117 119 143 151 151 143 151 183 204 210 189
145 124 107 49 61 64 170 255 255 241 255 255 255 255 255 255
255 255 251 255 255 248 254 254 212 151 119 122 220 254 255 255
255 255 255 255 255 255 255 255 255 255 255 255 255 255 255 255
255 255 255 255 255 255 255 255 255 255 255 255 255 255 255 255
255 255 255 255 255 255 255 255 255 255 255 255 255 255 255 255
255 255 255 255 255 255 255 255 255 255 255 255 255 255 255 255
255 255 255 255 255 255 255 255 255 255 255 255 255 255 255 255
255 255 255 255 255 255 255 255 255 255 255 255 255 255 255 255
255 255 255 255 255 255 255 255 255 255 255 255 255 255 255 255
255 255 255 255 255 255 255 255 255 255 255 255 255 255 255 255
255 255 255 255 255 255 255 255 255 255 255 255 255 255 255 255
255 255 255 255 255 255 255 255 255 255 255 255 255 255 255 255
255 255 255 255 255 243 204 130 192 241 254 247 254 255 255 255
255 255 255 255 255 251 255 255 255 255 253 250 250 255 255 248
245 217 144 72 32 38 57 87 78 98 138 143 156 143 135 135
119 90 57 22 17 28 36 76 161 255 246 250 250 255 250 255
255 255 255 251 255 255 255 254 251 254 228 156 83 94 127 207
247 246 251 255 253 255 255 255 255 255 255 255 255 255 255 255
255 255 255 255 255 255 255 255 255 255 255 255 255 255 255 255
255 255 255 255 255 255 255 255 255 255 255 255 255 255 255 255
255 255 255 255 255 255 255 255 255 255 255 255 255 255 255 255
255 255 255 255 255 255 255 255 255 255 255 255 255 255 255 255
255 255 255 255 255 255 255 255 255 255 255 255 255 255 255 255
255 255 255 255 255 255 255 255 255 255 255 255 255 255 255 255
255 255 255 255 255 255 255 255 255 255 255 255 255 255 255 255
255 255 255 255 255 255 255 255 255 255 255 255 255 255 255 255
255 255 255 255 255 255 255 255 255 255 255 255 255 255 255 255
255 255 255 255 255 255 255 255 199 154 78 119 195 254 251 251
255 255 255 255 255 255 255 255 255 251 251 255 255 255 255 255
251 255 251 233 225 169 155 104 50 26 46 62 108 148 124 139
145 119 94 42 11 14 46 98 160 203 236 234 248 255 250 255
253 255 255 250 251 255 251 255 255 251 254 254 233 184 132 103
111 216 244 254 255 255 250 255 255 255 255 255 255 255 255 255
255 255 255 255 255 255 255 255 255 255 255 255 255 255 255 255
255 255 255 255 255 255 255 255 255 255 255 255 255 255 255 255
255 255 255 255 255 255 255 255 255 255 255 255 255 255 255 255
255 255 255 255 255 255 255 255 255 255 255 255 255 255 255 255
255 255 255 255 255 255 255 255 255 255 255 255 255 255 255 255
255 255 255 255 255 255 255 255 255 255 255 255 255 255 255 255
255 255 255 255 255 255 255 255 255 255 255 255 255 255 255 255
255 255 255 255 255 255 255 255 255 255 255 255 255 255 255 255
255 255 255 255 255 255 255 255 255 255 255 255 255 255 255 255
255 255 255 255 255 255 255 255 255 255 255 215 192 111 100 156
229 251 254 255 251 255 255 255 255 255 251 255 251 255 255 255
255 255 255 246 254 247 208 176 147 131 131 99 67 67 124 137
104 104 99 109 123 96 52 63 108 145 169 200 220 244 254 251
251 255 255 253 255 255 255 255 255 255 251 246 255 254 191 159
130 132 155 232 240 250 254 255 255 255 255 255 255 255 255 255
255 255 255 255 255 255 255 255 255 255 255 255 255 255 255 255
255 255 255 255 255 255 255 255 255 255 255 255 255 255 255 255
255 255 255 255 255 255 255 255 255 255 255 255 255 255 255 255
255 255 255 255 255 255 255 255 255 255 255 255 255 255 255 255
255 255 255 255 255 255 255 255 255 255 255 255 255 255 255 255
255 255 255 255 255 255 255 255 255 255 255 255 255 255 255 255
255 255 255 255 255 255 255 255 255 255 255 255 255 255 255 255
255 255 255 255 255 255 255 255 255 255 255 255 255 255 255 255
255 255 255 255 255 255 255 255 255 255 255 255 255 255 255 255
255 255 255 255 255 255 255 255 255 255 255 255 255 255 243 244
171 111 135 217 247 247 251 251 255 255 255 251 255 255 255 255
255 255 255 255 255 255 254 250 212 171 142 131 123 128 123 100
88 104 109 96 96 93 98 96 84 91 115 129 137 148 169 187
212 231 247 255 255 255 255 255 255 255 255 255 255 255 255 247
180 134 135 171 213 240 240 247 254 254 255 255 255 255 255 255
255 255 255 255 255 255 255 255 255 255 255 255 255 255 255 255
255 255 255 255 255 255 255 255 255 255 255 255 255 255 255 255
255 255 255 255 255 255 255 255 255 255 255 255 255 255 255 255
255 255 255 255 255 255 255 255 255 255 255 255 255 255 255 255
255 255 255 255 255 255 255 255 255 255 255 255 255 255 255 255
255 255 255 255 255 255 255 255 255 255 255 255 255 255 255 255
255 255 255 255 255 255 255 255 255 255 255 255 255 255 255 255
255 255 255 255 255 255 255 255 255 255 255 255 255 255 255 255
255 255 255 255 255 255 255 255 255 255 255 255 255 255 255 255
255 255 255 255 255 255 255 255 255 255 255 255 255 255 255 255
255 255 254 228 176 148 176 209 254 251 255 255 255 255 255 255
255 255 255 255 255 255 255 254 254 239 214 182 157 132 121 117
117 119 108 94 75 80 92 84 83 112 96 83 88 101 101 112
140 132 143 165 195 228 254 255 251 255 255 255 255 255 255 255
255 247 207 126 142 179 225 250 254 250 254 254 254 255 255 255
255 255 255 255 255 255 255 255 255 255 255 255 255 255 255 255
255 255 255 255 255 255 255 255 255 255 255 255 255 255 255 255
255 255 255 255 255 255 255 255 255 255 255 255 255 255 255 255
255 255 255 255 255 255 255 255 255 255 255 255 255 255 255 255
255 255 255 255 255 255 255 255 255 255 255 255 255 255 255 255
255 255 255 255 255 255 255 255 255 255 255 255 255 255 255 255
255 255 255 255 255 255 255 255 255 255 255 255 255 255 255 255
255 255 255 255 255 255 255 255 255 255 255 255 255 255 255 255
255 255 255 255 255 255 255 255 255 255 255 255 255 255 255 255
255 255 255 255 255 255 255 255 255 255 255 255 255 255 255 255
255 255 255 255 255 247 251 241 192 143 151 220 247 255 251 247
255 255 255 255 251 255 255 255 255 247 228 212 162 146 143 138
116 100 97 94 92 89 83 64 75 83 67 75 97 93 89 84
84 88 93 104 108 111 127 151 184 212 236 250 254 254 255 255
255 255 255 251 212 147 98 146 209 247 251 251 254 255 255 255
255 255 255 255 255 255 255 255 255 255 255 255 255 255 255 255
255 255 255 255 255 255 255 255 255 255 255 255 255 255 255 255
255 255 255 255 255 255 255 255 255 255 255 255 255 255 255 255
255 255 255 255 255 255 255 255 255 255 255 255 255 255 255 255
255 255 255 255 255 255 255 255 255 255 255 255 255 255 255 255
255 255 255 255 255 255 255 255 255 255 255 255 255 255 255 255
255 255 255 255 255 255 255 255 255 255 255 255 255 255 255 255
255 255 255 255 255 255 255 255 255 255 255 255 255 255 255 255
255 255 255 255 255 255 255 255 255 255 255 255 255 255 255 255
255 255 255 255 255 255 255 255 255 255 255 255 255 255 255 255
255 255 255 255 255 255 255 255 248 254 250 209 140 122 151 220
251 255 247 251 255 255 251 255 255 255 254 244 215 171 135 114
94 94 98 90 79 79 73 70 63 66 59 70 71 57 78 70
67 67 67 75 87 83 75 83 83 95 116 127 146 187 228 247
254 254 254 251 255 251 251 175 107 98 123 196 247 248 255 255
255 255 255 255 255 255 255 255 255 255 255 255 255 255 255 255
255 255 255 255 255 255 255 255 255 255 255 255 255 255 255 255
255 255 255 255 255 255 255 255 255 255 255 255 255 255 255 255
255 255 255 255 255 255 255 255 255 255 255 255 255 255 255 255
255 255 255 255 255 255 255 255 255 255 255 255 255 255 255 255
255 255 255 255 255 255 255 255 255 255 255 255 255 255 255 255
255 255 255 255 255 255 255 255 255 255 255 255 255 255 255 255
255 255 255 255 255 255 255 255 255 255 255 255 255 255 255 255
255 255 255 255 255 255 255 255 255 255 255 255 255 255 255 255
255 255 255 255 255 255 255 255 255 255 255 255 255 255 255 255
255 255 255 255 255 255 255 255 255 255 255 254 254 250 203 132
122 130 170 224 255 255 251 255 255 255 255 255 254 244 217 171
124 92 92 67 54 57 61 61 56 48 53 41 42 49 58 58
63 82 63 47 38 38 38 47 59 63 62 59 67 83 86 100
139 184 228 247 254 254 251 255 255 251 162 108 123 117 180 243
251 255 255 255 255 255 255 255 255 255 255 255 255 255 255 255
255 255 255 255 255 255 255 255 255 255 255 255 255 255 255 255
255 255 255 255 255 255 255 255 255 255 255 255 255 255 255 255
255 255 255 255 255 255 255 255 255 255 255 255 255 255 255 255
255 255 255 255 255 255 255 255 255 255 255 255 255 255 255 255
255 255 255 255 255 255 255 255 255 255 255 255 255 255 255 255
255 255 255 255 255 255 255 255 255 255 255 255 255 255 255 255
255 255 255 255 255 255 255 255 255 255 255 255 255 255 255 255
255 255 255 255 255 255 255 255 255 255 255 255 255 255 255 255
255 255 255 255 255 255 255 255 255 255 255 255 255 255 255 255
255 255 255 255 255 255 255 255 255 255 255 255 255 249 255 254
254 220 143 139 122 109 162 230 255 255 251 255 255 255 254 251
228 179 124 89 80 59 40 19 18 29 29 25 25 40 40 45
56 65 73 89 86 53 37 37 42 34 34 47 50 49 43 43
53 67 83 115 139 183 224 254 254 251 255 255 238 154 111 119
131 180 243 255 255 255 255 255 255 255 255 255 255 255 255 255
255 255 255 255 255 255 255 255 255 255 255 255 255 255 255 255
255 255 255 255 255 255 255 255 255 255 255 255 255 255 255 255
255 255 255 255 255 255 255 255 255 255 255 255 255 255 255 255
255 255 255 255 255 255 255 255 255 255 255 255 255 255 255 255
255 255 255 255 255 255 255 255 255 255 255 255 255 255 255 255
255 255 255 255 255 255 255 255 255 255 255 255 255 255 255 255
255 255 255 255 255 255 255 255 255 255 255 255 255 255 255 255
255 255 255 255 255 255 255 255 255 255 255 255 255 255 255 255
255 255 255 255 255 255 255 255 255 255 255 255 255 255 255 255
255 255 255 255 255 255 255 255 255 255 255 255 255 255 255 255
251 255 247 251 239 179 155 82 61 105 187 247 255 255 255 248
255 254 244 209 143 83 62 75 48 38 15 2 6 14 17 33
46 65 73 89 90 102 114 86 61 41 32 35 45 67 79 67
50 42 30 33 59 92 112 115 134 196 243 250 250 255 243 218
103 75 96 172 218 255 251 255 255 255 255 255 255 255 255 255
255 255 255 255 255 255 255 255 255 255 255 255 255 255 255 255
255 255 255 255 255 255 255 255 255 255 255 255 255 255 255 255
255 255 255 255 255 255 255 255 255 255 255 255 255 255 255 255
255 255 255 255 255 255 255 255 255 255 255 255 255 255 255 255
255 255 255 255 255 255 255 255 255 255 255 255 255 255 255 255
255 255 255 255 255 255 255 255 255 255 255 255 255 255 255 255
255 255 255 255 255 255 255 255 255 255 255 255 255 255 255 255
255 255 255 255 255 255 255 255 255 255 255 255 255 255 255 255
255 255 255 255 255 255 255 255 255 255 255 255 255 255 255 255
255 255 255 255 255 255 255 255 255 255 255 255 255 255 255 255
255 255 255 255 251 255 254 250 195 163 53 41 61 105 200 255
255 255 254 251 247 241 187 90 57 33 45 38 13 14 1 3
2 13 39 54 75 98 102 119 151 159 160 70 41 30 38 49
78 103 107 81 70 39 34 47 89 92 91 115 155 211 250 254
254 255 171 71 91 131 131 232 251 255 251 255 255 255 255 255
255 255 255 255 255 255 255 255 255 255 255 255 255 255 255 255
255 255 255 255 255 255 255 255 255 255 255 255 255 255 255 255
255 255 255 255 255 255 255 255 255 255 255 255 255 255 255 255
255 255 255 255 255 255 255 255 255 255 255 255 255 255 255 255
255 255 255 255 255 255 255 255 255 255 255 255 255 255 255 255
255 255 255 255 255 255 255 255 255 255 255 255 255 255 255 255
255 255 255 255 255 255 255 255 255 255 255 255 255 255 255 255
255 255 255 255 255 255 255 255 255 255 255 255 255 255 255 255
255 255 255 255 255 255 255 255 255 255 255 255 255 255 255 255
255 255 255 255 255 255 255 255 255 255 255 255 255 255 255 255
255 255 255 255 255 255 255 255 255 254 247 186 129 41 21 56
86 130 240 251 251 255 254 247 228 157 60 36 17 29 33 14
9 1 6 6 6 17 46 51 81 78 106 157 152 151 49 30
25 25 30 49 82 96 90 90 87 59 47 75 83 78 86 115
199 235 254 251 197 94 91 189 183 145 232 240 251 255 255 255
255 255 255 255 255 255 255 255 255 255 255 255 255 255 255 255
255 255 255 255 255 255 255 255 255 255 255 255 255 255 255 255
255 255 255 255 255 255 255 255 255 255 255 255 255 255 255 255
255 255 255 255 255 255 255 255 255 255 255 255 255 255 255 255
255 255 255 255 255 255 255 255 255 255 255 255 255 255 255 255
255 255 255 255 255 255 255 255 255 255 255 255 255 255 255 255
255 255 255 255 255 255 255 255 255 255 255 255 255 255 255 255
255 255 255 255 255 255 255 255 255 255 255 255 255 255 255 255
255 255 255 255 255 255 255 255 255 255 255 255 255 255 255 255
255 255 255 255 255 255 255 255 255 255 255 255 255 255 255 255
255 255 255 255 255 255 255 255 255 255 255 255 251 251 194 105
37 21 29 86 70 203 251 255 255 254 244 215 126 36 17 2
10 26 14 11 1 1 5 1 1 17 22 57 49 85 138 109
98 41 25 17 17 12 22 45 61 74 99 122 67 53 88 74
53 66 86 179 230 254 240 114 45 159 237 178 115 213 248 248
255 255 255 255 255 255 255 255 255 255 255 255 255 255 255 255
255 255 255 255 255 255 255 255 255 255 255 255 255 255 255 255
255 255 255 255 255 255 255 255 255 255 255 255 255 255 255 255
255 255 255 255 255 255 255 255 255 255 255 255 255 255 255 255
255 255 255 255 255 255 255 255 255 255 255 255 255 255 255 255
255 255 255 255 255 255 255 255 255 255 255 255 255 255 255 255
255 255 255 255 255 255 255 255 255 255 255 255 255 255 255 255
255 255 255 255 255 255 255 255 255 255 255 255 255 255 255 255
255 255 255 255 255 255 255 255 255 255 255 255 255 255 255 255
255 255 255 255 255 255 255 255 255 255 255 255 255 255 255 255
255 255 255 255 255 255 255 255 255 255 255 255 255 255 255 254
255 224 118 37 29 5 75 81 133 255 255 248 251 244 207 109
28 13 0 2 17 22 22 6 1 1 1 1 1 1 25 25
49 87 62 49 33 20 9 9 9 10 18 25 48 86 119 70
108 139 79 35 57 80 146 236 244 194 56 78 207 183 131 82
199 255 248 255 255 255 255 255 255 255 255 255 255 255 255 255
255 255 255 255 255 255 255 255 255 255 255 255 255 255 255 255
255 255 255 255 255 255 255 255 255 255 255 255 255 255 255 255
255 255 255 255 255 255 255 255 255 255 255 255 255 255 255 255
255 255 255 255 255 255 255 255 255 255 255 255 255 255 255 255
255 255 255 255 255 255 255 255 255 255 255 255 255 255 255 255
255 255 255 255 255 255 255 255 255 255 255 255 255 255 255 255
255 255 255 255 255 255 255 255 255 255 255 255 255 255 255 255
255 255 255 255 255 255 255 255 255 255 255 255 255 255 255 255
255 255 255 255 255 255 255 255 255 255 255 255 255 255 255 255
255 255 255 255 255 255 255 255 255 255 255 255 255 255 255 255
251 255 255 255 251 158 37 26 18 33 102 86 223 255 251 251
244 210 101 29 13 0 1 6 22 39 34 2 1 1 1 1
1 1 4 20 33 44 41 17 7 1 1 5 5 7 15 24
59 90 87 179 181 66 22 46 73 122 231 247 134 51 138 180
142 105 99 224 255 251 255 255 255 255 255 255 255 255 255 255
255 255 255 255 255 255 255 255 255 255 255 255 255 255 255 255
255 255 255 255 255 255 255 255 255 255 255 255 255 255 255 255
255 255 255 255 255 255 255 255 255 255 255 255 255 255 255 255
255 255 255 255 255 255 255 255 255 255 255 255 255 255 255 255
255 255 255 255 255 255 255 255 255 255 255 255 255 255 255 255
255 255 255 255 255 255 255 255 255 255 255 255 255 255 255 255
255 255 255 255 255 255 255 255 255 255 255 255 255 255 255 255
255 255 255 255 255 255 255 255 255 255 255 255 255 255 255 255
255 255 255 255 255 255 255 255 255 255 255 255 255 255 255 255
255 255 255 255 255 255 255 255 255 255 255 255 255 255 255 255
255 255 255 251 255 255 251 255 194 53 21 35 17 62 102 138
255 255 251 247 215 105 37 13 0 1 1 18 39 58 17 1
1 1 1 1 1 4 9 4 25 25 4 4 1 1 5 1
5 21 26 48 72 118 220 185 51 31 41 66 122 223 242 86
84 158 145 154 91 138 255 243 255 255 255 255 255 255 255 255
255 255 255 255 255 255 255 255 255 255 255 255 255 255 255 255
255 255 255 255 255 255 255 255 255 255 255 255 255 255 255 255
255 255 255 255 255 255 255 255 255 255 255 255 255 255 255 255
255 255 255 255 255 255 255 255 255 255 255 255 255 255 255 255
255 255 255 255 255 255 255 255 255 255 255 255 255 255 255 255
255 255 255 255 255 255 255 255 255 255 255 255 255 255 255 255
255 255 255 255 255 255 255 255 255 255 255 255 255 255 255 255
255 255 255 255 255 255 255 255 255 255 255 255 255 255 255 255
255 255 255 255 255 255 255 255 255 255 255 255 255 255 255 255
255 255 255 255 255 255 255 255 255 255 255 255 255 255 255 255
255 255 255 255 255 255 251 255 251 251 255 227 94 29 33 25
17 98 86 223 255 251 254 227 118 53 16 1 1 1 2 23
61 25 1 1 0 1 1 1 6 9 1 4 1 1 4 4
12 21 15 13 24 40 51 59 123 199 163 56 37 42 74 142
228 191 64 121 140 150 151 81 187 255 243 255 251 255 255 255
255 255 255 255 255 255 255 255 255 255 255 255 255 255 255 255
255 255 255 255 255 255 255 255 255 255 255 255 255 255 255 255
255 255 255 255 255 255 255 255 255 255 255 255 255 255 255 255
255 255 255 255 255 255 255 255 255 255 255 255 255 255 255 255
255 255 255 255 255 255 255 255 255 255 255 255 255 255 255 255
255 255 255 255 255 255 255 255 255 255 255 255 255 255 255 255
255 255 255 255 255 255 255 255 255 255 255 255 255 255 255 255
255 255 255 255 255 255 255 255 255 255 255 255 255 255 255 255
255 255 255 255 255 255 255 255 255 255 255 255 255 255 255 255
255 255 255 255 255 255 255 255 255 255 255 255 255 255 255 255
255 255 255 255 255 255 255 255 255 255 255 248 255 255 249 138
37 22 22 22 41 94 154 248 248 254 240 134 73 25 1 1
6 1 2 53 28 3 0 0 1 1 1 1 1 9 1 1
1 1 4 24 49 48 29 29 26 30 27 77 128 128 54 15
42 91 160 236 123 61 132 116 162 122 89 240 255 251 255 251
255 255 255 255 255 255 255 255 255 255 255 255 255 255 255 255
255 255 255 255 255 255 255 255 255 255 255 255 255 255 255 255
255 255 255 255 255 255 255 255 255 255 255 255 255 255 255 255
255 255 255 255 255 255 255 255 255 255 255 255 255 255 255 255
255 255 255 255 255 255 255 255 255 255 255 255 255 255 255 255
255 255 255 255 255 255 255 255 255 255 255 255 255 255 255 255
255 255 255 255 255 255 255 255 255 255 255 255 255 255 255 255
255 255 255 255 255 255 255 255 255 255 255 255 255 255 255 255
255 255 255 255 255 255 255 255 255 255 255 255 255 255 255 255
255 255 255 255 255 255 255 255 255 255 255 255 255 255 255 255
255 255 255 255 255 255 255 255 255 255 255 255 255 255 251 251
255 243 222 70 22 25 17 25 90 78 214 255 248 232 158 89
56 22 1 1 1 5 13 7 3 0 0 1 1 1 4 4
4 1 1 1 1 4 7 15 21 24 24 22 21 15 37 66
47 19 23 50 110 207 196 69 94 124 159 171 67 162 255 255
248 255 251 255 255 255 255 255 255 255 255 255 255 255 255 255
255 255 255 255 255 255 255 255 255 255 255 255 255 255 255 255
255 255 255 255 255 255 255 255 255 255 255 255 255 255 255 255
255 255 255 255 255 255 255 255 255 255 255 255 255 255 255 255
255 255 255 255 255 255 255 255 255 255 255 255 255 255 255 255
255 255 255 255 255 255 255 255 255 255 255 255 255 255 255 255
255 255 255 255 255 255 255 255 255 255 255 255 255 255 255 255
255 255 255 255 255 255 255 255 255 255 255 255 255 255 255 255
255 255 255 255 255 255 255 255 255 255 255 255 255 255 255 255
255 255 255 255 255 255 255 255 255 255 255 255 255 255 255 255
255 255 255 255 255 255 255 255 255 255 255 255 255 255 251 255
255 251 255 255 251 239 135 25 20 25 25 37 78 148 248 235
235 191 89 40 26 1 6 1 6 9 1 1 3 0 1 1
1 1 1 1 1 1 1 1 1 4 9 15 17 18 7 18
12 9 14 11 23 55 88 107 220 107 45 110 105 143 105 89
211 255 251 255 248 255 255 255 255 255 255 255 255 255 255 255
255 255 255 255 255 255 255 255 255 255 255 255 255 255 255 255
255 255 255 255 255 255 255 255 255 255 255 255 255 255 255 255
255 255 255 255 255 255 255 255 255 255 255 255 255 255 255 255
255 255 255 255 255 255 255 255 255 255 255 255 255 255 255 255
255 255 255 255 255 255 255 255 255 255 255 255 255 255 255 255
255 255 255 255 255 255 255 255 255 255 255 255 255 255 255 255
255 255 255 255 255 255 255 255 255 255 255 255 255 255 255 255
255 255 255 255 255 255 255 255 255 255 255 255 255 255 255 255
255 255 255 255 255 255 255 255 255 255 255 255 255 255 255 255
255 255 255 255 255 255 255 255 255 255 255 255 255 255 255 255
255 251 255 255 255 255 255 255 255 219 93 22 17 30 30 81
64 218 240 236 212 102 32 16 9 1 1 1 1 1 1 1
3 1 1 1 1 1 1 1 1 1 1 1 1 4 9 9
12 4 15 7 4 6 10 26 60 79 139 182 57 64 137 158
146 64 146 251 255 255 255 243 255 255 255 255 255 255 255 255
255 255 255 255 255 255 255 255 255 255 255 255 255 255 255 255
255 255 255 255 255 255 255 255 255 255 255 255 255 255 255 255
255 255 255 255 255 255 255 255 255 255 255 255 255 255 255 255
255 255 255 255 255 255 255 255 255 255 255 255 255 255 255 255
255 255 255 255 255 255 255 255 255 255 255 255 255 255 255 255
255 255 255 255 255 255 255 255 255 255 255 255 255 255 255 255
255 255 255 255 255 255 255 255 255 255 255 255 255 255 255 255
255 255 255 255 255 255 255 255 255 255 255 255 255 255 255 255
255 255 255 255 255 255 255 255 255 255 255 255 255 255 255 255
255 255 255 255 255 255 255 255 255 255 255 255 255 255 255 255
255 255 255 255 255 255 255 255 255 254 255 255 247 171 46 17
22 9 40 50 158 240 227 215 139 53 5 0 3 1 1 4
1 1 0 0 1 1 0 1 1 1 1 1 1 1 1 1
4 4 4 4 7 7 3 6 10 7 18 41 92 181 119 57
82 134 143 89 100 219 255 251 255 255 255 255 255 255 255 255
255 255 255 255 255 255 255 255 255 255 255 255 255 255 255 255
255 255 255 255 255 255 255 255 255 255 255 255 255 255 255 255
255 255 255 255 255 255 255 255 255 255 255 255 255 255 255 255
255 255 255 255 255 255 255 255 255 255 255 255 255 255 255 255
255 255 255 255 255 255 255 255 255 255 255 255 255 255 255 255
255 255 255 255 255 255 255 255 255 255 255 255 255 255 255 255
255 255 255 255 255 255 255 255 255 255 255 255 255 255 255 255
255 255 255 255 255 255 255 255 255 255 255 255 255 255 255 255
255 255 255 255 255 255 255 255 255 255 255 255 255 255 255 255
255 255 255 255 255 255 255 255 255 255 255 255 255 255 255 255
255 255 255 255 255 255 255 255 255 255 255 255 255 251 255 247
241 130 30 14 13 24 37 77 191 196 215 175 112 48 7 0
0 0 1 1 1 1 1 0 0 0 0 1 1 1 1 1
1 1 1 1 1 1 1 1 1 5 5 2 2 27 70 156
173 108 73 82 102 64 70 182 255 251 251 255 255 255 251 255
255 255 255 255 255 255 255 255 255 255 255 255 255 255 255 255
255 255 255 255 255 255 255 255 255 255 255 255 255 255 255 255
255 255 255 255 255 255 255 255 255 255 255 255 255 255 255 255
255 255 255 255 255 255 255 255 255 255 255 255 255 255 255 255
255 255 255 255 255 255 255 255 255 255 255 255 255 255 255 255
255 255 255 255 255 255 255 255 255 255 255 255 255 255 255 255
255 255 255 255 255 255 255 255 255 255 255 255 255 255 255 255
255 255 255 255 255 255 255 255 255 255 255 255 255 255 255 255
255 255 255 255 255 255 255 255 255 255 255 255 255 255 255 255
255 255 255 255 255 255 255 255 255 255 255 255 255 255 255 255
255 255 255 255 255 255 255 255 255 255 255 255 255 255 255 255
255 255 255 255 228 106 45 8 8 13 29 109 138 183 171 157
134 71 34 19 11 5 1 1 3 3 0 0 0 1 5 4
4 1 1 1 1 1 1 1 1 1 3 5 13 26 30 46
89 132 172 144 121 94 76 53 66 151 240 251 255 255 251 255
251 255 255 255 255 255 255 255 255 255 255 255 255 255 255 255
255 255 255 255 255 255 255 255 255 255 255 255 255 255 255 255
255 255 255 255 255 255 255 255 255 255 255 255 255 255 255 255
255 255 255 255 255 255 255 255 255 255 255 255 255 255 255 255
255 255 255 255 255 255 255 255 255 255 255 255 255 255 255 255
255 255 255 255 255 255 255 255 255 255 255 255 255 255 255 255
255 255 255 255 255 255 255 255 255 255 255 255 255 255 255 255
255 255 255 255 255 255 255 255 255 255 255 255 255 255 255 255
255 255 255 255 255 255 255 255 255 255 255 255 255 255 255 255
255 255 255 255 255 255 255 255 255 255 255 255 255 255 255 255
255 255 255 255 255 255 255 255 255 255 255 255 255 255 255 255
255 255 255 255 255 255 241 255 223 135 25 0 34 26 60 81
125 133 141 149 112 85 64 40 25 9 1 1 1 3 5 8
11 14 14 9 9 6 6 9 9 9 9 9 9 13 13 26
42 63 100 131 147 136 126 123 107 78 58 143 219 255 247 255
255 247 255 246 255 255 255 255 255 255 255 255 255 255 255 255
255 255 255 255 255 255 255 255 255 255 255 255 255 255 255 255
255 255 255 255 255 255 255 255 255 255 255 255 255 255 255 255
255 255 255 255 255 255 255 255 255 255 255 255 255 255 255 255
255 255 255 255 255 255 255 255 255 255 255 255 255 255 255 255
255 255 255 255 255 255 255 255 255 255 255 255 255 255 255 255
255 255 255 255 255 255 255 255 255 255 255 255 255 255 255 255
255 255 255 255 255 255 255 255 255 255 255 255 255 255 255 255
255 255 255 255 255 255 255 255 255 255 255 255 255 255 255 255
255 255 255 255 255 255 255 255 255 255 255 255 255 255 255 255
255 255 255 255 255 255 255 255 255 255 255 255 255 255 255 255
251 255 255 254 251 255 255 255 255 255 247 255 228 176 53 16
38 57 54 81 105 86 84 87 55 36 21 13 3 5 14 17
9 10 16 21 25 22 17 17 14 14 17 19 17 17 19 21
13 21 26 30 50 92 115 115 103 103 115 105 98 156 229 255
251 255 243 255 255 255 255 255 255 255 255 255 255 255 255 255
255 255 255 255 255 255 255 255 255 255 255 255 255 255 255 255
255 255 255 255 255 255 255 255 255 255 255 255 255 255 255 255
255 255 255 255 255 255 255 255 255 255 255 255 255 255 255 255
255 255 255 255 255 255 255 255 255 255 255 255 255 255 255 255
255 255 255 255 255 255 255 255 255 255 255 255 255 255 255 255
255 255 255 255 255 255 255 255 255 255 251 255 254 251 254 255
254 254 254 247 239 223 212 204 199 196 196 196 203 209 217 228
236 244 250 250 250 251 251 254 254 254 254 255 251 255 255 251
251 255 255 255 253 253 255 253 255 255 255 255 255 255 255 251
251 255 255 255 255 255 251 255 255 255 251 255 255 255 255 255
255 255 255 255 255 255 255 255 255 255 255 255 255 255 251 251
216 123 37 44 60 81 86 82 82 78 62 49 28 13 13 16
11 11 13 17 14 14 33 25 18 43 41 29 29 41 36 38
17 18 17 34 29 41 59 59 60 79 96 108 107 102 92 146
227 251 255 255 255 255 255 255 255 255 255 255 255 255 255 255
255 255 255 255 251 255 255 255 255 255 255 255 255 255 251 251
255 255 255 255 254 254 255 255 255 255 255 255 255 255 255 255
255 255 255 255 255 255 255 250 250 255 255 255 255 255 255 255
255 255 255 255 255 255 255 255 255 255 255 255 255 255 251 251
255 255 255 255 255 255 255 255 255 255 255 255 255 255 255 255
255 255 255 255 255 255 255 255 255 255 255 254 255 254 250 254
254 254 236 207 188 179 176 179 179 184 187 195 195 195 187 184
181 176 171 167 162 162 162 172 189 208 224 239 247 247 250 251
251 251 251 255 255 247 255 253 255 255 255 253 250 241 250 255
255 255 255 255 255 255 246 255 255 255 251 251 255 255 255 255
255 255 255 255 255 251 255 255 255 255 255 255 255 255 255 255
255 251 248 227 163 98 66 57 62 74 74 71 66 59 49 33
21 16 16 11 10 13 17 22 19 30 33 45 61 45 45 53
70 61 53 35 30 29 34 30 46 62 63 68 83 95 92 96
99 116 175 235 254 255 255 255 255 255 255 255 255 255 255 255
255 255 255 255 255 255 255 255 255 255 251 251 255 255 255 255
255 255 255 255 255 255 255 255 255 255 255 255 255 255 255 255
255 255 255 255 251 251 255 255 255 255 255 255 255 255 255 255
255 255 255 255 255 255 255 255 255 255 251 251 251 251 251 255
255 255 255 255 251 251 255 255 255 251 251 255 255 255 255 255
255 255 255 255 255 255 255 255 255 255 255 255 255 255 255 255
254 254 239 207 191 191 199 212 220 228 228 231 231 236 233 231
228 231 228 228 224 222 219 214 211 202 194 178 161 153 153 154
151 179 200 228 251 251 245 246 251 251 254 251 254 254 255 255
255 255 255 255 251 250 251 251 251 255 255 255 255 255 251 251
255 255 255 255 255 255 255 255 255 255 255 255 255 255 255 255
255 255 255 255 251 251 243 213 180 111 78 62 71 75 68 63
62 38 33 24 17 13 9 10 10 14 17 19 30 45 65 78
61 53 74 86 83 61 51 37 33 37 37 47 59 59 68 83
92 92 99 107 150 203 239 254 255 255 255 255 255 255 255 255
255 255 255 255 255 255 255 255 255 255 255 255 255 255 255 255
255 255 255 255 255 255 255 255 255 255 255 255 255 255 255 255
255 255 251 248 246 248 251 255 255 251 255 255 251 251 255 255
251 255 255 255 255 255 255 255 255 255 255 255 255 255 255 255
255 255 255 248 251 255 255 255 251 255 255 255 255 255 255 255
255 255 255 255 255 255 255 255 255 255 255 255 255 255 251 255
255 255 250 242 218 207 199 210 223 231 228 223 236 236 231 231
231 231 231 228 233 233 230 232 232 230 227 227 226 226 218 206
202 198 190 178 150 131 115 120 156 197 226 238 247 254 254 254
254 250 247 251 251 251 251 255 255 255 255 255 251 249 251 251
255 255 255 255 255 255 255 255 255 255 255 255 255 255 255 255
255 255 255 255 255 255 255 251 251 248 231 212 151 108 75 71
63 52 48 43 22 26 21 17 14 14 14 11 11 14 25 46
61 70 83 89 78 99 102 102 78 78 57 45 45 42 47 46
47 58 76 80 83 96 104 150 200 220 247 251 255 255 255 255
255 255 255 255 255 255 255 255 255 255 255 255 250 255 255 255
255 255 255 255 255 255 255 255 255 255 255 255 255 255 255 255
255 255 255 255 255 255 255 255 255 255 251 251 255 255 255 251
254 255 255 255 254 254 254 254 254 254 254 254 250 250 250 251
251 254 255 255 247 254 255 255 248 245 251 255 255 255 255 255
255 255 255 255 255 255 255 255 255 255 255 255 255 255 255 255
255 255 255 255 251 235 226 210 215 226 234 239 234 236 239 231
231 228 228 231 231 233 236 231 231 231 236 236 236 235 235 228
230 230 228 230 230 222 210 210 204 154 103 95 119 127 127 172
196 218 237 250 254 250 254 254 255 255 255 255 255 255 255 255
254 243 210 210 244 255 255 255 255 255 255 255 255 255 255 255
255 255 255 255 255 255 255 255 255 255 255 251 239 212 187 167
129 92 68 52 40 27 19 18 18 17 14 17 19 19 14 14
27 46 59 67 75 86 111 102 115 107 107 94 100 73 53 45
42 42 43 42 50 63 64 68 92 104 139 176 203 239 254 254
255 255 255 255 255 255 255 255 255 255 255 255 255 255 255 253
255 255 253 255 255 249 254 255 255 255 255 255 255 255 255 255
255 255 255 255 255 255 255 251 251 251 251 255 255 255 251 255
255 251 251 251 251 250 247 247 244 242 234 226 221 218 214 214
214 215 218 218 223 226 226 242 247 250 254 254 254 254 251 251
251 251 255 255 255 255 255 255 255 255 255 255 255 255 255 255
255 255 255 255 255 255 245 234 226 226 215 223 231 239 239 234
231 234 231 227 227 226 227 226 223 220 223 223 228 228 230 230
230 234 239 239 236 234 235 235 234 234 231 204 162 158 183 183
160 155 116 128 130 144 177 205 224 247 250 251 254 255 255 255
255 255 254 242 187 115 115 188 244 251 255 255 255 255 255 255
255 255 255 255 255 255 255 255 255 255 255 255 255 255 251 228
195 167 142 117 88 63 44 34 24 11 13 14 12 14 14 14
11 7 14 43 62 57 61 78 89 102 119 119 111 107 102 108
86 61 49 40 42 47 43 47 52 55 63 87 100 123 155 183
219 241 254 255 255 255 255 255 255 255 255 255 255 255 255 255
255 255 255 255 253 253 255 255 255 255 254 254 255 255 255 255
255 255 255 255 255 255 255 255 255 255 255 255 251 251 251 251
248 244 247 233 217 209 203 192 187 187 171 174 182 190 198 205
209 210 210 210 210 210 213 214 215 218 198 194 191 207 226 247
250 247 254 255 255 254 255 255 255 255 255 255 255 255 255 255
255 255 255 255 255 255 255 255 246 235 227 226 234 239 229 218
218 218 218 223 223 218 218 221 223 227 227 226 223 223 223 223
220 214 206 210 212 205 209 214 217 206 190 182 183 163 162 179
225 248 224 197 213 182 165 125 105 125 133 139 155 176 195 220
244 254 254 254 254 230 212 162 108 83 121 195 251 254 254 255
255 255 255 255 255 255 255 255 255 255 255 255 255 255 255 255
255 247 214 179 158 112 93 76 60 41 26 15 6 10 9 9
13 9 1 1 2 10 35 53 43 59 83 83 94 127 123 122
114 119 119 107 89 61 45 42 47 43 40 47 52 56 67 89
103 128 155 188 222 254 255 255 255 255 255 255 255 255 255 255
255 255 255 255 255 255 255 250 253 255 249 241 255 251 254 254
254 255 255 255 255 255 255 255 255 255 251 251 248 248 251 251
250 241 220 198 182 159 148 151 176 197 205 212 224 228 230 230
235 235 239 236 239 239 239 239 239 239 239 239 239 244 250 247
231 210 199 210 226 245 250 254 254 254 254 254 255 255 255 255
255 255 255 255 255 255 255 255 255 255 243 235 229 229 234 237
229 234 239 242 239 234 234 239 239 235 235 235 235 239 239 239
234 239 239 234 228 226 230 234 241 241 241 238 217 200 208 226
234 234 215 204 228 234 221 228 231 222 185 174 185 172 139 131
140 143 151 159 171 190 220 239 254 250 254 229 145 80 140 247
254 254 254 255 255 255 255 255 255 255 255 255 255 255 255 255
255 255 255 254 231 195 157 142 133 110 94 80 56 33 19 9
13 9 12 17 9 1 1 2 15 21 32 37 64 83 78 94
114 111 119 107 119 111 111 100 76 53 43 42 35 34 42 52
64 64 89 103 127 159 188 235 254 255 255 255 255 255 255 255
255 255 255 255 255 255 255 255 255 255 250 255 255 230 210 223
250 250 254 254 255 255 255 254 255 255 255 255 254 251 247 244
217 203 187 171 164 159 159 156 160 158 177 213 236 229 221 224
227 230 232 235 236 236 239 236 239 239 239 239 239 239 239 239
239 234 231 236 239 239 226 215 202 221 242 254 254 254 254 255
255 255 255 255 255 255 255 255 255 255 255 255 246 235 229 229
234 234 237 237 237 234 234 237 237 235 237 240 238 237 235 237
237 239 239 239 242 234 223 223 234 239 234 241 230 214 209 214
227 230 233 239 239 230 227 220 220 228 235 224 237 225 199 199
224 229 213 184 163 147 135 131 131 139 151 172 173 210 210 142
79 126 238 247 250 254 254 254 251 251 251 254 254 254 255 255
255 255 255 255 255 255 254 228 179 138 123 113 113 105 83 67
52 31 9 18 13 19 25 17 2 2 10 15 37 51 63 75
70 66 78 107 119 118 107 112 126 123 105 78 65 48 37 38
43 42 44 60 89 97 116 159 184 201 232 247 251 255 251 255
255 255 255 255 255 255 255 255 255 255 255 246 255 251 255 243
175 126 146 175 231 254 254 247 254 255 251 251 247 233 215 201
192 179 171 151 167 161 163 155 186 196 205 215 195 158 212 232
232 240 237 232 236 240 239 236 236 239 241 242 239 239 244 247
247 244 239 244 244 243 239 239 239 239 239 223 214 215 234 254
254 254 251 255 255 255 255 255 255 255 255 255 255 255 255 246
235 230 235 234 235 237 234 237 234 234 237 235 235 235 238 235
235 235 237 243 237 234 221 226 226 226 234 243 247 239 215 218
220 228 236 239 242 242 234 234 234 234 230 229 234 236 236 235
232 227 216 213 224 237 229 221 209 205 196 180 155 142 135 124
126 122 117 114 134 186 229 238 244 247 251 251 254 254 250 254
254 255 255 251 251 251 245 248 254 254 232 188 139 107 113 97
89 83 80 64 36 14 33 24 19 19 13 5 8 18 23 47
58 63 71 66 61 70 96 111 119 118 120 123 110 94 87 70
53 45 47 54 52 49 52 80 97 116 151 159 168 196 233 248
255 255 251 251 251 255 255 255 255 255 255 251 251 251 255 255
248 247 247 230 189 151 148 200 238 247 241 228 204 191 184 184
179 176 179 180 172 166 176 155 147 183 209 229 225 228 242 231
175 183 188 208 224 216 240 236 236 236 244 247 247 244 247 247
247 247 247 247 247 247 244 244 244 244 244 244 245 247 247 230
218 226 234 243 254 255 255 255 255 255 255 255 255 255 255 255
255 255 243 235 232 235 235 235 237 235 234 237 237 237 237 237
235 238 235 235 237 237 237 234 229 234 234 234 239 239 234 226
218 212 221 232 237 240 237 235 235 238 243 245 242 237 232 232
229 239 231 236 239 228 212 220 243 229 229 228 225 229 229 225
221 208 200 178 149 142 126 106 117 112 123 148 167 192 217 233
244 250 254 254 250 251 251 255 255 255 255 250 225 192 163 136
115 103 92 80 80 75 59 44 31 46 29 16 16 11 8 13
21 34 58 63 63 63 55 50 58 74 86 99 104 107 112 104
94 86 68 51 45 51 59 56 52 52 70 89 121 157 168 174
198 233 240 248 255 255 255 255 249 255 255 255 255 255 255 255
255 251 248 255 254 241 244 221 156 145 155 159 159 160 160 160
171 171 175 180 180 183 196 208 213 225 205 196 228 240 236 220
223 231 218 202 234 238 216 208 206 224 230 239 239 236 231 232
232 240 240 240 240 235 235 236 240 236 236 237 237 240 240 240
243 247 237 231 231 235 237 243 254 255 255 255 255 255 255 255
255 255 255 255 251 243 235 235 235 235 235 237 237 237 237 237
237 235 235 235 238 235 235 235 237 234 229 229 237 234 239 242
239 231 223 223 243 244 245 243 237 235 235 240 238 238 238 238
237 232 229 227 221 221 221 218 218 215 214 214 244 247 240 227
221 224 229 232 229 236 237 223 212 171 149 190 182 168 142 119
111 116 127 140 167 182 212 231 247 250 250 250 244 250 247 229
199 168 133 108 104 76 56 56 75 80 64 42 42 30 21 16
16 11 13 21 47 58 61 58 58 39 34 50 58 63 74 86
99 102 98 91 70 60 45 45 49 54 55 50 57 56 69 102
141 161 178 198 229 241 251 255 251 251 255 255 255 255 251 251
251 251 248 248 230 212 206 184 148 145 142 112 131 147 167 184
201 203 204 212 216 218 220 218 224 232 234 237 196 208 221 237
240 243 243 243 214 234 234 243 246 246 243 222 220 231 244 247
244 239 232 232 243 243 244 243 243 243 243 243 240 240 237 235
235 235 235 235 237 237 239 242 242 237 237 240 251 255 255 255
255 255 255 255 255 255 255 251 243 235 235 235 235 235 237 237
237 237 237 237 237 237 235 235 235 237 240 235 229 231 237 234
234 234 239 231 223 223 234 230 229 226 221 221 221 227 227 227
227 227 227 228 231 235 235 243 243 243 237 239 242 239 231 220
230 239 238 235 238 235 227 230 228 228 229 214 165 136 185 228
232 229 218 205 186 169 155 119 114 111 111 113 122 138 146 176
164 147 129 117 109 97 90 60 34 25 49 77 78 64 57 42
34 25 21 21 16 19 24 53 55 50 55 55 30 26 50 63
63 74 91 104 99 88 74 61 56 50 49 55 56 56 52 57
56 69 85 97 113 137 159 153 173 202 229 244 247 240 232 240
232 216 196 175 158 147 141 151 151 156 173 186 196 205 206 217
232 237 229 232 233 236 239 232 232 229 235 243 240 219 200 232
247 254 247 250 254 250 239 241 250 244 230 231 239 247 239 231
226 223 234 251 254 250 239 248 245 245 248 251 251 248 243 248
248 248 243 243 243 243 243 243 239 239 239 239 240 240 240 246
251 255 255 255 255 255 255 255 255 255 251 243 235 235 235 235
235 237 237 237 237 237 238 237 235 235 232 235 240 239 234 226
234 242 242 239 234 234 226 218 223 231 233 233 237 239 242 239
240 240 235 232 227 227 232 235 240 243 238 237 237 243 237 229
234 237 239 234 233 234 242 245 239 226 234 234 239 235 229 193
152 168 215 223 231 232 232 236 232 229 221 221 216 203 192 179
162 154 107 99 82 55 48 60 82 98 44 8 10 65 103 86
66 65 44 32 22 18 16 17 24 29 50 47 47 55 55 31
26 50 66 66 71 82 96 96 87 74 56 56 53 55 57 59
60 60 57 65 94 100 80 89 118 137 80 84 88 100 113 124
134 142 155 158 163 172 183 195 203 209 203 224 229 229 234 221
196 188 201 228 240 235 236 239 236 234 227 235 240 235 230 222
214 206 230 231 239 236 244 239 239 232 254 247 254 255 254 235
239 247 243 234 223 223 231 242 250 250 239 237 235 240 243 243
243 240 248 248 248 243 243 243 243 243 244 243 240 240 243 243
240 235 243 251 255 255 255 255 255 255 255 255 255 255 246 238
235 235 235 235 237 238 238 238 238 238 235 235 235 235 232 235
239 231 223 226 234 229 229 230 230 231 234 236 239 235 237 241
243 243 240 240 235 244 240 235 231 236 239 242 239 242 237 242
243 237 229 235 245 245 234 226 226 232 240 248 254 229 232 237
233 227 208 163 150 186 199 210 218 226 234 232 224 234 229 226
224 224 226 224 221 228 209 157 96 60 64 75 78 67 16 3
60 124 128 92 61 41 32 19 13 13 17 20 25 39 47 47
55 58 42 34 47 58 63 66 71 79 88 88 82 64 61 53
55 59 62 63 60 60 78 113 122 94 97 118 116 97 130 174
201 205 208 220 239 247 247 247 247 247 247 247 247 236 238 224
208 196 188 183 188 209 231 240 232 230 233 231 234 234 240 244
234 223 223 236 244 240 239 248 240 243 230 235 235 239 251 255
240 246 251 255 243 245 250 250 237 226 229 241 254 245 243 243
237 237 243 243 243 243 243 240 240 238 240 240 240 240 240 243
244 243 243 240 235 240 248 251 255 255 255 255 255 255 255 255
255 248 238 235 235 235 235 238 238 238 238 238 238 235 235 235
235 235 235 235 231 218 215 218 231 231 231 236 239 242 239 235
243 243 243 238 238 238 240 243 240 235 231 231 239 240 239 239
242 242 239 234 237 239 237 237 237 237 242 245 237 229 234 245
254 240 233 225 232 228 191 166 158 165 169 171 183 204 217 220
212 205 202 205 205 208 205 202 188 184 163 138 138 135 92 33
27 19 21 44 78 100 94 83 44 32 19 15 21 25 20 19
31 47 50 50 58 55 42 42 42 58 71 74 82 86 82 74
72 64 55 55 62 67 64 60 73 80 113 122 97 97 100 75
158 149 152 182 213 232 235 230 240 240 244 244 243 243 240 240
229 197 176 163 152 144 152 166 204 224 232 235 239 237 237 242
242 230 223 223 234 243 243 240 243 240 243 232 246 243 247 235
235 224 239 235 240 227 230 235 229 242 245 245 234 226 229 234
245 245 242 235 234 235 243 245 243 243 243 243 240 240 240 240
240 240 240 240 235 238 243 243 235 246 251 255 255 255 255 255
255 255 255 255 255 246 243 238 238 235 240 237 237 237 237 235
235 235 235 235 232 227 232 239 240 235 228 235 236 239 239 239
239 239 240 238 238 238 238 238 238 238 238 235 243 240 223 226
244 236 236 234 231 231 226 223 218 218 218 222 222 223 226 223
221 217 213 244 240 232 226 226 218 182 149 138 133 138 142 142
155 180 197 207 216 216 219 224 221 216 216 210 214 184 151 133
114 74 26 8 19 32 40 52 81 81 65 49 32 19 11 13
14 22 26 31 26 42 61 71 58 42 53 58 66 66 69 66
61 66 58 66 58 55 63 64 67 76 68 65 84 90 90 109
78 45 92 174 192 187 184 201 204 199 216 208 213 208 213 228
232 236 249 234 212 199 191 166 147 150 163 208 221 244 236 230
250 250 234 222 226 234 242 247 247 247 245 248 243 246 246 240
243 248 240 243 229 227 235 243 243 243 248 243 242 237 234 231
229 229 229 239 242 242 242 242 231 234 248 245 245 243 243 243
243 240 243 243 243 243 240 238 238 243 243 243 246 255 255 255
255 255 255 255 255 255 255 255 251 246 240 238 235 240 235 235
235 235 235 232 232 232 235 232 232 235 240 240 236 232 228 235
240 240 240 236 236 240 238 238 238 238 238 238 238 238 243 243
243 231 223 220 207 212 223 223 223 223 223 226 226 226 220 218
220 221 222 221 218 217 200 197 164 153 189 191 154 125 122 135
138 123 120 155 194 213 225 232 232 229 232 229 229 234 226 214
165 147 128 49 10 34 29 27 21 3 68 60 68 68 28 26
22 14 13 13 27 38 39 26 34 42 55 50 34 42 69 74
69 69 63 50 53 47 50 47 47 56 64 68 76 68 65 70
72 69 72 73 68 93 135 174 204 225 239 236 224 224 224 229
224 220 216 204 184 176 195 206 222 231 229 226 232 240 243 254
239 235 247 250 230 222 242 247 250 254 254 255 255 255 255 255
255 255 251 251 251 248 235 234 239 250 254 251 251 255 255 254
254 250 243 239 234 229 237 239 242 242 239 229 226 235 243 243
240 240 240 243 243 243 243 243 243 243 238 238 243 243 243 246
255 255 255 255 255 255 255 255 255 255 255 255 251 243 238 238
238 237 235 235 235 235 232 232 232 237 235 237 240 240 243 240
237 232 235 243 243 240 240 240 240 240 240 238 238 238 238 238
238 238 237 243 243 239 226 215 236 239 237 239 237 239 239 239
242 239 239 239 237 234 237 234 234 239 235 200 173 232 224 163
107 104 103 116 133 142 153 164 169 196 205 208 208 210 200 188
183 191 198 171 168 149 76 41 60 89 51 15 5 36 57 65
55 36 31 24 19 10 10 17 30 34 28 36 42 49 47 36
49 57 66 63 66 57 47 50 50 50 42 47 59 67 75 79
75 69 69 77 64 67 110 113 83 103 158 215 231 220 216 229
243 237 232 229 216 191 172 163 155 157 165 157 149 168 185 183
183 186 238 222 230 230 209 198 233 239 239 239 239 242 243 243
243 246 246 248 251 251 254 251 251 227 235 247 254 255 251 251
251 251 251 251 251 251 245 243 239 237 237 234 237 239 235 231
240 243 240 240 240 240 240 243 246 243 245 245 243 243 243 243
243 243 246 255 255 255 255 255 255 255 255 255 255 255 255 255
248 243 238 238 240 240 240 237 235 235 235 235 237 240 240 243
240 240 240 240 235 240 240 240 240 240 240 240 238 238 238 238
238 238 241 241 238 235 240 239 239 231 223 244 239 239 239 239
239 239 239 237 242 242 242 242 242 242 242 242 236 236 217 192
240 224 167 94 104 93 101 125 133 122 110 105 115 115 119 137
173 197 216 234 216 212 192 168 141 133 135 117 93 52 13 13
28 76 94 80 68 44 27 27 18 5 9 21 23 32 51 51
47 38 35 59 43 54 54 57 55 47 57 57 50 34 43 54
62 68 72 80 92 72 75 83 101 140 145 111 175 191 216 232
240 243 235 216 224 205 208 208 179 139 118 105 134 163 159 135
131 134 139 158 210 206 132 169 209 222 212 225 228 226 226 226
227 227 227 227 218 218 218 227 231 227 223 231 224 237 248 248
248 248 248 243 243 243 243 243 243 245 248 248 243 239 234 231
239 239 239 247 243 243 243 240 240 240 240 243 243 245 245 243
243 243 243 243 243 251 255 255 255 255 255 255 255 255 255 255
255 255 255 251 248 243 235 240 240 240 240 240 240 240 240 237
240 243 240 240 240 240 243 240 235 235 235 237 240 240 240 237
238 238 238 238 238 238 238 238 237 242 237 239 239 228 236 231
235 235 235 237 237 237 237 235 234 237 242 242 245 245 242 244
236 236 209 233 229 208 140 120 126 138 138 130 114 94 73 71
74 78 92 121 149 181 210 225 225 217 206 178 162 154 125 114
90 60 33 89 80 89 100 79 52 37 43 34 8 9 29 28
35 56 56 43 32 26 50 46 56 54 54 51 43 51 51 50
33 51 67 74 76 78 97 93 55 52 96 128 136 161 184 204
213 232 240 240 240 232 220 200 187 195 213 219 224 221 205 163
183 175 150 142 139 150 178 227 227 190 238 239 239 239 241 236
236 239 239 240 240 238 238 243 245 240 239 242 231 223 234 240
248 248 243 243 248 248 243 249 248 243 243 243 243 243 248 251
247 235 235 239 239 235 240 243 243 243 243 243 240 240 238 243
243 243 243 243 243 243 243 246 251 255 255 255 255 255 255 255
255 255 255 255 251 255 255 251 246 238 235 235 240 240 240 240
240 240 240 240 240 240 240 240 240 240 243 237 235 235 235 240
243 243 243 243 240 238 238 237 235 235 235 237 242 234 239 242
222 218 237 237 239 237 239 242 242 242 242 242 242 242 242 242
239 234 228 216 224 203 205 205 208 164 120 104 109 117 109 90
68 52 60 74 88 97 105 108 129 156 196 222 206 182 161 124
92 72 52 25 20 29 64 48 53 72 68 52 44 51 34 10
9 29 31 35 48 51 50 42 34 50 50 56 50 51 46 40
43 43 47 38 67 78 82 90 92 108 104 104 101 120 136 133
152 185 217 232 246 253 247 219 189 171 159 171 179 171 171 203
227 224 240 237 221 213 221 224 224 235 247 230 210 244 234 239
247 242 247 247 251 254 254 254 254 254 251 254 245 242 242 223
215 234 251 251 248 240 240 245 245 240 240 243 245 248 248 243
243 243 243 245 243 243 248 247 239 240 237 239 240 240 240 240
240 238 241 243 243 243 243 243 243 243 251 255 255 255 255 255
255 255 255 255 255 255 255 255 255 255 255 251 246 238 238 240
240 240 240 240 240 240 240 240 240 240 240 240 240 243 240 240
235 232 232 235 235 237 235 235 235 233 230 230 229 235 234 234
223 223 222 198 190 234 237 235 237 235 234 234 234 239 237 234
234 231 229 226 222 230 227 235 234 232 234 236 220 177 128 104
116 111 92 78 79 74 74 68 64 56 56 67 92 112 131 113
95 102 113 128 128 100 72 64 85 72 77 77 75 70 60 47
38 30 21 17 18 30 35 48 51 59 56 48 59 50 53 48
51 54 49 55 52 47 49 82 70 66 92 92 100 101 120 124
124 112 101 109 107 157 201 237 234 188 116 78 86 124 160 181
176 173 181 192 205 181 212 241 247 244 241 241 247 242 236 244
255 255 255 251 243 244 247 248 248 251 251 251 245 251 254 250
247 247 226 222 254 251 251 243 243 240 240 240 240 235 238 243
243 246 246 243 243 235 243 243 245 254 254 246 246 240 240 237
237 237 237 237 238 238 241 243 243 243 243 246 246 255 255 255
255 255 255 255 255 255 255 255 255 255 255 255 255 255 255 255
240 240 240 240 240 240 240 240 243 240 237 240 240 240 240 240
237 240 240 235 224 216 216 218 221 221 221 221 221 222 221 221
221 218 218 218 223 228 212 218 236 236 239 239 239 239 239 239
234 230 230 228 230 230 230 230 235 240 234 237 243 236 223 228
215 191 175 162 139 119 98 82 66 60 55 60 69 64 59 64
68 71 109 152 156 148 147 118 110 113 97 61 94 90 94 89
85 68 39 26 33 45 37 18 22 35 56 59 59 50 42 59
59 59 54 62 67 66 74 71 69 82 108 75 63 100 100 101
109 104 120 165 160 141 160 161 149 152 139 131 127 92 70 92
116 124 132 151 167 161 159 173 174 204 238 251 247 248 255 251
255 245 248 237 235 240 240 245 244 244 244 243 243 243 243 243
237 245 242 239 239 218 217 250 247 245 243 243 243 240 238 240
243 243 243 243 243 243 243 245 235 243 238 240 246 246 243 243
246 245 243 243 237 237 237 237 238 241 243 245 243 246 246 246
255 255 255 255 251 255 255 255 255 255 255 255 255 255 255 255
255 255 255 251 246 238 235 238 243 240 235 243 243 238 238 238
238 238 238 243 238 235 230 230 235 238 243 237 239 237 237 237
237 237 237 237 237 235 234 239 242 230 214 236 236 236 236 236
230 228 224 220 222 230 232 235 235 235 235 234 229 226 218 210
199 186 178 166 155 139 130 123 111 82 58 66 64 59 48 43
43 40 35 45 64 101 128 145 161 150 117 83 80 44 71 76
90 76 89 72 67 52 31 22 33 53 63 38 38 56 72 64
59 59 59 62 75 80 78 90 74 54 82 123 155 108 47 71
103 96 96 117 105 100 124 149 157 174 177 182 174 128 109 109
109 117 104 104 129 124 116 111 88 97 156 204 220 236 251 251
248 248 251 255 251 251 255 249 237 232 232 240 240 240 243 243
240 239 239 239 239 242 247 226 174 247 247 250 251 254 254 254
254 251 251 246 245 243 243 243 243 237 237 230 240 246 246 243
243 245 243 243 243 243 243 243 243 237 237 241 243 245 245 243
246 251 255 255 255 255 255 255 255 255 255 255 255 255 255 255
255 255 255 255 255 255 255 251 243 238 238 238 240 240 240 238
238 238 240 243 240 238 237 235 235 235 235 235 238 240 239 239
237 237 237 237 237 237 242 242 239 234 236 236 224 212 236 236
232 228 224 224 224 224 235 232 230 227 219 211 195 187 165 170
178 186 194 195 198 199 208 208 208 208 204 191 161 134 63 48
42 50 48 38 43 56 51 56 60 76 116 137 123 96 79 113
97 93 73 76 68 65 85 85 76 55 37 35 41 49 47 47
59 70 67 75 79 67 55 78 92 86 75 62 74 120 164 128
83 72 87 83 85 104 117 132 138 154 157 149 170 195 170 151
133 108 79 109 153 145 132 120 104 105 108 89 120 197 241 241
241 239 239 244 247 254 251 251 251 251 251 248 248 251 231 231
232 236 239 243 247 247 245 242 234 247 220 190 219 209 221 221
226 227 229 235 235 235 248 251 251 245 242 234 229 229 237 243
243 243 243 243 243 243 243 243 243 243 243 243 243 240 243 243
243 243 246 251 255 255 255 255 255 255 255 255 255 255 255 255
255 255 255 255 255 255 255 255 255 255 255 251 246 238 235 235
238 238 238 238 240 243 240 238 235 235 235 235 238 238 238 238
238 239 239 239 237 237 237 237 237 231 237 239 239 239 244 239
228 212 220 224 228 224 220 213 212 189 176 171 184 205 211 195
176 212 220 227 230 230 230 232 236 232 236 236 236 238 232 216
203 168 129 83 59 59 59 51 40 27 32 59 71 63 99 143
148 120 131 117 109 81 49 57 85 85 85 80 63 39 22 22
33 47 51 62 70 83 108 115 99 93 99 116 116 103 95 98
127 128 87 72 88 87 89 96 96 116 140 157 179 182 160 169
194 190 141 108 101 96 82 79 107 115 108 92 92 116 143 164
184 222 230 241 250 254 254 247 242 247 250 250 254 254 250 247
244 254 251 239 231 227 227 231 234 234 242 234 250 214 222 236
241 234 234 234 234 234 234 235 232 223 218 215 210 210 218 231
242 243 243 243 240 240 243 240 240 240 240 240 240 240 243 243
243 246 243 241 243 246 255 255 255 255 255 255 255 255 255 255
255 255 255 255 255 255 255 255 255 255 255 255 255 255 255 251
243 238 238 238 238 238 240 243 243 238 235 232 235 235 238 243
243 240 238 237 240 239 239 237 237 237 238 237 235 237 239 231
228 222 212 203 195 195 192 187 187 192 200 208 224 232 236 232
219 211 216 220 231 234 236 236 236 231 231 231 236 236 231 228
228 231 228 228 225 209 176 127 94 73 62 49 59 62 48 45
71 82 87 103 112 144 136 117 96 76 69 68 76 76 72 60
36 15 14 30 32 43 56 64 84 109 125 120 129 117 137 145
132 116 92 78 64 56 68 81 80 100 117 104 124 148 160 179
187 165 161 175 154 157 141 96 79 82 99 155 111 103 127 184
218 221 209 203 187 190 198 209 219 233 241 250 241 238 233 225
227 238 243 246 239 244 247 251 251 243 235 231 234 242 239 239
206 236 239 250 247 245 245 242 242 239 237 235 235 239 243 243
242 237 234 234 243 243 240 240 240 243 240 240 240 240 240 240
240 240 243 243 243 243 245 246 251 255 255 255 255 255 255 255
255 255 255 255 255 255 255 255 255 255 255 255 255 255 255 255
255 255 255 251 246 243 238 238 238 238 238 240 238 235 232 238
238 238 240 240 238 238 237 240 240 240 240 238 238 238 243 239
239 234 226 215 212 208 203 212 220 228 236 236 233 228 228 228
236 239 230 220 220 232 247 231 232 232 235 236 236 236 232 240
237 237 240 240 237 232 228 220 201 195 203 198 162 125 106 75
41 46 59 45 58 71 54 111 144 136 120 109 93 84 76 90
85 77 70 52 26 23 32 34 48 60 73 84 97 113 130 151
138 162 169 145 120 92 72 59 52 64 87 100 109 124 140 145
164 168 173 177 157 154 158 133 133 160 139 96 82 99 139 224
212 220 236 228 225 228 236 239 230 222 206 198 193 198 201 222
230 243 250 249 241 226 217 228 228 231 234 239 239 242 242 237
234 234 229 228 250 239 233 239 239 242 243 243 243 243 243 243
243 245 245 243 235 227 223 237 239 240 243 243 240 240 240 240
240 240 240 240 240 240 243 243 246 251 255 255 255 255 255 255
255 255 255 255 255 255 255 255 255 255 255 255 255 255 255 255
255 255 255 255 255 255 255 255 248 243 238 238 237 238 238 238
238 237 243 240 238 238 238 238 238 238 240 240 240 240 238 238
238 237 232 227 223 223 223 228 236 239 244 239 236 231 234 239
244 247 250 234 215 218 231 242 236 226 243 240 236 236 240 236
232 232 235 235 235 235 235 227 224 224 207 220 231 234 222 206
201 207 166 143 104 79 70 45 29 44 111 131 120 123 112 96
98 119 106 98 89 83 67 44 28 23 39 52 65 81 86 80
99 134 134 115 126 125 109 93 71 63 66 67 78 104 128 136
143 159 161 169 169 181 184 177 161 132 165 129 120 153 172 159
164 212 212 230 247 247 241 247 247 233 231 239 242 242 236 228
220 217 211 211 214 222 227 234 249 253 250 247 236 228 226 231
234 242 234 229 237 223 234 239 247 247 239 239 240 243 243 243
243 248 248 240 235 235 237 243 247 247 235 235 239 243 243 240
240 243 243 243 240 240 240 240 243 243 243 251 255 255 255 255
255 255 255 255 255 255 255 255 255 255 255 255 255 255 255 255
255 255 255 255 255 255 255 255 255 255 255 255 251 246 243 241
238 238 238 238 238 241 238 238 238 237 238 238 238 240 240 240
240 240 235 235 232 227 223 220 223 228 233 236 236 235 235 239
243 243 240 235 227 227 227 231 234 235 239 242 245 242 239 239
239 239 239 237 237 227 227 224 222 218 214 218 227 240 236 223
210 214 228 233 226 223 212 216 177 92 38 53 77 75 131 131
125 112 130 122 114 114 101 90 85 80 63 39 26 33 44 53
64 72 69 85 123 147 110 99 94 92 89 73 68 71 92 111
126 141 157 167 164 176 173 173 181 184 188 174 119 128 180 180
188 232 230 214 228 236 223 226 243 251 243 243 251 240 240 240
239 239 239 236 236 231 225 222 220 208 200 203 219 239 244 250
254 254 250 247 242 242 242 242 230 226 212 224 239 235 235 235
235 235 235 235 235 235 235 240 243 243 240 232 232 235 234 234
239 243 243 243 243 243 240 240 240 240 243 243 246 251 255 255
255 255 255 255 255 255 255 255 255 255 255 255 255 255 255 255
255 255 255 255 255 255 255 255 255 255 255 255 255 255 255 255
255 251 245 241 238 237 237 237 238 238 238 238 238 238 238 240
240 240 240 240 235 235 230 227 224 224 228 236 244 244 239 236
243 238 235 237 240 243 235 229 218 229 240 245 240 235 234 235
237 237 235 231 227 221 221 223 221 227 229 235 227 222 229 240
232 224 226 234 239 233 233 237 231 223 224 212 160 95 59 58
103 134 115 128 117 125 117 127 122 106 90 85 89 80 60 44
44 53 56 61 73 73 86 123 152 119 101 85 80 77 67 72
95 103 131 144 135 148 179 186 189 189 184 176 152 166 173 130
139 200 224 232 236 236 244 226 223 234 235 227 235 247 251 251
251 248 240 240 240 240 243 239 239 236 236 236 225 209 214 236
228 228 228 231 234 242 247 251 251 254 242 254 250 231 228 231
236 240 240 240 240 240 240 240 235 240 240 240 240 240 240 243
240 235 229 235 243 243 243 243 240 240 240 240 243 243 249 249
255 255 255 255 255 255 255 255 255 255 255 255 255 255 255 255
255 255 255 255 255 255 255 255 255 255 255 255 255 255 255 255
255 255 255 255 255 255 251 246 243 238 235 238 238 238 238 238
238 238 238 240 240 240 235 232 229 227 227 239 239 239 239 239
239 239 239 239 237 235 235 232 231 231 229 239 239 235 234 231
231 231 227 227 227 227 227 231 235 235 235 240 237 237 240 235
227 224 227 227 227 231 235 237 234 234 231 227 231 228 212 212
171 83 49 114 132 115 111 131 136 128 125 117 101 117 104 89
77 90 77 64 53 56 67 77 72 85 102 118 98 93 89 80
72 71 88 100 123 144 148 151 164 176 176 200 201 193 176 154
131 180 211 236 226 223 234 242 242 239 242 242 234 231 242 243
235 234 239 248 251 251 251 248 243 243 243 235 240 243 240 239
235 227 223 244 244 239 235 231 227 227 227 239 239 243 251 254
251 239 231 227 229 235 238 243 243 238 235 238 238 238 238 238
240 243 243 243 243 238 235 235 238 243 246 243 243 243 243 246
251 255 255 255 255 255 255 255 255 255 255 255 255 255 255 255
255 255 255 255 255 255 255 255 255 255 255 255 255 255 255 255
255 255 255 255 255 255 255 255 255 255 251 246 245 243 238 238
238 238 238 238 241 241 240 235 235 231 231 235 235 239 239 239
239 239 239 240 240 240 247 243 239 235 235 235 235 235 235 235
235 235 235 231 227 227 240 235 235 235 240 240 240 240 240 240
243 237 227 221 227 237 239 239 237 235 235 232 231 229 235 231
220 220 220 203 143 77 111 103 111 119 120 120 123 128 109 109
117 104 76 89 101 98 97 75 56 53 56 59 64 72 93 79
85 85 85 88 93 107 112 128 144 157 165 173 173 171 179 201
197 192 172 167 208 233 243 243 237 235 235 239 240 239 243 239
235 234 234 237 234 227 235 240 243 248 248 248 248 251 248 248
243 243 240 240 235 235 224 235 247 247 240 236 239 243 239 235
232 232 235 239 243 243 235 229 229 229 235 235 235 238 238 238
238 238 240 240 243 243 243 243 243 243 243 238 238 238 243 246
246 251 251 255 255 255 255 255 255 255 255 255 255 255 255 255
255 255 255 255 255 255 255 255 255 255 255 255 255 255 255 255
255 255 255 255 255 255 255 255 255 255 255 255 255 255 255 251
251 243 241 238 238 238 238 238 238 240 235 231 231 235 239 243
243 239 239 239 239 240 240 240 240 242 239 235 231 229 231 235
235 235 235 239 243 239 231 227 231 243 240 240 240 240 240 240
237 243 240 240 235 227 227 235 243 239 239 239 237 235 235 235
235 235 227 223 231 220 214 190 102 94 74 119 135 116 120 120
112 109 120 120 101 68 104 118 121 113 97 80 76 72 69 64
61 89 79 90 93 96 109 112 125 125 128 136 157 173 173 168
171 172 196 192 195 188 216 236 244 251 255 251 240 235 239 243
239 239 247 243 231 234 242 234 216 235 235 240 243 243 243 243
243 251 248 243 243 243 243 243 240 235 235 239 243 251 251 247
240 240 243 243 240 239 237 239 240 243 237 235 235 229 235 237
243 238 238 238 238 238 238 240 240 243 243 243 243 243 243 243
243 246 251 251 255 255 255 255 255 255 255 255 255 255 255 255
255 255 255 255 255 255 255 255 255 255 255 255 255 255 255 255
255 255 255 255 255 255 255 255 255 255 255 255 255 255 255 255
255 255 255 255 249 246 243 241 238 238 238 238 243 237 235 235
240 243 239 235 239 239 239 239 239 239 239 239 232 231 227 227
227 231 235 237 239 237 242 245 239 231 231 237 237 237 235 237
240 240 240 237 243 235 227 227 235 237 240 237 235 235 237 239
238 235 235 235 230 232 239 242 223 220 206 138 99 77 115 107
90 119 119 108 112 123 126 92 71 118 126 124 109 113 109 106
93 90 80 76 98 88 101 109 109 120 125 125 136 136 139 151
165 173 173 173 172 183 181 192 208 240 247 244 251 255 255 245
235 237 240 243 235 243 243 239 240 247 235 215 243 243 243 240
240 240 235 235 240 240 240 248 248 248 243 240 248 239 231 235
243 247 243 239 243 247 251 251 251 245 243 239 245 243 243 237
237 237 237 235 238 238 238 238 238 238 240 243 243 238 238 238
243 246 251 251 251 255 255 255 255 255 255 255 255 255 255 255
255 255 255 255 255 255 255 255 255 255 255 255 255 255 255 255
255 255 255 255 255 255 255 255 255 255 255 255 255 255 255 255
255 255 255 255 255 255 255 255 251 251 246 243 243 243 243 248
243 240 238 240 243 237 235 238 238 238 237 237 235 235 235 235
235 235 235 235 237 239 240 240 239 243 243 239 232 235 243 238
237 237 238 240 240 238 237 235 230 227 230 238 243 238 235 239
236 235 235 235 235 235 235 243 243 255 250 239 239 215 194 127
103 110 90 87 111 103 103 116 116 124 75 83 124 129 113 116
120 105 105 85 93 85 85 96 80 97 109 112 125 128 117 139
147 151 151 160 172 177 172 173 173 188 199 229 240 247 244 255
255 255 255 246 235 235 243 238 238 240 243 245 245 240 230 240
238 238 240 243 243 243 243 238 235 238 243 246 243 238 238 237
239 239 235 227 231 243 251 243 243 240 240 243 248 251 251 245
243 243 243 243 243 237 232 243 240 240 240 240 240 243 243 238
238 238 243 246 251 255 255 255 255 255 255 255 255 255 255 255
255 255 255 255 255 255 255 255 255 255 255 255 255 255 255 255
255 255 255 255 255 255 255 255 255 255 255 255 255 255 255 255
255 255 255 255 255 255 255 255 255 255 255 255 255 251 251 251
255 255 255 251 243 237 237 238 240 240 238 238 237 235 235 235
235 235 239 239 240 240 243 240 240 240 240 240 239 235 235 235
237 240 238 238 238 238 238 237 235 232 224 230 238 238 237 235
237 235 240 235 235 232 235 238 245 249 255 249 255 243 245 243
215 223 171 135 108 82 82 87 78 103 111 108 119 75 97 132
121 100 121 116 94 97 83 97 83 80 89 71 93 112 112 125
125 112 136 150 158 155 155 164 173 167 174 177 213 221 244 239
247 254 255 251 255 255 251 238 235 240 243 238 235 238 243 243
245 246 238 238 238 238 243 246 246 248 246 240 238 240 238 235
235 238 240 243 243 235 231 231 235 243 243 240 237 237 243 245
248 251 251 245 243 243 243 245 243 240 238 238 238 238 238 238
238 240 243 243 246 255 255 255 255 255 255 255 255 255 255 255
255 255 255 255 255 255 255 255 255 255 255 255 255 255 255 255
255 255 255 255 255 255 255 255 255 255 255 255 255 255 255 255
255 255 255 255 255 255 255 255 255 255 255 255 255 255 255 255
255 255 255 255 255 255 254 246 240 237 237 240 243 235 235 235
235 235 237 237 237 240 240 240 240 240 240 240 240 240 243 240
235 232 240 240 237 238 238 238 238 235 235 230 227 227 235 243
238 235 235 235 235 235 235 235 237 243 251 255 255 255 255 249
245 243 237 227 227 215 175 127 90 72 74 90 114 114 106 116
87 103 138 111 100 116 111 92 103 87 99 78 78 83 67 95
119 112 120 123 115 139 150 161 158 159 164 174 177 196 202 232
241 247 247 247 255 255 255 255 255 255 251 243 240 243 243 238
238 238 240 243 246 243 243 238 238 240 243 243 243 246 243 243
243 238 230 232 238 251 248 243 240 240 237 232 224 237 240 243
245 243 243 240 237 245 251 248 246 245 245 246 251 243 243 243
243 243 243 243 243 251 251 255 255 255 255 255 255 255 255 255
255 255 255 255 255 255 255 255 255 255 255 255 255 255 255 255
255 255 255 255 255 255 255 255 255 255 255 255 255 255 255 255
255 255 255 255 255 255 255 255 255 255 255 255 255 255 255 255
255 255 255 255 255 255 255 255 255 255 251 246 243 237 235 237
235 235 235 237 238 238 238 238 240 240 240 240 240 240 243 243
240 243 243 235 235 243 243 235 240 238 238 238 238 235 232 230
238 240 238 235 235 238 238 232 240 243 245 251 255 255 255 255
249 255 255 255 246 237 251 237 227 220 199 171 138 126 131 115
115 111 119 100 103 143 103 103 114 111 90 99 74 79 66 76
74 58 95 119 112 119 123 123 153 157 161 165 167 171 183 199
224 225 236 244 243 255 243 255 255 255 255 251 255 255 251 240
235 243 243 243 238 238 238 238 246 243 238 238 238 243 243 240
240 238 243 246 240 230 230 238 243 248 251 248 237 232 232 232
232 235 243 243 240 237 240 243 237 245 251 251 243 240 243 251
255 255 255 255 255 255 255 255 255 255 255 255 255 255 255 255
255 255 255 255 255 255 255 255 255 255 255 255 255 255 255 255
255 255 255 255 255 255 255 255 255 255 255 255 255 255 255 255
255 255 255 255 255 255 255 255 255 255 255 255 255 255 255 255
255 255 255 255 255 255 255 255 255 255 255 251 255 255 255 251
243 235 230 240 238 238 238 238 238 240 243 238 238 238 238 238
238 238 238 240 238 235 237 238 243 240 238 238 243 243 238 235
230 232 235 238 238 238 235 235 235 235 235 248 251 255 255 255
255 255 255 250 255 255 251 254 246 235 235 231 223 215 195 203
179 158 139 135 122 111 119 119 130 103 95 93 102 69 86 86
69 50 53 58 69 82 99 122 132 132 138 150 165 165 165 179
199 213 227 236 236 243 246 246 255 255 250 255 255 255 255 255
255 255 255 243 243 243 240 238 238 240 243 238 243 246 243 238
238 243 246 243 243 243 243 243 240 235 227 243 246 251 251 251
248 235 222 210 218 230 240 245 243 238 235 240 240 243 245 251
251 248 246 248 251 255 255 255 255 255 255 255 255 255 255 255
255 255 255 255 255 255 255 255 255 255 255 255 255 255 255 255
255 255 255 255 255 255 255 255 255 255 255 255 255 255 255 255
255 255 255 255 255 255 255 255 255 255 255 255 255 255 255 255
255 255 255 255 255 255 255 255 255 255 255 255 255 255 255 255
255 255 251 248 243 238 235 235 238 240 243 240 238 238 243 243
240 240 238 238 238 238 240 238 235 235 237 237 235 235 240 238
238 235 235 235 235 235 235 235 235 235 235 238 243 243 251 251
255 255 255 255 255 255 255 255 255 255 251 243 233 232 232 235
223 196 182 162 155 155 139 127 119 115 111 115 98 98 86 94
66 61 61 56 53 48 69 74 82 99 122 135 143 148 162 174
179 186 199 212 224 230 236 235 240 243 243 250 255 255 255 255
255 255 255 255 255 255 251 251 248 243 243 240 238 238 238 243
243 240 235 235 240 246 243 243 243 243 243 243 235 230 238 243
245 246 251 251 243 235 235 230 227 227 229 235 243 246 243 243
240 238 238 243 246 251 246 251 251 255 255 255 255 255 255 255
255 255 255 255 255 255 255 255 255 255 255 255 255 255 255 255
255 255 255 255 255 255 255 255 255 255 255 255 255 255 255 255
255 255 255 255 255 255 255 255 255 255 255 255 255 255 255 255
255 255 255 255 255 255 255 255 255 255 255 255 255 255 255 255
255 255 255 255 255 255 255 251 251 235 235 238 238 238 238 238
237 238 238 238 238 238 238 235 235 235 235 235 235 235 238 238
238 238 235 233 235 238 243 241 238 238 237 237 238 243 246 251
255 255 255 255 255 255 255 255 255 255 255 251 251 251 238 227
227 227 240 231 212 190 184 178 180 143 135 135 122 119 111 103
99 104 91 64 53 53 48 56 48 70 78 86 99 119 135 148
164 176 184 190 199 212 216 219 230 230 234 238 246 247 250 253
255 255 255 255 255 255 255 255 255 255 255 255 251 246 243 238
235 238 238 241 238 235 235 241 245 245 243 243 243 243 243 238
235 235 238 240 243 243 246 246 243 243 238 235 230 230 235 235
238 243 243 240 237 235 238 243 248 243 246 251 255 255 255 255
255 255 255 255 255 255 255 255 255 255 255 255 255 255 255 255
255 255 255 255 255 255 255 255 255 255 255 255 255 255 255 255
255 255 255 255 255 255 255 255 255 255 255 255 255 255 255 255
255 255 255 255 255 255 255 255 255 255 255 255 255 255 255 255
255 255 255 255 255 255 255 255 255 255 255 255 243 243 238 235
230 235 235 238 235 235 235 235 238 238 238 238 235 235 235 235
235 238 238 238 235 235 235 238 246 251 251 246 246 246 246 246
251 254 255 255 255 255 255 255 255 255 255 255 255 255 255 255
255 243 229 228 232 243 231 230 216 216 180 163 155 139 140 116
119 116 111 111 99 58 42 42 56 42 45 40 62 69 74 92
119 143 156 172 176 184 184 192 199 196 199 216 225 239 245 246
251 255 255 255 255 255 255 255 255 255 255 255 255 255 255 251
246 243 238 235 238 238 238 238 235 237 238 243 245 243 241 241
243 243 241 238 232 235 238 238 238 240 243 243 238 238 243 243
238 235 235 230 237 238 243 243 240 238 238 238 238 243 251 255
255 255 255 255 255 255 255 255 255 255 255 255 255 255 255 255
255 255 255 255 255 255 255 255 255 255 255 255 255 255 255 255
255 255 255 255 255 255 255 255 255 255 255 255 255 255 255 255
255 255 255 255 255 255 255 255 255 255 255 255 255 255 255 255
255 255 255 255 255 255 255 255 255 255 255 255 255 255 255 255
251 243 238 235 235 238 238 235 235 235 235 238 238 238 238 238
238 235 235 235 230 230 232 235 238 243 251 255 255 255 255 255
255 255 255 255 255 255 255 255 255 255 255 255 255 255 255 255
255 251 254 254 243 228 228 218 239 234 239 227 216 172 147 159
140 132 105 113 113 113 108 83 46 42 42 58 53 62 62 50
50 49 70 113 144 152 161 161 167 169 173 176 176 187 210 226
239 239 226 239 255 255 251 255 255 255 255 255 255 255 255 255
255 255 255 251 251 246 243 241 238 238 238 237 238 238 238 243
243 241 238 241 243 243 243 232 235 238 238 238 238 238 240 243
243 238 238 238 238 238 238 235 235 238 240 243 240 235 235 238
243 251 255 255 255 255 255 255 255 255 255 255 255 255 255 255
255 255 255 255 255 255 255 255 255 255 255 255 255 255 255 255
255 255 255 255 255 255 255 255 255 255 255 255 255 255 255 255
255 255 255 255 255 255 255 255 255 255 255 255 255 255 255 255
255 255 255 255 255 255 255 255 255 255 255 255 255 255 255 255
255 255 255 255 255 251 246 246 243 238 238 238 238 235 235 235
235 235 232 235 235 235 235 235 238 238 243 246 255 255 255 255
255 255 255 255 255 255 255 255 255 255 255 255 255 255 255 255
255 255 255 255 248 243 247 244 233 231 223 236 236 228 205 183
155 143 139 127 129 113 116 112 89 72 48 40 44 23 26 39
47 55 44 51 51 59 79 98 117 133 141 152 161 164 166 172
187 212 223 229 211 198 223 248 255 255 251 255 255 255 255 255
255 255 255 255 255 255 255 255 255 251 245 243 243 243 243 241
238 238 243 243 241 238 238 241 243 243 235 235 235 243 243 243
240 243 240 238 238 238 238 238 240 240 238 235 232 235 235 238
238 238 243 246 251 255 255 255 255 255 255 255 255 255 255 255
255 255 255 255 255 255 255 255 255 255 255 255 255 255 255 255
255 255 255 255 255 255 255 255 255 255 255 255 255 255 255 255
255 255 255 255 255 255 255 255 255 255 255 255 255 255 255 255
255 255 255 255 255 255 255 255 255 255 255 255 255 255 255 255
255 255 255 255 255 255 255 255 255 255 255 251 251 246 246 243
243 243 238 238 238 235 238 238 243 243 246 251 255 255 255 255
255 255 255 255 255 255 255 255 255 255 255 255 255 255 255 255
255 255 255 255 251 255 255 248 239 239 236 223 215 207 194 175
162 162 147 136 131 125 127 132 124 113 105 72 56 59 67 63
38 36 52 46 63 48 64 72 71 70 72 82 102 119 138 151
154 160 168 180 192 200 199 183 191 228 247 248 255 251 251 251
255 255 255 255 255 255 255 255 255 255 255 255 255 251 251 251
251 251 246 243 241 241 241 241 238 238 238 241 243 238 235 235
241 243 243 243 243 237 238 241 243 243 243 238 238 240 238 235
235 235 238 243 246 248 251 255 255 255 255 255 255 255 255 255
255 255 255 255 255 255 255 255 255 255 255 255 255 255 255 255
255 255 255 255 255 255 255 255 255 255 255 255 255 255 255 255
255 255 255 255 255 255 255 255 255 255 255 255 255 255 255 255
255 255 255 255 255 255 255 255 255 255 255 255 255 255 255 255
255 255 255 255 255 255 255 255 255 255 255 255 255 255 255 255
255 255 255 255 255 255 255 255 251 255 255 255 255 255 255 255
255 255 255 255 255 255 255 255 255 255 255 255 255 255 255 255
255 255 255 255 255 255 251 248 240 247 236 218 209 196 172 154
125 85 64 70 126 147 151 143 140 143 136 120 93 96 76 76
76 79 65 60 64 75 51 75 69 73 76 84 97 94 85 82
102 126 139 143 148 153 154 160 175 173 168 196 244 250 241 248
248 251 251 251 255 255 255 255 255 255 255 255 255 255 255 255
255 255 255 255 255 255 251 245 238 241 238 238 238 238 238 241
245 238 235 238 243 241 238 238 243 243 238 237 237 238 243 243
238 240 240 238 238 243 246 251 255 255 255 255 255 255 255 255
255 255 255 255 255 255 255 255 255 255 255 255 255 255 255 255
255 255 255 255 255 255 255 255 255 255 255 255 255 255 255 255
255 255 255 255 255 255 255 255 255 255 255 255 255 255 255 255
255 255 255 255 255 255 255 255 255 255 255 255 255 255 255 255
255 255 255 255 255 255 255 255 255 255 255 255 255 255 255 255
255 255 255 255 255 255 255 255 255 255 255 255 255 255 255 255
255 255 255 255 255 255 255 255 255 255 255 251 255 255 255 255
255 255 255 255 250 255 255 255 255 236 233 217 220 204 163 123
94 69 52 46 50 64 109 116 119 116 136 147 131 124 103 92
97 94 94 102 94 86 89 90 86 81 79 90 97 94 94 105
107 103 98 112 118 123 128 136 146 152 156 159 163 168 189 187
212 228 244 244 236 247 244 251 255 248 255 255 255 255 255 255
255 255 255 255 255 255 255 255 255 255 255 251 246 243 243 238
238 238 238 238 238 238 238 238 238 238 238 243 243 243 243 238
238 238 238 235 238 243 246 251 255 255 255 255 255 255 255 255
255 255 255 255 255 255 255 255 255 255 255 255 255 255 255 255
255 255 255 255 255 255 255 255 255 255 255 255 255 255 255 255
255 255 255 255 255 255 255 255 255 255 255 255 255 255 255 255
255 255 255 255 255 255 255 255 255 255 255 255 255 255 255 255
255 255 255 255 255 255 255 255 255 255 255 255 255 255 255 255
255 255 255 255 255 255 255 255 255 255 255 255 255 255 255 255
255 255 255 255 255 255 255 255 255 255 255 255 255 255 255 255
255 255 255 255 255 255 255 250 255 243 247 247 207 184 151 119
79 47 29 18 13 13 22 97 158 180 169 183 157 130 140 119
115 99 96 105 107 110 118 107 102 102 98 94 89 85 97 107
110 106 114 113 111 111 116 120 122 127 132 139 142 145 149 151
178 169 87 82 119 129 165 199 212 228 251 251 251 255 255 255
255 255 255 255 255 255 255 255 255 255 255 255 255 255 255 255
251 246 243 243 238 238 238 238 238 238 238 238 238 238 243 243
243 243 243 238 238 238 243 246 251 251 255 255 255 255 255 255
255 255 255 255 255 255 255 255 255 255 255 255 255 255 255 255
255 255 255 255 255 255 255 255 255 255 255 255 255 255 255 255
255 255 255 255 255 255 255 255 255 255 255 255 255 255 255 255
255 255 255 255 255 255 255 255 255 255 255 255 255 255 255 255
255 255 255 255 255 255 255 255 255 255 255 255 255 255 255 255
255 255 255 255 255 255 255 255 255 255 255 255 255 255 255 255
255 255 255 255 255 255 255 255 255 255 255 255 255 255 255 255
255 255 255 255 255 255 255 255 255 255 251 255 255 239 158 114
82 65 38 22 22 21 13 29 48 114 151 163 153 141 163 166
159 132 110 104 101 101 109 114 119 122 119 114 114 111 106 103
101 109 122 125 122 122 118 115 123 126 129 131 132 134 136 135
137 157 164 161 144 96 78 62 48 52 81 114 155 180 215 255
243 251 251 255 255 255 255 255 255 255 255 255 255 255 255 255
255 255 255 255 255 251 246 243 238 238 238 238 238 238 238 238
238 243 243 243 243 246 246 246 246 251 255 255 255 255 255 255
255 255 255 255 255 255 255 255 255 255 255 255 255 255 255 255
255 255 255 255 255 255 255 255 255 255 255 255 255 255 255 255
255 255 255 255 255 255 255 255 255 255 255 255 255 255 255 255
255 255 255 255 255 255 255 255 255 255 255 255 255 255 255 255
255 255 255 255 255 255 255 255 255 255 255 255 255 255 255 255
255 255 255 255 255 255 255 255 255 255 255 255 255 255 255 255
255 255 255 255 255 255 255 255 255 255 255 255 255 255 255 255
255 255 255 255 255 255 255 255 255 255 255 255 255 255 244 251
199 70 66 54 67 43 25 25 21 24 53 91 109 119 132 147
151 145 140 143 113 93 100 105 105 110 115 123 120 123 123 122
118 113 113 113 118 126 131 125 123 119 119 127 139 142 144 145
144 139 138 138 142 174 182 186 182 161 123 102 73 38 38 82
101 126 204 251 255 255 255 255 251 251 255 255 255 255 255 255
255 255 255 255 255 255 255 255 255 255 251 251 243 243 243 243
243 243 243 243 251 251 251 251 251 251 251 255 255 255 255 255
255 255 255 255 255 255 255 255 255 255 255 255 255 255 255 255
255 255 255 255 255 255 255 255 255 255 255 255 255 255 255 255
255 255 255 255 255 255 255 255 255 255 255 255 255 255 255 255
255 255 255 255 255 255 255 255 255 255 255 255 255 255 255 255
255 255 255 255 255 255 255 255 255 255 255 255 255 255 255 255
255 255 255 255 255 255 255 255 255 255 255 255 255 255 255 255
255 255 255 255 255 255 255 255 255 255 255 255 255 255 255 255
255 255 255 255 255 255 255 255 255 255 255 255 255 255 255 239
254 251 223 151 62 70 75 59 54 54 61 69 73 81 94 110
128 153 158 156 147 135 123 90 81 97 109 109 114 119 127 122
123 127 123 119 115 112 111 119 127 125 122 127 124 127 135 143
146 152 160 157 148 147 149 163 170 199 206 182 163 142 94 44
49 44 60 111 126 150 243 254 255 255 255 255 255 255 255 255
255 255 255 255 255 255 255 255 255 255 255 255 255 255 255 255
255 255 255 255 255 255 255 255 255 255 255 255 255 255 255 255
255 255 255 255 255 255 255 255 255 255 255 255 255 255 255 255
255 255 255 255 255 255 255 255 255 255 255 255 255 255 255 255
255 255 255 255 255 255 255 255 255 255 255 255 255 255 255 255
255 255 255 255 255 255 255 255 255 255 255 255 255 255 255 255
255 255 255 255 255 255 255 255 255 255 255 255 255 255 255 255
255 255 255 255 255 255 255 255 255 255 255 255 255 255 255 255
255 255 255 255 255 255 255 255 255 255 255 255 255 255 255 255
255 255 255 255 255 255 255 255 255 255 255 255 255 255 255 255
255 251 254 241 233 160 78 41 33 87 70 93 112 118 129 149
171 179 180 185 197 187 180 152 119 90 94 89 109 116 113 117
117 123 123 124 127 122 122 122 122 122 124 127 124 127 131 131
136 145 146 151 159 165 165 159 156 162 171 166 178 190 213 217
204 175 119 98 65 49 95 114 119 196 251 254 255 255 255 255
255 255 255 255 255 255 255 255 255 255 255 255 255 255 255 255
255 255 255 255 255 255 255 255 255 255 255 255 255 255 255 255
255 255 255 255 255 255 255 255 255 255 255 255 255 255 255 255
255 255 255 255 255 255 255 255 255 255 255 255 255 255 255 255
255 255 255 255 255 255 255 255 255 255 255 255 255 255 255 255
255 255 255 255 255 255 255 255 255 255 255 255 255 255 255 255
255 255 255 255 255 255 255 255 255 255 255 255 255 255 255 255
255 255 255 255 255 255 255 255 255 255 255 255 255 255 255 255
255 255 255 255 255 255 255 255 255 255 255 255 255 255 255 255
255 255 255 255 255 255 255 255 255 255 255 255 255 255 255 255
255 255 255 251 248 231 216 203 154 70 45 25 78 151 199 243
251 248 248 251 246 243 215 200 190 186 146 126 113 118 112 124
124 120 125 125 125 126 127 127 127 132 140 140 140 140 143 139
139 140 139 140 151 151 155 160 168 165 159 164 171 166 180 179
179 221 225 224 238 209 130 90 111 114 87 103 171 247 251 254
255 255 255 255 255 255 255 255 255 255 255 255 255 255 255 255
255 255 255 255 255 255 255 255 255 255 255 255 255 255 255 255
255 255 255 255 255 255 255 255 255 255 255 255 255 255 255 255
255 255 255 255 255 255 255 255 255 255 255 255 255 255 255 255
255 255 255 255 255 255 255 255 255 255 255 255 255 255 255 255
255 255 255 255 255 255 255 255 255 255 255 255 255 255 255 255
255 255 255 255 255 255 255 255 255 255 255 255 255 255 255 255
255 255 255 255 255 255 255 255 255 255 255 255 255 255 255 255
255 255 255 255 255 255 255 255 255 255 255 255 255 255 255 255
255 255 255 255 255 255 255 255 255 255 255 255 255 255 255 255
255 255 255 255 255 251 248 244 220 229 158 103 33 67 135 184
220 244 255 255 255 255 251 238 221 218 224 204 185 148 134 125
132 124 128 124 124 136 136 136 135 140 138 135 140 146 148 146
154 159 156 151 151 143 143 151 165 163 165 168 165 159 159 171
180 163 175 187 218 228 243 239 250 241 168 114 78 49 81 130
241 247 254 255 255 255 255 255 255 255 255 255 255 255 255 255
255 255 255 255 255 255 255 255 255 255 255 255 255 255 255 255
255 255 255 255 255 255 255 255 255 255 255 255 255 255 255 255
255 255 255 255 255 255 255 255 255 255 255 255 255 255 255 255
255 255 255 255 255 255 255 255 255 255 255 255 255 255 255 255
255 255 255 255 255 255 255 255 255 255 255 255 255 255 255 255
255 255 255 255 255 255 255 255 255 255 255 255 255 255 255 255
255 255 255 255 255 255 255 255 255 255 255 255 255 255 255 255
255 255 255 255 255 255 255 255 255 255 255 255 255 255 255 255
255 255 255 255 255 255 255 255 255 255 255 255 255 255 255 255
255 255 255 255 246 255 255 243 255 243 223 229 185 115 70 62
135 206 250 251 254 254 251 251 251 251 251 245 221 225 220 151
165 137 125 130 129 116 109 121 121 121 138 135 131 127 130 138
139 139 135 155 155 147 136 136 136 144 155 160 159 163 163 159
150 144 144 145 151 168 170 197 234 239 250 254 239 254 220 200
127 83 86 200 250 250 255 251 255 245 255 255 255 255 255 255
255 255 255 255 255 255 255 255 255 255 255 255 255 255 255 255
255 255 255 255 255 255 255 255 255 255 255 255 255 255 255 255
255 255 255 255 255 255 255 255 255 255 255 255 255 255 255 255
255 255 255 255 255 255 255 255 255 255 255 255 255 255 255 255
255 255 255 255 255 255 255 255 255 255 255 255 255 255 255 255
255 255 255 255 255 255 255 255 255 255 255 255 255 255 255 255
255 255 255 255 255 255 255 255 255 255 255 255 255 255 255 255
255 255 255 255 255 255 255 255 255 255 255 255 255 255 255 255
255 255 255 255 255 255 255 255 255 255 255 255 255 255 255 255
255 255 255 255 255 255 255 255 251 251 251 236 228 236 196 134
104 78 89 143 230 254 254 254 255 255 255 255 255 255 238 235
239 199 130 147 132 113 118 109 98 97 102 101 106 119 115 115
118 125 134 139 144 144 136 142 145 139 139 134 140 156 156 152
148 151 146 135 120 113 100 124 138 138 173 237 247 251 254 247
254 247 240 176 135 64 159 247 247 251 255 255 250 255 255 255
255 255 255 255 255 255 255 255 255 255 255 255 255 255 255 255
255 255 255 255 255 255 255 255 255 255 255 255 255 255 255 255
255 255 255 255 255 255 255 255 255 255 255 255 255 255 255 255
255 255 255 255 255 255 255 255 255 255 255 255 255 255 255 255
255 255 255 255 255 255 255 255 255 255 255 255 255 255 255 255
255 255 255 255 255 255 255 255 255 255 255 255 255 255 255 255
255 255 255 255 255 255 255 255 255 255 255 255 255 255 255 255
255 255 255 255 255 255 255 255 255 255 255 255 255 255 255 255
255 255 255 255 255 255 255 255 255 255 255 255 255 255 255 255
255 255 255 255 255 255 255 255 255 255 255 243 251 250 228 231
224 147 99 102 99 114 174 250 254 254 255 255 255 255 255 255
255 255 235 228 184 135 136 114 86 91 74 69 74 78 78 92
100 102 105 113 126 139 147 150 151 139 148 151 146 138 127 131
149 136 128 119 119 117 106 94 83 80 108 119 126 156 232 247
248 251 255 254 254 244 187 179 102 119 235 247 243 255 251 255
255 255 255 255 255 255 255 255 255 255 255 255 255 255 255 255
255 255 255 255 255 255 255 255 255 255 255 255 255 255 255 255
255 255 255 255 255 255 255 255 255 255 255 255 255 255 255 255
255 255 255 255 255 255 255 255 255 255 255 255 255 255 255 255
255 255 255 255 255 255 255 255 255 255 255 255 255 255 255 255
255 255 255 255 255 255 255 255 255 255 255 255 255 255 255 255
255 255 255 255 255 255 255 255 255 255 255 255 255 255 255 255
255 255 255 255 255 255 255 255 255 255 255 255 255 255 255 255
255 255 255 255 255 255 255 255 255 255 255 255 255 255 255 255
255 255 255 255 255 255 255 255 255 255 255 255 255 251 255 254
228 231 230 171 110 107 107 121 130 214 254 251 255 255 255 255
255 255 255 255 251 239 236 163 116 101 95 86 67 46 48 59
55 58 74 81 70 73 81 97 113 122 122 119 130 138 135 127
123 123 126 136 123 112 106 101 96 90 78 75 97 108 116 142
164 220 239 246 251 255 248 254 240 176 183 158 107 199 247 247
255 246 255 255 255 255 255 255 255 255 255 255 255 255 255 255
255 255 255 255 255 255 255 255 255 255 255 255 255 255 255 255
255 255 255 255 255 255 255 255 255 255 255 255 255 255 255 255
255 255 255 255 255 255 255 255 255 255 255 255 255 255 255 255
255 255 255 255 255 255 255 255 255 255 255 255 255 255 255 255
255 255 255 255 255 255 255 255 255 255 255 255 255 255 255 255
255 255 255 255 255 255 255 255 255 255 255 255 255 255 255 255
255 255 255 255 255 255 255 255 255 255 255 255 255 255 255 255
255 255 255 255 255 255 255 255 255 255 255 255 255 255 255 255
255 255 255 255 255 255 255 255 255 255 255 255 255 255 255 255
246 255 242 222 230 190 126 102 110 102 129 171 242 254 251 255
255 255 255 255 255 255 255 243 248 228 118 89 109 108 78 61
43 43 51 48 48 61 65 65 61 65 81 105 119 114 103 122
130 127 123 136 150 156 153 136 128 120 112 104 96 95 95 112
120 131 157 173 217 244 248 255 251 251 254 254 200 163 166 115
150 240 254 251 251 255 251 255 255 255 255 255 255 255 255 255
255 255 255 255 255 255 255 255 255 255 255 255 255 255 255 255
255 255 255 255 255 255 255 255 255 255 255 255 255 255 255 255
255 255 255 255 255 255 255 255 255 255 255 255 255 255 255 255
255 255 255 255 255 255 255 255 255 255 255 255 255 255 255 255
255 255 255 255 255 255 255 255 255 255 255 255 255 255 255 255
255 255 255 255 255 255 255 255 255 255 255 255 255 255 255 255
255 255 255 255 255 255 255 255 255 255 255 255 255 255 255 255
255 255 255 255 255 255 255 255 255 255 255 255 255 255 255 255
255 255 255 255 255 255 255 255 255 255 255 255 255 255 255 255
255 255 255 255 251 231 239 220 151 129 107 94 102 143 228 250
254 255 255 255 255 255 255 255 255 255 255 243 203 115 115 138
118 77 63 53 51 58 58 61 68 73 81 76 78 97 122 135
130 122 143 152 152 150 168 183 179 166 152 147 144 136 128 122
127 132 134 149 160 166 173 208 250 248 251 255 255 247 254 224
150 150 123 110 213 250 247 255 255 255 255 255 255 255 255 255
255 255 255 255 255 255 255 255 255 255 255 255 255 255 255 255
255 255 255 255 255 255 255 255 255 255 255 255 255 255 255 255
255 255 255 255 255 255 255 255 255 255 255 255 255 255 255 255
255 255 255 255 255 255 255 255 255 255 255 255 255 255 255 255
255 255 255 255 255 255 255 255 255 255 255 255 255 255 255 255
255 255 255 255 255 255 255 255 255 255 255 255 255 255 255 255
255 255 255 255 255 255 255 255 255 255 255 255 255 255 255 255
255 255 255 255 255 255 255 255 255 255 255 255 255 255 255 255
255 255 255 255 255 255 255 255 255 255 255 255 255 255 255 255
255 255 255 255 255 255 255 237 234 247 198 138 137 102 94 129
190 254 254 254 255 255 255 255 255 255 255 255 254 247 236 208
143 124 116 98 106 77 78 77 77 88 93 95 103 89 92 97
108 122 130 131 130 156 162 163 171 183 181 170 166 163 160 160
157 151 149 151 161 163 165 176 166 169 183 243 247 251 255 255
247 250 232 155 139 128 107 180 240 247 251 255 255 255 255 255
255 255 255 255 255 255 255 255 255 255 255 255 255 255 255 255
255 255 255 255 255 255 255 255 255 255 255 255 255 255 255 255
255 255 255 255 255 255 255 255 255 255 255 255 255 255 255 255
255 255 255 255 255 255 255 255 255 255 255 255 255 255 255 255
255 255 255 255 255 255 255 255 255 255 255 255 255 255 255 255
255 255 255 255 255 255 255 255 255 255 255 255 255 255 255 255
255 255 255 255 255 255 255 255 255 255 255 255 255 255 255 255
255 255 255 255 255 255 255 255 255 255 255 255 255 255 255 255
255 255 255 255 255 255 255 255 255 255 255 255 255 255 255 255
255 255 255 255 255 255 255 255 251 254 242 247 230 171 137 118
94 110 167 241 250 254 254 255 255 255 255 255 255 255 254 251
244 235 195 115 92 97 83 100 102 110 105 100 113 116 115 120
121 129 137 142 142 142 147 155 159 160 168 183 191 183 176 191
177 176 174 173 164 161 158 165 181 161 172 166 168 155 232 250
255 247 255 255 254 240 166 125 128 115 158 232 247 248 255 255
255 255 255 255 255 255 255 255 255 255 255 255 255 255 255 255
255 255 255 255 255 255 255 255 255 255 255 255 255 255 255 255
255 255 255 255 255 255 255 255 255 255 255 255 255 255 255 255
255 255 255 255 255 255 255 255 255 255 255 255 255 255 255 255
255 255 255 255 255 255 255 255 255 255 255 255 255 255 255 255
255 255 255 255 255 255 255 255 255 255 255 255 255 255 255 255
255 255 255 255 255 255 255 255 255 255 255 255 255 255 255 255
255 255 255 255 255 255 255 255 255 255 255 255 255 255 255 255
255 255 255 255 255 255 255 255 255 255 255 255 255 255 255 255
255 255 255 255 255 255 255 255 255 255 255 251 254 234 235 216
150 155 107 105 138 214 247 254 255 251 255 255 255 255 255 251
255 255 251 247 243 152 104 88 97 105 98 114 114 114 117 117
112 124 138 129 151 141 146 146 138 166 158 155 167 179 185 183
184 187 192 180 176 179 178 161 152 157 161 171 161 162 169 158
168 217 247 251 255 255 251 255 243 182 118 105 112 123 216 250
250 255 255 255 255 255 255 255 255 255 255 255 255 255 255 255
255 255 255 255 255 255 255 255 255 255 255 255 255 255 255 255
255 255 255 255 255 255 255 255 255 255 255 255 255 255 255 255
255 255 255 255 255 255 255 255 255 255 255 255 255 255 255 255
255 255 255 255 255 255 255 255 255 255 255 255 255 255 255 255
255 255 255 255 255 255 255 255 255 255 255 255 255 255 255 255
255 255 255 255 255 255 255 255 255 255 255 255 255 255 255 255
255 255 255 255 255 255 255 255 255 255 255 255 255 255 255 255
255 255 255 255 255 255 255 255 255 255 255 255 255 255 255 255
255 255 255 255 255 255 251 255 255 255 255 255 255 255 251 254
236 220 192 155 115 99 127 165 236 254 255 255 255 255 255 255
255 255 251 255 255 247 232 217 128 97 93 97 107 109 119 117
116 117 116 116 124 137 129 150 137 147 146 142 162 159 155 163
176 183 183 183 187 189 185 174 170 169 157 151 156 157 165 161
162 166 161 168 209 243 250 255 255 255 255 248 191 119 105 104
101 180 243 247 255 247 255 255 255 255 255 255 255 255 255 255
255 255 255 255 255 255 255 255 255 255 255 255 255 255 255 255
255 255 255 255 255 255 255 255 255 255 255 255 255 255 255 255
255 255 255 255 255 255 255 255 255 255 255 255 255 255 255 255
255 255 255 255 255 255 255 255 255 255 255 255 255 255 255 255
255 255 255 255 255 255 255 255 255 255 255 255 255 255 255 255
255 255 255 255 255 255 255 255 255 255 255 255 255 255 255 255
255 255 255 255 255 255 255 255 255 255 255 255 255 255 255 255
255 255 255 255 255 255 255 255 255 255 255 255 255 255 255 255
255 255 255 255 255 255 255 255 255 251 255 255 255 255 255 255
251 251 242 220 203 176 136 103 115 146 195 247 254 251 255 255
255 255 255 255 255 255 255 255 242 219 185 108 97 101 103 111
119 119 113 113 116 118 118 124 132 132 144 136 144 145 137 158
162 149 158 169 179 183 186 186 186 187 170 165 164 157 154 156
154 161 166 165 166 165 169 202 246 250 251 255 255 251 255 203
119 102 101 98 145 238 244 255 251 255 255 255 255 255 255 255
255 255 255 255 255 255 255 255 255 255 255 255 255 255 255 255
255 255 255 255 255 255 255 255 255 255 255 255 255 255 255 255
255 255 255 255 255 255 255 255 255 255 255 255 255 255 255 255
255 255 255 255 255 255 255 255 255 255 255 255 255 255 255 255
255 255 255 255 255 255 255 255 255 255 255 255 255 255 255 255
255 255 255 255 255 255 255 255 255 255 255 255 255 255 255 255
255 255 255 255 255 255 255 255 255 255 255 255 255 255 255 255
255 255 255 255 255 255 255 255 255 255 255 255 255 255 255 255
255 255 255 255 255 255 255 255 255 255 255 255 255 255 255 255
255 255 255 248 251 231 190 191 163 99 120 134 154 212 254 254
251 255 255 255 255 251 255 255 255 255 251 239 216 176 108 105
110 111 112 124 114 111 111 113 118 121 124 129 133 136 131 139
139 136 148 154 146 153 164 176 182 186 186 183 177 165 165 169
165 165 161 157 157 166 166 162 170 169 187 239 250 248 255 255
251 255 209 118 94 99 101 123 227 239 251 255 255 255 255 255
255 255 255 255 255 255 255 255 255 255 255 255 255 255 255 255
255 255 255 255 255 255 255 255 255 255 255 255 255 255 255 255
255 255 255 255 255 255 255 255 255 255 255 255 255 255 255 255
255 255 255 255 255 255 255 255 255 255 255 255 255 255 255 255
255 255 255 255 255 255 255 255 255 255 255 255 255 255 255 255
255 255 255 255 255 255 255 255 255 255 255 255 255 255 255 255
255 255 255 255 255 255 255 255 255 255 255 255 255 255 255 255
255 255 255 255 255 255 255 255 255 255 255 255 255 255 255 255
255 255 255 255 255 255 255 255 255 255 255 255 255 255 255 255
255 255 255 255 255 254 251 247 220 184 180 123 93 125 131 162
223 254 254 251 255 255 255 255 255 255 255 255 255 248 236 216
174 118 114 112 116 112 119 111 108 110 113 121 125 129 131 136
136 131 136 139 134 144 148 149 154 164 173 182 182 183 179 177
168 173 173 168 165 166 161 157 166 166 159 172 166 175 233 250
249 255 255 251 254 208 113 87 90 99 107 203 239 251 255 255
255 255 255 255 255 255 255 255 255 255 255 255 255 255 255 255
255 255 255 255 255 255 255 255 255 255 255 255 255 255 255 255
255 255 255 255 255 255 255 255 255 255 255 255 255 255 255 255
255 255 255 255 255 255 255 255 255 255 255 255 255 255 255 255
255 255 255 255 255 255 255 255 255 255 255 255 255 255 255 255
255 255 255 255 255 255 255 255 255 255 255 255 255 255 255 255
255 255 255 255 255 255 255 255 255 255 255 255 255 255 255 255
255 255 255 255 255 255 255 255 255 255 255 255 255 255 255 255
255 255 255 255 255 255 255 255 255 255 255 255 255 255 255 255
255 255 255 255 255 254 255 255 251 245 226 203 181 158 87 123
116 123 179 239 254 254 255 255 255 255 255 255 255 255 255 255
248 235 213 165 118 114 107 111 107 111 108 111 113 118 123 129
131 134 136 136 133 136 139 139 142 145 157 157 166 169 176 176
175 175 182 177 173 169 161 162 166 166 166 168 172 159 172 168
171 229 247 251 255 255 251 247 195 107 90 82 90 99 171 244
251 248 255 255 255 255 255 255 255 255 255 255 255 255 255 255
255 255 255 255 255 255 255 255 255 255 255 255 255 255 255 255
255 255 255 255 255 255 255 255 255 255 255 255 255 255 255 255
255 255 255 255 255 255 255 255 255 255 255 255 255 255 255 255
255 255 255 255 255 255 255 255 255 255 255 255 255 255 255 255
255 255 255 255 255 255 255 255 255 255 255 255 255 255 255 255
255 255 255 255 255 255 255 255 255 255 255 255 255 255 255 255
255 255 255 255 255 255 255 255 255 255 255 255 255 255 255 255
255 255 255 255 255 255 255 255 255 255 255 255 255 255 255 255
255 255 255 255 255 255 255 255 254 251 251 242 234 203 190 166
123 103 135 124 136 198 247 254 251 255 255 255 251 255 255 255
255 255 255 251 235 213 157 109 109 100 108 99 111 111 114 119
121 123 125 130 130 134 134 136 136 139 145 145 146 154 159 163
166 170 172 176 179 184 175 175 169 163 165 170 166 171 164 167
159 167 170 172 229 247 251 255 251 251 239 179 102 87 75 83
96 127 236 251 251 255 255 255 255 255 255 255 255 255 255 255
255 255 255 255 255 255 255 255 255 255 255 255 255 255 255 255
255 255 255 255 255 255 255 255 255 255 255 255 255 255 255 255
255 255 255 255 255 255 255 255 255 255 255 255 255 255 255 255
255 255 255 255 255 255 255 255 255 255 255 255 255 255 255 255
255 255 255 255 255 255 255 255 255 255 255 255 255 255 255 255
255 255 255 255 255 255 255 255 255 255 255 255 255 255 255 255
255 255 255 255 255 255 255 255 255 255 255 255 255 255 255 255
255 255 255 255 255 255 255 255 255 255 255 255 255 255 255 255
255 255 255 255 255 255 255 255 255 255 255 255 254 247 234 223
203 187 147 96 139 111 140 151 212 254 254 251 255 255 255 255
255 255 255 255 255 255 251 236 221 151 104 105 98 103 96 112
111 116 121 121 121 121 123 123 131 134 139 134 139 150 147 146
151 154 160 163 167 172 182 189 180 175 175 175 171 174 174 162
170 156 162 155 159 166 170 225 247 255 255 251 254 236 171 99
79 70 80 96 91 220 244 255 255 255 255 255 255 255 255 255
255 255 255 255 255 255 255 255 255 255 255 255 255 255 255 255
255 255 255 255 255 255 255 255 255 255 255 255 255 255 255 255
255 255 255 255 255 255 255 255 255 255 255 255 255 255 255 255
255 255 255 255 255 255 255 255 255 255 255 255 255 255 255 255
255 255 255 255 255 255 255 255 255 255 255 255 255 255 255 255
255 255 255 255 255 255 255 255 255 255 255 255 255 255 255 255
255 255 255 255 255 255 255 255 255 255 255 255 255 255 255 255
255 255 255 255 255 255 255 255 255 255 255 255 255 255 255 255
255 255 255 255 255 255 255 255 255 255 255 255 251 255 255 254
250 236 212 192 162 118 135 135 124 148 135 232 248 254 251 255
255 255 255 255 255 255 255 255 255 246 228 213 151 104 97 90
95 103 102 109 114 117 117 116 118 121 123 125 137 134 134 139
142 146 150 143 156 151 163 169 167 181 178 180 177 172 171 171
169 163 155 155 160 142 159 153 157 152 220 244 255 255 251 251
230 139 104 79 83 75 83 86 189 239 251 251 255 255 255 251
255 255 255 255 255 255 255 255 255 255 255 255 255 255 255 255
255 255 255 255 255 255 255 255 255 255 255 255 255 255 255 255
255 255 255 255 255 255 255 255 255 255 255 255 255 255 255 255
255 255 255 255 255 255 255 255 255 255 255 255 255 255 255 255
255 255 255 255 255 255 255 255 255 255 255 255 255 255 255 255
255 255 255 255 255 255 255 255 255 255 255 255 255 255 255 255
255 255 255 255 255 255 255 255 255 255 255 255 255 255 255 255
255 255 255 255 255 255 255 255 255 255 255 255 255 255 255 255
255 255 255 255 255 255 255 255 255 255 255 255 255 255 255 251
255 255 251 239 212 176 159 123 115 131 108 97 124 133 236 251
255 251 255 255 255 255 255 255 255 255 255 255 248 228 213 148
101 96 94 95 103 103 97 99 105 108 112 117 120 124 129 137
137 134 134 137 138 142 143 154 149 155 160 161 176 172 169 172
169 163 162 162 151 135 131 143 130 142 140 141 144 213 247 255
255 254 254 228 131 100 97 75 67 84 96 159 236 239 251 255
255 255 255 255 255 255 255 255 255 255 255 255 255 255 255 255
255 255 255 255 255 255 255 255 255 255 255 255 255 255 255 255
255 255 255 255 255 255 255 255 255 255 255 255 255 255 255 255
255 255 255 255 255 255 255 255 255 255 255 255 255 255 255 255
255 255 255 255 255 255 255 255 255 255 255 255 255 255 255 255
255 255 255 255 255 255 255 255 255 255 255 255 255 255 255 255
255 255 255 255 255 255 255 255 255 255 255 255 255 255 255 255
255 255 255 255 255 255 255 255 255 255 255 255 255 255 255 255
255 255 255 255 255 255 255 255 255 255 255 255 255 255 255 255
255 255 255 255 255 251 234 198 154 151 126 107 70 72 89 96
144 236 251 255 255 255 255 255 255 255 255 255 255 255 255 249
231 213 143 95 93 89 85 90 90 90 93 98 104 108 113 121
125 120 129 129 129 129 132 132 138 146 154 154 158 163 163 175
167 156 161 157 144 139 139 127 107 101 115 113 116 120 121 140
208 248 251 255 254 254 219 120 87 97 80 89 101 107 124 230
242 248 255 255 255 255 255 255 255 255 255 255 255 255 255 255
255 255 255 255 255 255 255 255 255 255 255 255 255 255 255 255
255 255 255 255 255 255 255 255 255 255 255 255 255 255 255 255
255 255 255 255 255 255 255 255 255 255 255 255 255 255 255 255
255 255 255 255 255 255 255 255 255 255 255 255 255 255 255 255
255 255 255 255 255 255 255 255 255 255 255 255 255 255 255 255
255 255 255 255 255 255 255 255 255 255 255 255 255 255 255 255
255 255 255 255 255 255 255 255 255 255 255 255 255 255 255 255
255 255 255 255 255 255 255 255 255 255 255 255 255 255 255 255
255 255 255 255 255 255 255 255 251 239 215 184 111 58 55 43
83 116 101 177 244 255 255 255 255 255 255 255 255 255 255 255
251 255 251 232 216 139 92 85 84 78 78 74 74 77 77 80
85 92 96 101 102 109 113 112 120 120 120 125 133 145 150 157
162 162 157 146 144 139 128 111 102 102 94 86 86 94 97 90
101 108 135 208 251 251 251 254 254 216 107 72 64 66 82 90
104 111 203 236 245 251 255 255 255 255 255 255 255 255 255 255
255 255 255 255 255 255 255 255 255 255 255 255 255 255 255 255
255 255 255 255 255 255 255 255 255 255 255 255 255 255 255 255
255 255 255 255 255 255 255 255 255 255 255 255 255 255 255 255
255 255 255 255 255 255 255 255 255 255 255 255 255 255 255 255
255 255 255 255 255 255 255 255 255 255 255 255 255 255 255 255
255 255 255 255 255 255 255 255 255 255 255 255 255 255 255 255
255 255 255 255 255 255 255 255 255 255 255 255 255 255 255 255
255 255 255 255 255 255 255 255 255 255 255 255 255 255 255 255
255 255 255 255 255 255 255 255 255 255 255 251 251 244 229 188
38 55 92 89 88 93 172 247 255 255 255 255 255 255 255 255
255 255 255 251 255 251 236 216 139 84 75 72 68 65 62 60
60 60 60 63 65 68 72 80 88 91 93 96 96 93 101 106
117 126 128 136 145 129 114 127 115 96 82 72 64 61 61 73
81 76 68 93 105 141 213 251 251 251 254 250 208 104 64 58
50 50 64 96 115 162 226 243 246 255 255 255 255 255 255 255
255 255 255 255 255 255 255 255 255 255 255 255 255 255 255 255
255 255 255 255 255 255 255 255 255 255 255 255 255 255 255 255
255 255 255 255 255 255 255 255 255 255 255 255 255 255 255 255
255 255 255 255 255 255 255 255 255 255 255 255 255 255 255 255
255 255 255 255 255 255 255 255 255 255 255 255 255 255 255 255
255 255 255 255 255 255 255 255 255 255 255 255 255 255 255 255
255 255 255 255 255 255 255 255 255 255 255 255 255 255 255 255
255 255 255 255 255 255 255 255 255 255 255 255 255 255 255 255
255 255 255 255 255 255 255 255 255 255 255 255 255 255 251 254
254 247 188 63 71 105 92 85 118 209 250 255 255 255 255 255
255 255 255 255 255 255 251 255 251 236 212 135 76 60 56 53
53 50 50 48 45 44 48 48 48 48 52 60 60 63 68 68
68 76 81 92 102 97 101 117 106 94 105 90 73 65 57 44
44 48 48 61 65 68 94 121 153 221 251 251 251 254 250 216
104 61 69 50 37 48 68 94 138 225 243 246 255 255 251 255
255 255 255 255 255 255 255 255 255 255 255 255 255 255 255 255
255 255 255 255 255 255 255 255 255 255 255 255 255 255 255 255
255 255 255 255 255 255 255 255 255 255 255 255 255 255 255 255
255 255 255 255 255 255 255 255 255 255 255 255 255 255 255 255
255 255 255 255 255 255 255 255 255 255 255 255 255 255 255 255
255 255 255 255 255 255 255 255 255 255 255 255 255 255 255 255
255 255 255 255 255 255 255 255 255 255 255 255 255 255 255 255
255 255 255 255 255 255 255 255 255 255 255 255 255 255 255 255
255 255 255 255 255 255 255 255 255 255 255 255 255 255 255 255
255 251 254 247 229 107 84 92 97 97 93 128 219 251 255 255
255 255 255 255 255 255 255 255 255 251 255 251 240 217 143 80
55 44 45 46 38 33 33 29 28 28 28 25 25 33 36 38
41 45 43 45 53 61 72 86 70 70 90 86 84 84 77 64
56 48 43 44 44 48 77 85 106 126 153 166 229 251 255 255
254 254 221 112 67 58 58 45 37 33 82 166 233 248 251 255
255 251 255 255 255 255 255 255 255 255 255 255 255 255 255 255
255 255 255 255 255 255 255 255 255 255 255 255 255 255 255 255
255 255 255 255 255 255 255 255 255 255 255 255 255 255 255 255
255 255 255 255 255 255 255 255 255 255 255 255 255 255 255 255
255 255 255 255 255 255 255 255 255 255 255 255 255 255 255 255
255 255 255 255 255 255 255 255 255 255 255 255 255 255 255 255
255 255 255 255 255 255 255 255 255 255 255 255 255 255 255 255
255 255 255 255 255 255 255 255 255 255 255 255 255 255 255 255
255 255 255 255 255 255 255 255 255 255 255 255 255 255 255 255
255 251 251 255 255 254 231 200 96 92 100 105 89 92 162 243
251 255 255 255 255 255 255 255 255 255 255 255 251 255 251 240
233 160 96 60 45 45 48 37 35 33 29 29 26 25 21 18
31 34 31 30 30 27 27 34 38 54 75 54 49 68 68 74
77 72 59 48 42 47 52 48 76 114 127 151 157 179 175 228
251 255 255 254 254 227 120 72 53 74 59 43 38 120 243 254
251 255 255 255 251 255 255 255 255 255 255 255 255 255 255 255
255 255 255 255 255 255 255 255 255 255 255 255 255 255 255 255
255 255 255 255 255 255 255 255 255 255 255 255 255 255 255 255
255 255 255 255 255 255 255 255 255 255 255 255 255 255 255 255
255 255 255 255 255 255 255 255 255 255 255 255 255 255 255 255
255 255 255 255 255 255 255 255 255 255 255 255 255 255 255 255
255 255 255 255 255 255 255 255 255 255 255 255 255 255 255 255
255 255 255 255 255 255 255 255 255 255 255 255 255 255 255 255
255 255 255 255 255 255 255 255 255 255 255 255 255 255 255 255
255 255 255 251 255 251 255 255 241 226 135 104 108 93 96 77
117 191 247 255 255 255 255 255 255 255 255 255 255 255 255 255
255 255 251 247 213 104 83 64 65 57 54 49 45 37 30 28
30 30 26 39 28 28 32 27 32 39 26 26 51 70 53 49
52 47 68 52 60 63 59 59 71 94 109 138 154 166 176 186
178 182 206 254 255 255 251 254 243 136 75 61 58 63 58 45
120 235 254 255 255 255 255 255 255 255 255 255 255 255 255 255
255 255 255 255 255 255 255 255 255 255 255 255 255 255 255 255
255 255 255 255 255 255 255 255 255 255 255 255 255 255 255 255
255 255 255 255 255 255 255 255 255 255 255 255 255 255 255 255
255 255 255 255 255 255 255 255 255 255 255 255 255 255 255 255
255 255 255 255 255 255 255 255 255 255 255 255 255 255 255 255
255 255 255 255 255 255 255 255 255 255 255 255 255 255 255 255
255 255 255 255 255 255 255 255 255 255 255 255 255 255 255 255
255 255 255 255 255 255 255 255 255 255 255 255 255 255 255 255
255 255 255 255 255 255 255 255 251 255 250 233 202 118 95 97
73 73 83 152 220 254 255 255 255 255 255 255 255 255 255 255
255 255 255 255 255 251 254 216 112 100 85 89 85 85 77 73
65 52 48 48 45 40 51 39 39 42 36 39 49 43 39 50
69 56 57 68 63 76 81 93 108 120 127 141 153 161 165 170
167 166 170 169 184 216 250 255 254 254 254 247 152 80 58 57
63 69 64 125 220 247 255 255 255 255 255 255 255 255 255 255
255 255 255 255 255 255 255 255 255 255 255 255 255 255 255 255
255 255 255 255 255 255 255 255 255 255 255 255 255 255 255 255
255 255 255 255 255 255 255 255 255 255 255 255 255 255 255 255
255 255 255 255 255 255 255 255 255 255 255 255 255 255 255 255
255 255 255 255 255 255 255 255 255 255 255 255 255 255 255 255
255 255 255 255 255 255 255 255 255 255 255 255 255 255 255 255
255 255 255 255 255 255 255 255 255 255 255 255 255 255 255 255
255 255 255 255 255 255 255 255 255 255 255 255 255 255 255 255
255 255 255 255 255 255 255 255 255 255 255 255 255 244 235 182
111 100 101 68 57 92 180 244 254 255 255 255 255 255 255 255
255 255 255 255 255 255 255 255 254 254 205 108 104 100 101 101
106 109 107 104 96 94 92 92 87 89 83 85 85 80 85 93
94 94 98 122 134 147 174 183 187 198 191 177 164 152 148 144
140 153 161 161 165 173 172 187 219 250 255 251 254 254 250 183
84 53 55 59 71 85 125 200 244 254 255 255 255 255 255 255
255 255 255 255 255 255 255 255 255 255 255 255 255 255 255 255
255 255 255 255 255 255 255 255 255 255 255 255 255 255 255 255
255 255 255 255 255 255 255 255 255 255 255 255 255 255 255 255
255 255 255 255 255 255 255 255 255 255 255 255 255 255 255 255
255 255 255 255 255 255 255 255 255 255 255 255 255 255 255 255
255 255 255 255 255 255 255 255 255 255 255 255 255 255 255 255
255 255 255 255 255 255 255 255 255 255 255 255 255 255 255 255
255 255 255 255 255 255 255 255 255 255 255 255 255 255 255 255
255 255 255 255 255 255 255 255 255 255 255 255 251 251 255 255
238 234 167 112 113 109 71 65 120 203 254 254 255 255 255 255
255 255 255 255 255 255 255 255 255 255 255 255 247 183 100 99
97 93 92 105 105 108 108 106 106 111 111 111 111 111 111 111
108 108 116 117 117 118 146 168 183 208 224 216 218 201 178 156
147 143 144 145 137 153 161 174 186 182 192 219 244 255 251 255
254 250 208 93 53 55 55 71 85 112 175 244 251 255 255 255
255 255 255 255 255 255 255 255 255 255 255 255 255 255 255 255
255 255 255 255 255 255 255 255 255 255 255 255 255 255 255 255
255 255 255 255 255 255 255 255 255 255 255 255 255 255 255 255
255 255 255 255 255 255 255 255 255 255 255 255 255 255 255 255
255 255 255 255 255 255 255 255 255 255 255 255 255 255 255 255
255 255 255 255 255 255 255 255 255 255 255 255 255 255 255 255
255 255 255 255 255 255 255 255 255 255 255 255 255 255 255 255
255 255 255 255 255 255 255 255 255 255 255 255 255 255 255 255
255 255 255 255 255 255 255 255 255 255 255 255 255 255 255 255
251 255 255 231 215 139 100 115 98 65 89 165 228 255 255 255
255 255 255 255 255 255 255 255 255 255 255 255 255 255 254 243
172 97 96 93 89 89 100 96 104 104 102 102 107 104 99 107
109 107 107 112 112 109 112 118 125 147 172 181 196 205 196 192
183 169 157 146 142 141 143 158 170 176 180 190 186 193 225 244
255 251 255 254 250 224 112 61 57 59 67 82 89 147 238 251
255 255 255 255 255 255 255 255 255 255 255 255 255 255 255 255
255 255 255 255 255 255 255 255 255 255 255 255 255 255 255 255
255 255 255 255 255 255 255 255 255 255 255 255 255 255 255 255
255 255 255 255 255 255 255 255 255 255 255 255 255 255 255 255
255 255 255 255 255 255 255 255 255 255 255 255 255 255 255 255
255 255 255 255 255 255 255 255 255 255 255 255 255 255 255 255
255 255 255 255 255 255 255 255 255 255 255 255 255 255 255 255
255 255 255 255 255 255 255 255 255 255 255 255 255 255 255 255
255 255 255 255 255 255 255 255 255 255 255 255 255 255 255 255
255 255 255 251 255 251 231 195 128 100 115 85 65 116 213 250
255 253 255 255 255 255 255 255 255 255 255 255 255 255 255 255
255 251 240 162 103 100 96 89 89 101 101 106 109 107 104 104
104 101 107 111 108 108 116 112 106 109 107 118 130 155 164 167
176 167 161 158 155 154 156 158 166 171 176 184 185 187 191 187
194 222 244 255 255 255 254 250 236 144 61 55 57 67 77 83
136 237 251 251 255 255 255 255 255 255 255 255 255 255 255 255
255 255 255 255 255 255 255 255 255 255 255 255 255 255 255 255
255 255 255 255 255 255 255 255 255 255 255 255 255 255 255 255
255 255 255 255 255 255 255 255 255 255 255 255 255 255 255 255
255 255 255 255 255 255 255 255 255 255 255 255 255 255 255 255
255 255 255 255 255 255 255 255 255 255 255 255 255 255 255 255
255 255 255 255 255 255 255 255 255 255 255 255 255 255 255 255
255 255 255 255 255 255 255 255 255 255 255 255 255 255 255 255
255 255 255 255 255 255 255 255 255 255 255 255 255 255 255 255
255 255 255 255 255 255 251 255 251 233 176 120 105 106 85 85
152 247 254 250 253 255 255 255 255 255 255 255 255 255 255 255
255 255 255 255 251 235 154 111 103 101 93 94 107 101 107 110
109 111 112 112 111 114 120 117 114 119 114 109 117 127 139 135
148 155 150 155 150 168 163 160 160 162 162 166 172 171 182 184
185 189 182 191 218 244 251 255 255 255 254 247 186 78 53 52
59 73 80 127 226 247 251 255 255 255 255 255 255 255 255 255
255 255 255 255 255 255 255 255 255 255 255 255 255 255 255 255
255 255 255 255 255 255 255 255 255 255 255 255 255 255 255 255
255 255 255 255 255 255 255 255 255 255 255 255 255 255 255 255
255 255 255 255 255 255 255 255 255 255 255 255 255 255 255 255
255 255 255 255 255 255 255 255 255 255 255 255 255 255 255 255
255 255 255 255 255 255 255 255 255 255 255 255 255 255 255 255
255 255 255 255 255 255 255 255 255 255 255 255 255 255 255 255
255 255 255 255 255 255 255 255 255 255 255 255 255 255 255 255
255 255 255 255 255 255 255 255 255 251 255 251 232 155 113 100
90 85 108 180 254 251 253 255 255 255 255 255 255 255 255 255
255 255 255 255 255 255 255 251 232 154 115 104 102 95 100 107
115 120 123 123 123 125 125 125 131 142 139 131 136 128 125 139
139 155 139 147 162 152 158 160 160 160 160 168 176 172 170 172
180 184 176 175 179 177 190 221 247 249 255 255 255 254 254 213
101 61 47 49 63 73 116 209 247 251 255 255 255 255 255 255
255 255 255 255 255 255 255 255 255 255 255 255 255 255 255 255
255 255 255 255 255 255 255 255 255 255 255 255 255 255 255 255
255 255 255 255 255 255 255 255 255 255 255 255 255 255 255 255
255 255 255 255 255 255 255 255 255 255 255 255 255 255 255 255
255 255 255 255 255 255 255 255 255 255 255 255 255 255 255 255
255 255 255 255 255 255 255 255 255 255 255 255 255 255 255 255
255 255 255 255 255 255 255 255 255 255 255 255 255 255 255 255
255 255 255 255 255 255 255 255 255 255 255 255 255 255 255 255
255 255 255 255 255 255 255 255 255 255 255 255 255 251 251 232
160 103 113 85 69 162 232 247 255 253 255 255 255 255 255 255
255 255 255 255 255 255 255 255 255 255 248 224 180 124 120 102
107 108 111 116 113 116 124 132 134 134 132 143 140 145 143 139
139 134 142 139 158 150 154 159 157 162 157 162 167 167 170 170
170 170 170 170 170 170 158 170 172 176 232 247 251 255 255 255
254 247 244 157 56 53 42 61 61 80 201 244 251 255 255 255
255 255 255 255 255 255 255 255 255 255 255 255 255 255 255 255
255 255 255 255 255 255 255 255 255 255 255 255 255 255 255 255
255 255 255 255 255 255 255 255 255 255 255 255 255 255 255 255
255 255 255 255 255 255 255 255 255 255 255 255 255 255 255 255
255 255 255 255 255 255 255 255 255 255 255 255 255 255 255 255
255 255 255 255 255 255 255 255 255 255 255 255 255 255 255 255
255 255 255 255 255 255 255 255 255 255 255 255 255 255 255 255
255 255 255 255 255 255 255 255 255 255 255 255 255 255 255 255
255 255 255 255 255 255 255 255 255 255 255 255 255 255 250 255
255 247 220 155 116 125 83 100 205 250 254 255 255 255 255 255
255 255 255 255 255 255 255 255 255 255 255 255 255 248 224 191
127 121 109 105 110 107 112 112 114 119 127 132 132 127 135 127
135 135 135 135 135 138 143 154 146 149 154 153 157 146 154 158
162 163 158 153 146 142 154 150 150 140 148 155 181 236 250 251
255 255 255 255 251 247 210 89 29 34 57 72 97 188 244 251
255 255 255 255 255 255 255 255 255 255 255 255 255 255 255 255
255 255 255 255 255 255 255 255 255 255 255 255 255 255 255 255
255 255 255 255 255 255 255 255 255 255 255 255 255 255 255 255
255 255 255 255 255 255 255 255 255 255 255 255 255 255 255 255
255 255 255 255 255 255 255 255 255 255 255 255 255 255 255 255
255 255 255 255 255 255 255 255 255 255 255 255 255 255 255 255
255 255 255 255 255 255 255 255 255 255 255 255 255 255 255 255
255 255 255 255 255 255 255 255 255 255 255 255 255 255 255 255
255 255 255 255 255 255 255 255 255 255 255 255 255 255 255 255
255 255 255 255 251 228 180 128 100 72 133 240 254 254 255 255
253 255 255 255 255 255 255 255 255 255 255 255 255 255 255 255
248 228 205 131 113 109 98 105 102 107 110 112 112 120 130 127
119 125 120 125 125 125 128 125 128 131 142 134 134 142 145 142
134 142 143 146 141 133 125 117 114 122 114 114 109 112 140 184
240 251 251 255 255 255 255 255 254 244 145 53 53 53 67 103
188 243 251 255 255 255 255 255 255 255 255 255 255 255 255 255
255 255 255 255 255 255 255 255 255 255 255 255 255 255 255 255
255 255 255 255 255 255 255 255 255 255 255 255 255 255 255 255
255 255 255 255 255 255 255 255 255 255 255 255 255 255 255 255
255 255 255 255 255 255 255 255 255 255 255 255 255 255 255 255
255 255 255 255 255 255 255 255 255 255 255 255 255 255 255 255
255 255 255 255 255 255 255 255 255 255 255 255 255 255 255 255
255 255 255 255 255 255 255 255 255 255 255 255 255 255 255 255
255 255 255 255 255 255 255 255 255 255 255 255 255 255 255 255
255 255 255 255 255 250 255 255 247 221 163 104 79 161 250 250
251 251 255 253 255 255 255 255 255 255 255 255 255 255 255 255
255 255 255 251 231 220 135 101 97 85 93 90 93 100 100 100
104 115 112 104 116 105 108 108 108 113 105 108 108 119 114 109
117 118 112 106 115 110 105 97 93 89 89 89 85 77 85 89
89 128 196 244 251 251 255 255 255 255 255 255 247 194 117 70
51 56 92 180 243 251 255 255 255 255 255 255 255 255 255 255
255 255 255 255 255 255 255 255 255 255 255 255 255 255 255 255
255 255 255 255 255 255 255 255 255 255 255 255 255 255 255 255
255 255 255 255 255 255 255 255 255 255 255 255 255 255 255 255
255 255 255 255 255 255 255 255 255 255 255 255 255 255 255 255
255 255 255 255 255 255 255 255 255 255 255 255 255 255 255 255
255 255 255 255 255 255 255 255 255 255 255 255 255 255 255 255
255 255 255 255 255 255 255 255 255 255 255 255 255 255 255 255
255 255 255 255 255 255 255 255 255 255 255 255 255 255 255 255
255 255 255 255 255 255 255 255 250 255 255 254 247 200 135 113
200 254 250 255 255 255 255 255 255 255 255 255 255 255 255 255
255 255 255 255 255 255 251 235 225 143 88 76 64 75 72 71
75 78 74 81 90 90 79 82 74 79 79 82 88 79 83 83
92 92 80 80 80 73 73 76 74 64 56 53 51 54 58 58
58 68 82 92 135 209 251 251 251 255 255 255 253 255 254 254
238 178 80 67 75 100 183 243 251 255 255 255 255 255 255 255
255 255 255 255 255 255 255 255 255 255 255 255 255 255 255 255
255 255 255 255 255 255 255 255 255 255 255 255 255 255 255 255
255 255 255 255 255 255 255 255 255 255 255 255 255 255 255 255
255 255 255 255 255 255 255 255 255 255 255 255 255 255 255 255
255 255 255 255 255 255 255 255 255 255 255 255 255 255 255 255
255 255 255 255 255 255 255 255 255 255 255 255 255 255 255 255
255 255 255 255 255 255 255 255 255 255 255 255 255 255 255 255
255 255 255 255 255 255 255 255 255 255 255 255 255 255 255 255
255 255 255 255 255 255 255 255 255 255 255 253 251 254 254 247
184 98 146 236 254 251 255 255 255 255 255 255 255 255 255 255
255 255 255 255 255 255 255 255 255 251 240 228 162 83 58 50
60 52 46 50 46 46 51 59 56 51 38 34 44 44 50 55
52 58 47 55 60 52 50 56 48 54 54 49 44 39 36 32
36 36 44 48 64 89 105 149 220 251 251 251 255 255 253 253
253 255 254 254 218 101 72 89 131 208 247 251 255 255 255 255
255 255 255 255 255 255 255 255 255 255 255 255 255 255 255 255
255 255 255 255 255 255 255 255 255 255 255 255 255 255 255 255
255 255 255 255 255 255 255 255 255 255 255 255 255 255 255 255
255 255 255 255 255 255 255 255 255 255 255 255 255 255 255 255
255 255 255 255 255 255 255 255 255 255 255 255 255 255 255 255
255 255 255 255 255 255 255 255 255 255 255 255 255 255 255 255
255 255 255 255 255 255 255 255 255 255 255 255 255 255 255 255
255 255 255 255 255 255 255 255 255 255 255 255 255 255 255 255
255 255 255 255 255 255 255 255 255 255 255 255 255 255 255 251
251 254 241 159 60 150 254 251 255 255 255 251 255 255 255 255
255 255 255 255 255 255 255 255 255 255 255 255 255 245 226 187
90 53 47 42 32 32 27 24 24 28 28 24 21 17 11 19
19 24 28 25 33 19 28 38 30 36 49 41 49 41 38 39
34 29 26 29 31 44 59 70 100 127 167 228 250 251 251 255
255 253 253 253 255 247 250 234 144 76 96 172 224 251 255 255
255 255 255 255 255 255 255 255 255 255 255 255 255 255 255 255
255 255 255 255 255 255 255 255 255 255 255 255 255 255 255 255
255 255 255 255 255 255 255 255 255 255 255 255 255 255 255 255
255 255 255 255 255 255 255 255 255 255 255 255 255 255 255 255
255 255 255 255 255 255 255 255 255 255 255 255 255 255 255 255
255 255 255 255 255 255 255 255 255 255 255 255 255 255 255 255
255 255 255 255 255 255 255 255 255 255 255 255 255 255 255 255
255 255 255 255 255 255 255 255 255 255 255 255 255 255 255 255
255 255 255 255 255 255 255 255 255 255 255 255 255 255 255 255
250 255 255 255 254 241 171 90 136 254 251 255 255 255 251 255
255 255 255 255 255 255 255 255 255 255 255 255 255 255 255 255
246 227 202 101 53 48 35 19 22 18 15 15 15 12 7 5
13 8 16 13 11 13 7 15 17 21 32 21 29 41 29 36
36 34 29 26 22 22 26 31 52 72 83 111 146 184 239 254
251 251 255 255 255 253 255 255 255 255 244 205 107 131 221 240
255 255 255 255 255 255 255 255 255 255 255 255 255 255 255 255
255 255 255 255 255 255 255 255 255 255 255 255 255 255 255 255
255 255 255 255 255 255 255 255 255 255 255 255 255 255 255 255
255 255 255 255 255 255 255 255 255 255 255 255 255 255 255 255
255 255 255 255 255 255 255 255 255 255 255 255 255 255 255 255
255 255 255 255 255 255 255 255 255 255 255 255 255 255 255 255
255 255 255 255 255 255 255 255 255 255 255 255 255 255 255 255
255 255 255 255 255 255 255 255 255 255 255 255 255 255 255 255
255 255 255 255 255 255 255 255 255 255 255 255 255 255 255 255
255 255 255 255 255 251 255 251 217 98 98 220 239 254 255 255
255 255 251 255 255 255 255 255 255 255 255 255 255 255 255 255
255 255 255 246 238 221 115 73 43 46 30 18 26 9 6 14
2 3 10 13 10 9 6 6 6 10 11 16 19 32 27 23
32 21 7 23 21 18 18 22 30 43 55 81 105 111 116 135
162 242 254 254 255 255 255 255 255 255 255 255 249 251 235 129
153 231 251 255 255 255 255 255 255 255 255 255 255 255 255 255
255 255 255 255 255 255 255 255 255 255 255 255 255 255 255 255
255 255 255 255 255 255 255 255 255 255 255 255 255 255 255 255
255 255 255 255 255 255 255 255 255 255 255 255 255 255 255 255
255 255 255 255 255 255 255 255 255 255 255 255 255 255 255 255
255 255 255 255 255 255 255 255 255 255 255 255 255 255 255 255
255 255 255 255 255 255 255 255 255 255 255 255 255 255 255 255
255 255 255 255 255 255 255 255 255 255 255 255 255 255 255 255
255 255 255 255 255 255 255 255 255 255 255 255 255 255 255 255
255 255 255 255 255 255 255 251 251 251 244 198 75 103 228 250
254 254 246 255 255 255 255 255 255 255 255 255 255 255 255 255
255 255 255 255 255 255 251 246 224 150 82 55 43 33 23 26
10 10 14 6 10 10 5 5 6 9 9 9 9 11 11 11
11 23 35 39 35 35 34 37 43 45 45 43 51 63 76 89
83 97 130 166 239 251 254 255 255 255 255 255 255 255 251 251
254 227 111 132 220 251 255 255 255 255 255 255 255 255 255 255
255 255 255 255 255 255 255 255 255 255 255 255 255 255 255 255
255 255 255 255 255 255 255 255 255 255 255 255 255 255 255 255
255 255 255 255 255 255 255 255 255 255 255 255 255 255 255 255
255 255 255 255 255 255 255 255 255 255 255 255 255 255 255 255
255 255 255 255 255 255 255 255 255 255 255 255 255 255 255 255
255 255 255 255 255 255 255 255 255 255 255 255 255 255 255 255
255 255 255 255 255 255 255 255 255 255 255 255 255 255 255 255
255 255 255 255 255 255 255 255 255 255 255 255 255 255 255 255
255 255 255 255 255 255 255 255 255 255 255 255 255 251 182 73
143 247 250 254 254 255 255 255 255 255 255 255 255 255 255 255
255 255 255 255 255 255 255 255 255 255 251 235 196 95 78 51
43 34 26 17 18 14 6 14 6 14 14 9 9 9 6 6
6 2 23 31 59 74 66 91 115 120 111 96 71 41 25 22
27 42 63 76 108 151 192 251 254 254 255 255 255 255 255 255
255 251 251 254 232 124 151 228 248 255 255 255 255 255 255 255
255 255 255 255 255 255 255 255 255 255 255 255 255 255 255 255
255 255 255 255 255 255 255 255 255 255 255 255 255 255 255 255
255 255 255 255 255 255 255 255 255 255 255 255 255 255 255 255
255 255 255 255 255 255 255 255 255 255 255 255 255 255 255 255
255 255 255 255 255 255 255 255 255 255 255 255 255 255 255 255
255 255 255 255 255 255 255 255 255 255 255 255 255 255 255 255
255 255 255 255 255 255 255 255 255 255 255 255 255 255 255 255
255 255 255 255 255 255 255 255 255 255 255 255 255 255 255 255
255 255 255 255 255 255 255 255 255 255 255 255 251 251 251 255
242 124 66 162 247 250 251 254 255 255 255 251 255 255 255 255
255 255 255 255 255 255 255 255 255 255 255 255 255 251 247 215
103 87 62 46 41 31 23 32 23 18 29 18 30 30 25 19
14 13 10 10 10 26 18 69 123 127 143 143 127 119 103 83
62 53 55 63 84 112 139 163 184 212 254 254 254 255 255 255
255 255 255 255 255 251 250 227 125 166 244 255 255 255 255 255
255 255 255 255 255 255 255 255 255 255 255 255 255 255 255 255
255 255 255 255 255 255 255 255 255 255 255 255 255 255 255 255
255 255 255 255 255 255 255 255 255 255 255 255 255 255 255 255
255 255 255 255 255 255 255 255 255 255 255 255 255 255 255 255
255 255 255 255 255 255 255 255 255 255 255 255 255 255 255 255
255 255 255 255 255 255 255 255 255 255 255 255 255 255 255 255
255 255 255 255 255 255 255 255 255 255 255 255 255 255 255 255
255 255 255 255 255 255 255 255 255 255 255 255 255 255 255 255
255 255 255 255 255 255 255 255 255 255 255 255 255 255 255 255
255 251 248 217 57 51 158 247 254 254 251 246 255 255 251 255
255 255 255 255 255 255 255 255 255 255 255 255 255 255 255 255
254 254 207 94 72 59 35 22 14 12 18 12 7 20 12 2
7 7 7 7 10 12 10 6 27 11 50 105 115 123 115 128
133 136 143 147 143 146 151 154 173 184 188 188 212 247 254 255
255 255 255 255 255 255 255 251 251 250 216 109 150 241 255 255
255 255 255 255 255 255 255 255 255 255 255 255 255 255 255 255
255 255 255 255 255 255 255 255 255 255 255 255 255 255 255 255
255 255 255 255 255 255 255 255 255 255 255 255 255 255 255 255
255 255 255 255 255 255 255 255 255 255 255 255 255 255 255 255
255 255 255 255 255 255 255 255 255 255 255 255 255 255 255 255
255 255 255 255 255 255 255 255 255 255 255 255 255 255 255 255
255 255 255 255 255 255 255 255 255 255 255 255 255 255 255 255
255 255 255 255 255 255 255 255 255 255 255 255 255 255 255 255
255 255 255 255 255 255 255 255 255 255 255 255 255 255 255 255
255 255 255 255 255 248 180 38 49 143 254 242 243 251 255 255
251 255 255 255 255 255 255 255 255 255 255 255 255 255 255 255
255 255 255 254 254 198 83 53 47 26 19 19 11 15 7 2
9 3 19 28 39 47 60 68 72 67 70 100 94 99 115 117
134 135 143 145 156 164 167 164 159 158 180 183 184 187 188 221
247 254 255 255 255 255 255 255 255 255 251 251 250 224 125 173
247 248 255 255 255 255 255 255 255 255 255 255 255 255 255 255
255 255 255 255 255 255 255 255 255 255 255 255 255 255 255 255
255 255 255 255 255 255 255 255 255 255 255 255 255 255 255 255
255 255 255 255 255 255 255 255 255 255 255 255 255 255 255 255
255 255 255 255 255 255 255 255 255 255 255 255 255 255 255 255
255 255 255 255 255 255 255 255 255 255 255 255 255 255 255 255
255 255 255 255 255 255 255 255 255 255 255 255 255 255 255 255
255 255 255 255 255 255 255 255 255 255 255 255 255 255 255 255
255 255 255 255 255 255 255 255 255 255 255 255 255 255 255 255
255 255 255 255 255 255 251 255 237 131 54 44 117 202 205 227
255 255 255 251 255 255 255 255 255 255 255 255 255 255 255 255
255 255 255 255 255 255 255 254 203 92 59 50 47 55 62 54
54 48 40 45 51 59 67 80 89 97 109 115 112 128 131 127
125 135 143 143 132 147 149 155 164 170 172 180 183 193 193 188
197 199 238 247 248 255 255 255 255 255 255 255 251 251 251 250
232 150 202 254 248 255 255 255 255 255 255 255 255 255 255 255
255 255 255 255 255 255 255 255 255 255 255 255 255 255 255 255
255 255 255 255 255 255 255 255 255 255 255 255 255 255 255 255
255 255 255 255 255 255 255 255 255 255 255 255 255 255 255 255
255 255 255 255 255 255 255 255 255 255 255 255 255 255 255 255
255 255 255 255 255 255 255 255 255 255 255 255 255 255 255 255
255 255 255 255 255 255 255 255 255 255 255 255 255 255 255 255
255 255 255 255 255 255 255 255 255 255 255 255 255 255 255 255
255 255 255 255 255 255 255 255 255 255 255 255 255 255 255 255
255 255 255 255 255 255 255 255 255 251 255 240 102 82 41 98
101 186 254 255 246 255 255 251 255 255 255 255 255 255 255 255
255 255 255 255 255 255 255 255 255 255 251 220 103 75 63 76
74 88 83 86 88 79 88 104 101 104 104 104 108 120 127 125
133 132 148 148 143 151 147 147 157 160 165 168 168 166 172 180
176 177 175 187 193 240 248 255 255 255 255 255 255 255 255 255
249 251 247 220 128 186 254 255 255 255 255 255 255 255 255 255
255 255 255 255 255 255 255 255 255 255 255 255 255 255 255 255
255 255 255 255 255 255 255 255 255 255 255 255 255 255 255 255
255 255 255 255 255 255 255 255 255 255 255 255 255 255 255 255
255 255 255 255 255 255 255 255 255 255 255 255 255 255 255 255
255 255 255 255 255 255 255 255 255 255 255 255 255 255 255 255
255 255 255 255 255 255 255 255 255 255 255 255 255 255 255 255
255 255 255 255 255 255 255 255 255 255 255 255 255 255 255 255
255 255 255 255 255 255 255 255 255 255 255 255 255 255 255 255
255 255 255 255 255 255 255 255 255 255 255 255 251 255 243 232
215 158 218 239 246 254 255 255 255 255 251 255 255 255 255 255
255 255 255 255 255 255 255 255 255 255 255 255 251 255 225 119
86 82 71 82 94 99 99 99 107 115 122 111 108 116 124 120
116 124 128 144 136 144 136 136 136 123 144 149 134 144 157 142
142 158 163 144 166 159 168 192 244 251 255 251 255 255 255 255
255 255 251 251 249 247 150 134 186 254 251 255 255 255 255 255
255 255 255 255 255 255 255 255 255 255 255 255 255 255 255 255
255 255 255 255 255 255 255 255 255 255 255 255 255 255 255 255
255 255 255 255 255 255 255 255 255 255 255 255 255 255 255 255
255 255 255 255 255 255 255 255 255 255 255 255 255 255 255 255
255 255 255 255 255 255 255 255 255 255 255 255 255 255 255 255
255 255 255 255 255 255 255 255 255 255 255 255 255 255 255 255
255 255 255 255 255 255 255 255 255 255 255 255 255 255 255 255
255 255 255 255 255 255 255 255 255 255 255 255 255 255 255 255
255 255 255 255 255 255 255 255 255 255 255 255 255 255 255 255
255 255 255 255 220 255 251 255 255 255 255 255 255 251 255 255
255 255 255 255 255 255 255 255 255 255 255 255 255 255 255 251
255 231 143 96 91 74 87 94 90 101 90 103 101 111 120 115
115 115 107 110 120 128 115 112 120 126 134 132 116 126 137 126
132 137 132 140 139 119 143 143 135 165 213 244 248 251 255 255
255 255 255 255 255 251 249 249 225 142 121 202 254 251 255 255
255 255 255 255 255 255 255 255 255 255 255 255 255 255 255 255
255 255 255 255 255 255 255 255 255 255 255 255 255 255 255 255
255 255 255 255 255 255 255 255 255 255 255 255 255 255 255 255
255 255 255 255 255 255 255 255 255 255 255 255 255 255 255 255
255 255 255 255 255 255 255 255 255 255 255 255 255 255 255 255
255 255 255 255 255 255 255 255 255 255 255 255 255 255 255 255
255 255 255 255 255 255 255 255 255 255 255 255 255 255 255 255
255 255 255 255 255 255 255 255 255 255 255 255 255 255 255 255
255 255 255 255 255 255 255 255 255 255 255 255 255 255 255 255
255 251 255 251 248 251 255 251 255 255 255 255 255 255 255 255
255 255 255 255 255 255 255 255 255 255 255 255 255 255 255 255
255 255 255 251 236 176 108 94 82 86 86 74 93 76 90 78
89 95 99 108 111 107 107 112 108 96 92 100 108 121 118 97
100 109 101 104 104 104 120 116 87 108 103 112 155 228 248 249
255 255 255 255 255 255 255 251 249 194 175 127 105 124 230 255
249 255 255 255 255 255 255 255 255 255 255 255 255 255 255 255
255 255 255 255 255 255 255 255 255 255 255 255 255 255 255 255
255 255 255 255 255 255 255 255 255 255 255 255 255 255 255 255
255 255 255 255 255 255 255 255 255 255 255 255 255 255 255 255
255 255 255 255 255 255 255 255 255 255 255 255 255 255 255 255
255 255 255 255 255 255 255 255 255 255 255 255 255 255 255 255
255 255 255 255 255 255 255 255 255 255 255 255 255 255 255 255
255 255 255 255 255 255 255 255 255 255 255 255 255 255 255 255
255 255 255 255 255 255 255 255 255 255 255 255 255 255 255 255
255 255 255 255 255 255 255 255 251 255 255 248 255 255 255 255
255 255 255 255 255 255 255 255 255 255 255 255 255 255 255 255
255 255 255 255 255 255 246 232 196 111 91 82 78 72 64 77
69 68 65 74 70 78 95 103 95 95 92 78 87 83 84 93
101 93 73 71 68 67 70 62 59 74 82 66 63 82 112 151
233 251 251 255 255 255 255 255 255 255 251 249 221 181 142 162
190 254 255 251 255 255 255 255 255 255 255 255 255 255 255 255
255 255 255 255 255 255 255 255 255 255 255 255 255 255 255 255
255 255 255 255 255 255 255 255 255 255 255 255 255 255 255 255
255 255 255 255 255 255 255 255 255 255 255 255 255 255 255 255
255 255 255 255 255 255 255 255 255 255 255 255 255 255 255 255
255 255 255 255 255 255 255 255 255 255 255 255 255 255 255 255
255 255 255 255 255 255 255 255 255 255 255 255 255 255 255 255
255 255 255 255 255 255 255 255 255 255 255 255 255 255 255 255
255 255 255 255 255 255 255 255 255 255 255 255 255 255 255 255
255 255 255 255 255 255 255 255 255 255 255 255 251 255 251 255
255 255 255 255 255 255 255 255 255 255 255 255 255 255 255 255
255 255 255 255 255 255 255 255 255 246 235 212 119 83 70 67
54 60 57 62 45 53 66 62 63 70 66 58 62 62 53 67
70 67 72 75 59 43 43 43 38 38 33 29 33 46 49 50
75 119 171 244 251 251 255 255 255 255 255 255 255 255 251 251
246 231 243 249 254 255 255 255 255 255 255 255 255 255 255 255
255 255 255 255 255 255 255 255 255 255 255 255 255 255 255 255
255 255 255 255 255 255 255 255 255 255 255 255 255 255 255 255
255 255 255 255 255 255 255 255 255 255 255 255 255 255 255 255
255 255 255 255 255 255 255 255 255 255 255 255 255 255 255 255
255 255 255 255 255 255 255 255 255 255 255 255 255 255 255 255
255 255 255 255 255 255 255 255 255 255 255 255 255 255 255 255
255 255 255 255 255 255 255 255 255 255 255 255 255 255 255 255
255 255 255 255 255 255 255 255 255 255 255 255 255 255 255 255
255 255 255 255 255 255 255 255 255 255 255 250 255 255 255 248
255 255 255 255 255 255 255 255 255 255 255 255 255 255 255 255
255 255 255 255 255 255 255 255 255 255 253 255 255 243 223 146
75 57 49 33 45 34 45 22 36 41 33 30 33 30 25 30
33 30 33 41 41 50 55 34 23 18 29 21 16 24 32 29
34 41 55 67 122 198 254 255 251 255 255 255 255 255 255 255
255 255 249 251 254 250 254 248 255 250 255 255 255 255 255 255
255 255 255 255 255 255 255 255 255 255 255 255 255 255 255 255
255 255 255 255 255 255 255 255 255 255 255 255 255 255 255 255
255 255 255 255 255 255 255 255 255 255 255 255 255 255 255 255
255 255 255 255 255 255 255 255 255 255 255 255 255 255 255 255
255 255 255 255 255 255 255 255 255 255 255 255 255 255 255 255
255 255 255 255 255 255 255 255 255 255 255 255 255 255 255 255
255 255 255 255 255 255 255 255 255 255 255 255 255 255 255 255
255 255 255 255 255 255 255 255 255 255 255 255 255 255 255 255
255 255 255 255 255 255 255 255 255 255 255 255 255 255 255 255
255 255 255 255 255 255 255 255 255 255 255 255 255 255 255 255
255 255 255 255 255 255 255 255 255 255 255 255 255 255 253 255
247 231 180 82 54 34 23 23 14 21 2 12 15 3 2 7
13 10 10 13 13 13 21 18 35 38 22 18 14 13 11 9
19 33 33 33 43 63 82 147 228 254 255 255 255 255 255 255
255 255 255 255 255 251 255 254 250 254 254 255 250 255 255 255
255 255 255 255 255 255 255 255 255 255 255 255 255 255 255 255
255 255 255 255 255 255 255 255 255 255 255 255 255 255 255 255
255 255 255 255 255 255 255 255 255 255 255 255 255 255 255 255
255 255 255 255 255 255 255 255 255 255 255 255 255 255 255 255
255 255 255 255 255 255 255 255 255 255 255 255 255 255 255 255
255 255 255 255 255 255 255 255 255 255 255 255 255 255 255 255
255 255 255 255 255 255 255 255 255 255 255 255 255 255 255 255
255 255 255 255 255 255 255 255 255 255 255 255 255 255 255 255
255 255 255 255 255 255 255 255 255 255 255 255 255 255 255 255
255 255 255 243 255 255 255 255 255 255 255 255 255 255 255 255
255 255 255 255 255 255 255 255 255 255 255 255 255 255 255 255
255 255 255 245 231 204 95 58 34 21 14 9 6 3 1 1
6 1 1 9 6 1 9 9 17 22 9 25 33 17 22 17
4 9 9 11 17 17 24 37 74 117 192 254 247 255 255 255
255 255 255 255 255 255 255 255 249 255 251 254 254 244 253 255
255 255 255 255 255 255 255 255 255 255 255 255 255 255 255 255
255 255 255 255 255 255 255 255 255 255 255 255 255 255 255 255
255 255 255 255 255 255 255 255 255 255 255 255 255 255 255 255
255 255 255 255 255 255 255 255 255 255 255 255 255 255 255 255
255 255 255 255 255 255 255 255 255 255 255 255 255 255 255 255
255 255 255 255 255 255 255 255 255 255 255 255 255 255 255 255
255 255 255 255 255 255 255 255 255 255 255 255 255 255 255 255
255 255 255 255 255 255 255 255 255 255 255 255 255 255 255 255
255 255 255 255 255 255 255 255 255 255 255 255 255 255 255 255
255 255 255 255 255 255 255 255 255 255 255 255 255 255 255 255
255 255 255 255 255 255 255 255 255 255 255 255 255 255 255 255
255 255 255 255 255 248 255 228 224 131 61 39 21 10 9 4
2 2 1 1 4 4 1 1 4 3 1 9 3 17 22 19
14 6 19 11 19 18 21 15 34 49 65 119 179 215 250 255
251 255 255 255 255 255 255 255 255 255 255 255 255 255 255 255
255 255 255 255 255 255 255 255 255 255 255 255 255 255 255 255
255 255 255 255 255 255 255 255 255 255 255 255 255 255 255 255
255 255 255 255 255 255 255 255 255 255 255 255 255 255 255 255
255 255 255 255 255 255 255 255 255 255 255 255 255 255 255 255
255 255 255 255 255 255 255 255 255 255 255 255 255 255 255 255
255 255 255 255 255 255 255 255 255 255 255 255 255 255 255 255
255 255 255 255 255 255 255 255 255 255 255 255 255 255 255 255
255 255 255 255 255 255 255 255 255 255 255 255 255 255 255 255
255 255 255 255 255 255 255 255 255 255 255 255 255 255 255 255
255 255 255 255 255 255 255 255 255 255 255 255 255 255 255 255
255 255 255 255 255 255 255 255 255 255 255 255 255 255 255 255
255 255 255 255 255 255 255 255 248 255 236 228 158 77 48 29
17 14 9 5 5 2 1 1 4 1 1 4 4 3 9 1
9 11 18 25 14 15 15 15 15 38 51 75 100 135 154 195
228 250 255 255 255 255 255 255 255 255 255 255 255 255 255 255
255 255 255 255 255 255 255 255 255 255 255 255 255 255 255 255
255 255 255 255 255 255 255 255 255 255 255 255 255 255 255 255
255 255 255 255 255 255 255 255 255 255 255 255 255 255 255 255
255 255 255 255 255 255 255 255 255 255 255 255 255 255 255 255
255 255 255 255 255 255 255 255 255 255 255 255 255 255 255 255
255 255 255 255 255 255 255 255 255 255 255 255 255 255 255 255
255 255 255 255 255 255 255 255 255 255 255 255 255 255 255 255
255 255 255 255 255 255 255 255 255 255 255 255 255 255 255 255
255 255 255 255 255 255 255 255 255 255 255 255 255 255 255 255
255 255 255 255 255 255 255 255 255 255 255 255 255 255 255 255
255 255 255 255 255 255 255 255 255 255 255 255 255 255 255 255
255 255 255 255 255 255 255 255 255 255 255 251 255 240 232 191
102 57 34 21 17 9 6 4 1 1 2 5 1 1 4 6
6 10 10 18 18 29 43 39 39 36 46 59 92 99 120 142
175 196 208 239 254 254 255 255 255 255 255 255 255 255 255 255
255 255 255 255 255 255 255 255 255 255 255 255 255 255 255 255
255 255 255 255 255 255 255 255 255 255 255 255 255 255 255 255
255 255 255 255 255 255 255 255 255 255 255 255 255 255 255 255
255 255 255 255 255 255 255 255 255 255 255 255 255 255 255 255
255 255 255 255 255 255 255 255 255 255 255 255 255 255 255 255
255 255 255 255 255 255 255 255 255 255 255 255 255 255 255 255
255 255 255 255 255 255 255 255 255 255 255 255 255 255 255 255
255 255 255 255 255 255 255 255 255 255 255 255 255 255 255 255
255 255 255 255 255 255 255 255 255 255 255 255 255 255 255 255
255 255 255 255 255 255 255 255 255 255 255 255 255 255 255 255
255 255 255 255 255 255 255 255 255 255 255 255 255 255 255 255
255 255 255 255 255 255 255 255 255 255 255 255 255 255 255 255
243 232 223 126 69 42 26 26 18 13 13 11 3 1 1 1
3 6 3 2 0 2 23 26 26 38 44 57 89 112 128 144
139 159 171 184 204 204 240 250 248 255 255 255 255 255 255 255
255 255 255 255 255 255 255 255 255 255 255 255 255 255 255 255
255 255 255 255 255 255 255 255 255 255 255 255 255 255 255 255
255 255 255 255 255 255 255 255 255 255 255 255 255 255 255 255
255 255 255 255 255 255 255 255 255 255 255 255 255 255 255 255
255 255 255 255 255 255 255 255 255 255 255 255 255 255 255 255
255 255 255 255 255 255 255 255 255 255 255 255 255 255 255 255
255 255 255 255 255 255 255 255 255 255 255 255 255 255 255 255
255 255 255 255 255 255 255 255 255 255 255 255 255 255 255 255
255 255 255 255 255 255 255 255 255 255 255 255 255 255 255 255
255 255 255 255 255 255 255 255 255 255 255 255 255 255 255 255
255 255 255 255 255 255 255 255 255 255 255 255 255 255 255 255
255 255 255 255 255 255 255 255 255 255 255 255 255 255 255 255
255 255 255 251 240 244 158 66 41 25 25 21 14 14 13 7
3 2 7 18 26 23 19 44 49 75 87 87 92 100 120 133
143 143 151 155 176 179 179 191 199 243 254 248 255 255 255 255
255 255 255 255 255 255 255 255 255 255 255 255 255 255 255 255
255 255 255 255 255 255 255 255 255 255 255 255 255 255 255 255
255 255 255 255 255 255 255 255 255 255 255 255 255 255 255 255
255 255 255 255 255 255 255 255 255 255 255 255 255 255 255 255
255 255 255 255 255 255 255 255 255 255 255 255 255 255 255 255
255 255 255 255 255 255 255 255 255 255 255 255 255 255 255 255
255 255 255 255 255 255 255 255 255 255 255 255 255 255 255 255
255 255 255 255 255 255 255 255 255 255 255 255 255 255 255 255
255 255 255 255 255 255 255 255 255 255 255 255 255 255 255 255
255 255 255 255 255 255 255 255 255 255 255 255 255 255 255 255
255 255 255 255 255 255 255 255 255 255 255 255 255 255 255 255
255 255 255 255 255 255 255 255 255 255 255 255 255 255 255 255
255 255 255 255 255 255 255 251 254 194 70 44 30 33 33 27
27 25 36 31 36 47 64 72 72 70 97 92 112 129 139 136
128 139 143 136 131 155 167 179 164 162 175 204 246 254 251 255
255 255 255 255 255 255 255 255 255 255 255 255 255 255 255 255
255 255 255 255 255 255 255 255 255 255 255 255 255 255 255 255
255 255 255 255 255 255 255 255 255 255 255 255 255 255 255 255
255 255 255 255 255 255 255 255 255 255 255 255 255 255 255 255
255 255 255 255 255 255 255 255 255 255 255 255 255 255 255 255
255 255 255 255 255 255 255 255 255 255 255 255 255 255 255 255
255 255 255 255 255 255 255 255 255 255 255 255 255 255 255 255
255 255 255 255 255 255 255 255 255 255 255 255 255 255 255 255
255 255 255 255 255 255 255 255 255 255 255 255 255 255 255 255
255 255 255 255 255 255 255 255 255 255 255 255 255 255 255 255
255 255 255 255 255 255 255 255 255 255 255 255 255 255 255 255
255 255 255 255 255 255 255 255 255 255 255 255 255 255 255 255
255 255 255 255 255 255 255 255 255 255 255 251 215 98 73 62
70 70 67 67 67 79 78 83 99 109 112 112 112 128 119 131
138 143 138 116 108 132 132 136 159 159 162 146 143 163 216 247
254 255 255 255 250 255 255 255 255 255 255 255 255 255 255 255
255 255 255 255 255 255 255 255 255 255 255 255 255 255 255 255
255 255 255 255 255 255 255 255 255 255 255 255 255 255 255 255
255 255 255 255 255 255 255 255 255 255 255 255 255 255 255 255
255 255 255 255 255 255 255 255 255 255 255 255 255 255 255 255
255 255 255 255 255 255 255 255 255 255 255 255 255 255 255 255
255 255 255 255 255 255 255 255 255 255 255 255 255 255 255 255
255 255 255 255 255 255 255 255 255 255 255 255 255 255 255 255
255 255 255 255 255 255 255 255 255 255 255 255 255 255 255 255
255 255 255 255 255 255 255 255 255 255 255 255 255 255 255 255
255 255 255 255 255 255 255 255 255 255 255 255 255 255 255 255
255 255 255 255 255 255 255 255 255 255 255 255 255 255 255 255
255 255 255 255 255 255 255 255 255 255 255 255 255 255 243 222
114 86 78 86 92 86 88 88 104 107 111 119 123 119 119 119
127 127 135 127 124 111 80 62 95 122 133 127 111 119 119 123
158 224 247 254 255 255 255 250 255 255 255 255 255 255 255 255
255 255 255 255 255 255 255 255 255 255 255 255 255 255 255 255
255 255 255 255 255 255 255 255 255 255 255 255 255 255 255 255
255 255 255 255 255 255 255 255 255 255 255 255 255 255 255 255
255 255 255 255 255 255 255 255 255 255 255 255 255 255 255 255
255 255 255 255 255 255 255 255 255 255 255 255 255 255 255 255
255 255 255 255 255 255 255 255 255 255 255 255 255 255 255 255
255 255 255 255 255 255 255 255 255 255 255 255 255 255 255 255
255 255 255 255 255 255 255 255 255 255 255 255 255 255 255 255
255 255 255 255 255 255 255 255 255 255 255 255 255 255 255 255
255 255 255 255 255 255 255 255 255 255 255 255 255 255 255 255
255 255 255 255 255 255 255 255 255 255 255 255 255 255 255 255
255 255 255 255 255 255 255 255 255 255 255 255 255 255 255 255
254 247 231 154 98 86 83 86 99 96 104 95 103 98 111 106
114 103 95 99 111 111 106 92 95 59 43 84 101 93 88 71
79 86 105 179 234 254 251 255 255 253 253 255 255 255 255 255
255 255 255 255 255 255 255 255 255 255 255 255 255 255 255 255
255 255 255 255 255 255 255 255 255 255 255 255 255 255 255 255
255 255 255 255 255 255 255 255 255 255 255 255 255 255 255 255
255 255 255 255 255 255 255 255 255 255 255 255 255 255 255 255
255 255 255 255 255 255 255 255 255 255 255 255 255 255 255 255
255 255 255 255 255 255 255 255 255 255 255 255 255 255 255 255
255 255 255 255 255 255 255 255 255 255 255 255 255 255 255 255
255 255 255 255 255 255 255 255 255 255 255 255 255 255 255 255
255 255 255 255 255 255 255 255 255 255 255 255 255 255 255 255
255 255 255 255 255 255 255 255 255 255 255 255 255 255 255 255
255 255 255 255 255 255 255 255 255 255 255 255 255 255 255 255
255 255 255 255 255 255 255 255 255 255 255 255 255 255 255 255
255 255 255 255 247 234 182 122 81 78 83 88 82 84 82 95
93 95 93 107 96 82 87 91 96 91 84 88 60 42 59 59
48 48 54 62 73 106 199 242 255 251 255 255 253 255 255 255
255 255 255 255 255 255 255 255 255 255 255 255 255 255 255 255
255 255 255 255 255 255 255 255 255 255 255 255 255 255 255 255
255 255 255 255 255 255 255 255 255 255 255 255 255 255 255 255
255 255 255 255 255 255 255 255 255 255 255 255 255 255 255 255
255 255 255 255 255 255 255 255 255 255 255 255 255 255 255 255
255 255 255 255 255 255 255 255 255 255 255 255 255 255 255 255
255 255 255 255 255 255 255 255 255 255 255 255 255 255 255 255
255 255 255 255 255 255 255 255 255 255 255 255 255 255 255 255
255 255 255 255 255 255 255 255 255 255 255 255 255 255 255 255
255 255 255 255 255 255 255 255 255 255 255 255 255 255 255 255
255 255 255 255 255 255 255 255 255 255 255 255 255 255 255 255
255 255 255 255 255 255 255 255 255 255 255 255 255 255 255 255
255 255 255 255 255 255 255 251 239 207 150 76 62 70 67 64
63 66 77 77 74 71 88 78 62 59 56 67 59 64 64 48
32 20 28 28 28 42 38 74 134 218 249 255 255 255 255 253
255 255 255 255 255 255 255 255 255 255 255 255 255 255 255 255
255 255 255 255 255 255 255 255 255 255 255 255 255 255 255 255
255 255 255 255 255 255 255 255 255 255 255 255 255 255 255 255
255 255 255 255 255 255 255 255 255 255 255 255 255 255 255 255
255 255 255 255 255 255 255 255 255 255 255 255 255 255 255 255
255 255 255 255 255 255 255 255 255 255 255 255 255 255 255 255
255 255 255 255 255 255 255 255 255 255 255 255 255 255 255 255
255 255 255 255 255 255 255 255 255 255 255 255 255 255 255 255
255 255 255 255 255 255 255 255 255 255 255 255 255 255 255 255
255 255 255 255 255 255 255 255 255 255 255 255 255 255 255 255
255 255 255 255 255 255 255 255 255 255 255 255 255 255 255 255
255 255 255 255 255 255 255 255 255 255 255 255 255 255 255 255
255 255 255 255 255 255 255 255 255 255 254 245 235 183 90 46
46 43 46 40 46 51 49 46 46 54 47 34 30 23 36 28
40 36 28 15 7 19 32 32 51 42 99 183 238 251 255 255
255 255 253 255 255 255 255 255 255 255 255 255 255 255 255 255
255 255 255 255 255 255 255 255 255 255 255 255 255 255 255 255
255 255 255 255 255 255 255 255 255 255 255 255 255 255 255 255
255 255 255 255 255 255 255 255 255 255 255 255 255 255 255 255
255 255 255 255 255 255 255 255 255 255 255 255 255 255 255 255
255 255 255 255 255 255 255 255 255 255 255 255 255 255 255 255
255 255 255 255 255 255 255 255 255 255 255 255 255 255 255 255
255 255 255 255 255 255 255 255 255 255 255 255 255 255 255 255
255 255 255 255 255 255 255 255 255 255 255 255 255 255 255 255
255 255 255 255 255 255 255 255 255 255 255 255 255 255 255 255
255 255 255 255 255 255 255 255 255 255 255 255 255 255 255 255
255 255 255 255 255 255 255 255 255 255 255 255 255 255 255 255
255 255 255 255 255 255 255 255 255 255 255 255 255 255 251 248
216 118 49 26 22 28 18 26 18 18 18 23 18 15 13 15
7 19 11 23 19 16 11 11 15 27 30 59 70 138 219 249
251 255 255 255 255 255 255 255 255 255 255 255 255 255 255 255
255 255 255 255 255 255 255 255 255 255 255 255 255 255 255 255
255 255 255 255 255 255 255 255 255 255 255 255 255 255 255 255
255 255 255 255 255 255 255 255 255 255 255 255 255 255 255 255
255 255 255 255 255 255 255 255 255 255 255 255 255 255 255 255
255 255 255 255 255 255 255 255 255 255 255 255 255 255 255 255
255 255 255 255 255 255 255 255 255 255 255 255 255 255 255 255
255 255 255 255 255 255 255 255 255 255 255 255 255 255 255 255
255 255 255 255 255 255 255 255 255 255 255 255 255 255 255 255
255 255 255 255 255 255 255 255 255 255 255 255 255 255 255 255
255 255 255 255 255 255 255 255 255 255 255 255 255 255 255 255
255 255 255 255 255 255 255 255 255 255 255 255 255 255 255 255
255 255 255 255 255 255 255 255 255 255 255 255 255 255 255 255
255 255 238 222 154 70 23 10 18 10 15 2 2 6 17 6
9 11 14 6 14 6 14 14 9 11 11 18 26 29 49 90
176 245 251 251 251 255 255 255 255 255 255 255 255 255 255 255
255 255 255 255 255 255 255 255 255 255 255 255 255 255 255 255
255 255 255 255 255 255 255 255 255 255 255 255 255 255 255 255
255 255 255 255 255 255 255 255 255 255 255 255 255 255 255 255
255 255 255 255 255 255 255 255 255 255 255 255 255 255 255 255
255 255 255 255 255 255 255 255 255 255 255 255 255 255 255 255
255 255 255 255 255 255 255 255 255 255 255 255 255 255 255 255
255 255 255 255 255 255 255 255 255 255 255 255 255 255 255 255
255 255 255 255 255 255 255 255 255 255 255 255 255 255 255 255
255 255 255 255 255 255 255 255 255 255 255 255 255 255 255 255
255 255 255 255 255 255 255 255 255 255 255 255 255 255 255 255
255 255 255 255 255 255 255 255 255 255 255 255 255 255 255 255
255 255 255 255 255 255 255 255 255 255 255 255 255 255 255 255
255 255 255 255 255 235 224 192 114 45 18 10 10 14 1 6
4 17 9 14 14 12 9 11 12 9 17 11 25 21 29 37
43 53 126 207 255 255 251 255 255 251 255 255 251 255 255 255
255 255 255 255 255 255 255 255 255 255 255 255 255 255 255 255
255 255 255 255 255 255 255 255 255 255 255 255 255 255 255 255
255 255 255 255 255 255 255 255 255 255 255 255 255 255 255 255
255 255 255 255 255 255 255 255 255 255 255 255 255 255 255 255
255 255 255 255 255 255 255 255 255 255 255 255 255 255 255 255
255 255 255 255 255 255 255 255 255 255 255 255 255 255 255 255
255 255 255 255 255 255 255 255 255 255 255 255 255 255 255 255
255 255 255 255 255 255 255 255 255 255 255 255 255 255 255 255
255 255 255 255 255 255 255 255 255 255 255 255 255 255 255 255
255 255 255 255 255 255 255 255 255 255 255 255 255 255 255 255
255 255 255 255 255 255 255 255 255 255 255 255 255 255 255 255
255 255 255 255 255 255 255 255 255 255 255 255 255 255 255 255
255 255 255 255 255 255 255 255 251 239 231 159 73 29 9 13
14 6 9 1 14 9 17 9 17 13 13 19 9 21 17 36
45 45 42 56 81 171 235 243 255 255 255 255 251 255 255 251
255 255 255 255 255 255 255 255 255 255 255 255 255 255 255 255
255 255 255 255 255 255 255 255 255 255 255 255 255 255 255 255
255 255 255 255 255 255 255 255 255 255 255 255 255 255 255 255
255 255 255 255 255 255 255 255 255 255 255 255 255 255 255 255
255 255 255 255 255 255 255 255 255 255 255 255 255 255 255 255
255 255 255 255 255 255 255 255 255 255 255 255 255 255 255 255
255 255 255 255 255 255 255 255 255 255 255 255 255 255 255 255
255 255 255 255 255 255 255 255 255 255 255 255 255 255 255 255
255 255 255 255 255 255 255 255 255 255 255 255 255 255 255 255
255 255 255 255 255 255 255 255 255 255 255 255 255 255 255 255
255 255 255 255 255 255 255 255 255 255 255 255 255 255 255 255
255 255 255 255 255 255 255 255 255 255 255 255 255 255 255 255
255 255 255 255 255 255 255 255 255 255 255 251 255 239 206 154
60 8 24 16 2 2 10 10 10 13 10 14 29 22 21 35
37 43 61 56 61 48 45 119 216 240 255 255 255 255 255 255
255 255 255 255 255 255 255 255 255 255 255 255 255 255 255 255
255 255 255 255 255 255 255 255 255 255 255 255 255 255 255 255
255 255 255 255 255 255 255 255 255 255 255 255 255 255 255 255
255 255 255 255 255 255 255 255 255 255 255 255 255 255 255 255
255 255 255 255 255 255 255 255 255 255 255 255 255 255 255 255
255 255 255 255 255 255 255 255 255 255 255 255 255 255 255 255
255 255 255 255 255 255 255 255 255 255 255 255 255 255 255 255
255 255 255 255 255 255 255 255 255 255 255 255 255 255 255 255
255 255 255 255 255 255 255 255 255 255 255 255 255 255 255 255
255 255 255 255 255 255 255 255 255 255 255 255 255 255 255 255
255 255 255 255 255 255 255 255 255 255 255 255 255 255 255 255
255 255 255 255 255 255 255 255 255 255 255 255 255 255 255 255
255 255 255 255 255 255 255 255 255 255 255 255 255 255 255 255
246 243 214 132 59 40 26 18 18 18 10 15 32 40 35 48
43 40 47 47 43 53 48 48 53 73 154 235 251 255 255 255
255 255 255 255 255 255 255 255 255 255 255 255 255 255 255 255
255 255 255 255 255 255 255 255 255 255 255 255 255 255 255 255
255 255 255 255 255 255 255 255 255 255 255 255 255 255 255 255
255 255 255 255 255 255 255 255 255 255 255 255 255 255 255 255
255 255 255 255 255 255 255 255 255 255 255 255 255 255 255 255
255 255 255 255 255 255 255 255 255 255 255 255 255 255 255 255
255 255 255 255 255 255 255 255 255 255 255 255 255 255 255 255
255 255 255 255 255 255 255 255 255 255 255 255 255 255 255 255
255 255 255 255 255 255 255 255 255 255 255 255 255 255 255 255
255 255 255 255 255 255 255 255 255 255 255 255 255 255 255 255
255 255 255 255 255 255 255 255 255 255 255 255 255 255 255 255
255 255 255 255 255 255 255 255 255 255 255 255 255 255 255 255
255 255 255 255 255 255 255 255 255 255 255 255 255 255 255 255
255 255 255 255 255 255 214 130 56 45 42 45 47 43 43 45
43 43 46 45 43 40 39 35 29 45 37 73 135 211 251 255
255 255 255 255 255 255 255 255 255 255 255 255 255 255 255 255
255 255 255 255 255 255 255 255 255 255 255 255 255 255 255 255
255 255 255 255 255 255 255 255 255 255 255 255 255 255 255 255
255 255 255 255 255 255 255 255 255 255 255 255 255 255 255 255
255 255 255 255 255 255 255 255 255 255 255 255 255 255 255 255
255 255 255 255 255 255 255 255 255 255 255 255 255 255 255 255
255 255 255 255 255 255 255 255 255 255 255 255 255 255 255 255
255 255 255 255 255 255 255 255 255 255 255 255 255 255 255 255
255 255 255 255 255 255 255 255 255 255 255 255 255 255 255 255
255 255 255 255 255 255 255 255 255 255 255 255 255 255 255 255
255 255 255 255 255 255 255 255 255 255 255 255 255 255 255 255
255 255 255 255 255 255 255 255 255 255 255 255 255 255 255 255
255 255 255 255 255 255 255 255 255 255 255 255 255 255 255 255
255 255 255 255 255 255 255 251 255 255 190 94 61 45 37 37
35 35 35 35 35 30 30 29 29 37 35 21 45 53 118 203
251 255 251 255 255 255 255 255 255 255 255 255 255 255 255 255
255 255 255 255 255 255 255 255 255 255 255 255 255 255 255 255
255 255 255 255 255 255 255 255 255 255 255 255 255 255 255 255
255 255 255 255 255 255 255 255 255 255 255 255 255 255 255 255
255 255 255 255 255 255 255 255 255 255 255 255 255 255 255 255
255 255 255 255 255 255 255 255 255 255 255 255 255 255 255 255
255 255 255 255 255 255 255 255 255 255 255 255 255 255 255 255
255 255 255 255 255 255 255 255 255 255 255 255 255 255 255 255
255 255 255 255 255 255 255 255 255 255 255 255 255 255 255 255
255 255 255 255 255 255 255 255 255 255 255 255 255 255 255 255
255 255 255 255 255 255 255 255 255 255 255 255 255 255 255 255
255 255 255 255 255 255 255 255 255 255 255 255 255 255 255 255
255 255 255 255 255 255 255 255 255 255 255 255 255 255 255 255
255 255 255 255 255 255 255 255 255 255 251 251 255 230 162 78
40 24 29 26 18 18 25 27 22 26 30 35 41 43 35 48
97 179 243 255 255 255 251 255 255 255 255 255 255 255 255 255
255 255 255 255 255 255 255 255 255 255 255 255 255 255 255 255
255 255 255 255 255 255 255 255 255 255 255 255 255 255 255 255
255 255 255 255 255 255 255 255 255 255 255 255 255 255 255 255
255 255 255 255 255 255 255 255 255 255 255 255 255 255 255 255
255 255 255 255 255 255 255 255 255 255 255 255 255 255 255 255
255 255 255 255 255 255 255 255 255 255 255 255 255 255 255 255
255 255 255 255 255 255 255 255 255 255 255 255 255 255 255 255
255 255 255 255 255 255 255 255 255 255 255 255 255 255 255 255
255 255 255 255 255 255 255 255 255 255 255 255 255 255 255 255
255 255 255 255 255 255 255 255 255 255 255 255 255 255 255 255
255 255 255 255 255 255 255 255 255 255 255 255 255 255 255 255
255 255 255 255 255 255 255 255 255 255 255 255 255 255 255 255
255 255 255 255 255 255 255 255 255 255 255 251 255 255 255 251
246 227 154 86 32 21 21 21 17 14 25 25 25 30 29 25
29 37 78 162 230 251 251 255 255 246 255 255 255 255 255 255
255 255 255 255 255 255 255 255 255 255 255 255 255 255 255 255
255 255 255 255 255 255 255 255 255 255 255 255 255 255 255 255
255 255 255 255 255 255 255 255 255 255 255 255 255 255 255 255
255 255 255 255 255 255 255 255 255 255 255 255 255 255 255 255
255 255 255 255 255 255 255 255 255 255 255 255 255 255 255 255
255 255 255 255 255 255 255 255 255 255 255 255 255 255 255 255
255 255 255 255 255 255 255 255 255 255 255 255 255 255 255 255
255 255 255 255 255 255 255 255 255 255 255 255 255 255 255 255
255 255 255 255 255 255 255 255 255 255 255 255 255 255 255 255
255 255 255 255 255 255 255 255 255 255 255 255 255 255 255 255
255 255 255 255 255 255 255 255 255 255 255 255 255 255 255 255
255 255 255 255 255 255 255 255 255 255 255 255 255 255 255 255
255 255 255 255 255 255 255 255 255 255 255 255 255 255 251 255
255 255 251 251 251 243 171 85 32 9 11 17 14 14 22 22
22 21 11 27 64 143 219 251 251 251 255 255 251 255 255 255
255 255 255 255 255 255 255 255 255 255 255 255 255 255 255 255
255 255 255 255 255 255 255 255 255 255 255 255 255 255 255 255
255 255 255 255 255 255 255 255 255 255 255 255 255 255 255 255
255 255 255 255 255 255 255 255 255 255 255 255 255 255 255 255
255 255 255 255 255 255 255 255 255 255 255 255 255 255 255 255
255 255 255 255 255 255 255 255 255 255 255 255 255 255 255 255
255 255 255 255 255 255 255 255 255 255 255 255 255 255 255 255
255 255 255 255 255 255 255 255 255 255 255 255 255 255 255 255
255 255 255 255 255 255 255 255 255 255 255 255 255 255 255 255
255 255 255 255 255 255 255 255 255 255 255 255 255 255 255 255
255 255 255 255 255 255 255 255 255 255 255 255 255 255 255 255
255 255 255 255 255 255 255 255 255 255 255 255 255 255 255 255
255 255 255 255 255 255 255 255 255 255 255 255 255 255 255 255
255 255 255 255 251 255 255 246 251 227 182 114 49 19 14 9
6 20 22 22 25 25 57 122 208 251 251 251 255 251 255 255
255 255 255 255 255 255 255 255 255 255 255 255 255 255 255 255
255 255 255 255 255 255 255 255 255 255 255 255 255 255 255 255
255 255 255 255 255 255 255 255 255 255 255 255 255 255 255 255
255 255 255 255 255 255 255 255 255 255 255 255 255 255 255 255
255 255 255 255 255 255 255 255 255 255 255 255 255 255 255 255
255 255 255 255 255 255 255 255 255 255 255 255 255 255 255 255
255 255 255 255 255 255 255 255 255 255 255 255 255 255 255 255
255 255 255 255 255 255 255 255 255 255 255 255 255 255 255 255
255 255 255 255 255 255 255 255 255 255 255 255 255 255 255 255
255 255 255 255 255 255 255 255 255 255 255 255 255 255 255 255
255 255 255 255 255 255 255 255 255 255 255 255 255 255 255 255
255 255 255 255 255 255 255 255 255 255 255 255 255 255 255 255
255 255 255 255 255 255 255 255 255 255 255 255 255 255 255 255
255 255 255 255 255 255 255 255 255 255 255 255 251 231 195 141
85 41 20 6 25 22 17 25 41 109 200 249 251 255 255 255
255 255 255 255 255 255 255 255 255 255 255 255 255 255 255 255
255 255 255 255 255 255 255 255 255 255 255 255 255 255 255 255
255 255 255 255 255 255 255 255 255 255 255 255 255 255 255 255
255 255 255 255 255 255 255 255 255 255 255 255 255 255 255 255
255 255 255 255 255 255 255 255 255 255 255 255 255 255 255 255
255 255 255 255 255 255 255 255 255 255 255 255 255 255 255 255
255 255 255 255 255 255 255 255 255 255 255 255 255 255 255 255
255 255 255 255 255 255 255 255 255 255 255 255 255 255 255 255
255 255 255 255 255 255 255 255 255 255 255 255 255 255 255 255
255 255 255 255 255 255 255 255 255 255 255 255 255 255 255 255
255 255 255 255 255 255 255 255 255 255 255 255 255 255 255 255
255 255 255 255 255 255 255 255 255 255 255 255 255 255 255 255
255 255 255 255 255 255 255 255 255 255 255 255 255 255 255 255
255 255 255 255 255 255 255 255 255 255 255 255 255 255 255 255
255 251 223 174 114 73 28 25 28 33 37 81 171 251 249 251
255 255 255 255 255 255 255 255 255 255 255 255 255 255 255 255
255 255 255 255 255 255 255 255 255 255 255 255 255 255 255 255
255 255 255 255 255 255 255 255 255 255 255 255 255 255 255 255
255 255 255 255 255 255 255 255 255 255 255 255 255 255 255 255
255 255 255 255 255 255 255 255 255 255 255 255 255 255 255 255
255 255 255 255 255 255 255 255 255 255 255 255 255 255 255 255
255 255 255 255 255 255 255 255 255 255 255 255 255 255 255 255
255 255 255 255 255 255 255 255 255 255 255 255 255 255 255 255
255 255 255 255 255 255 255 255 255 255 255 255 255 255 255 255
255 255 255 255 255 255 255 255 255 255 255 255 255 255 255 255
255 255 255 255 255 255 255 255 255 255 255 255 255 255 255 255
255 255 255 255 255 255 255 255 255 255 255 255 255 255 255 255
255 255 255 255 255 255 255 255 255 255 255 255 255 255 255 255
255 255 255 255 255 255 255 255 255 255 255 255 255 255 255 255
255 255 251 251 251 255 247 223 203 114 57 52 90 127 187 240
247 251 255 255 255 255 255 255 255 255 255 255 255 255 255 255
255 255 255 255 255 255 255 255 255 255 255 255 255 255 255 255
255 255 255 255 255 255 255 255 255 255 255 255 255 255 255 255
255 255 255 255 255 255 255 255 255 255 255 255 255 255 255 255
255 255 255 255 255 255 255 255 255 255 255 255 255 255 255 255
255 255 255 255 255 255 255 255 255 255 255 255 255 255 255 255
255 255 255 255 255 255 255 255 255 255 255 255 255 255 255 255
255 255 255 255 255 255 255 255 255 255 255 255 255 255 255 255
255 255 255 255 255 255 255 255 255 255 255 255 255 255 255 255
255 255 255 255 255 255 255 255 255 255 255 255 255 255 255 255
255 255 255 255 255 255 255 255 255 255 255 255 255 255 255 255
255 255 255 255 255 255 255 255 255 255 255 255 255 255 255 255
255 255 255 255 255 255 255 255 255 255 255 255 255 255 255 255
255 255 255 255 255 255 255 255 255 255 255 255 255 255 255 255
255 255 255 255 255 255 255 255 255 255 255 251 239 190 190 220
232 255 255 247 255 255 255 255 255 255 255 255 255 255 255 255
255 255 255 255 255 255 255 255 255 255 255 255 255 255 255 255
255 255 255 255 255 255 255 255 255 255 255 255 255 255 255 255
255 255 255 255 255 255 255 255 255 255 255 255 255 255 255 255
255 255 255 255 255 255 255 255 255 255 255 255 255 255 255 255
255 255 255 255 255 255 255 255 255 255 255 255 255 255 255 255
255 255 255 255 255 255 255 255 255 255 255 255 255 255 255 255
255 255 255 255 255 255 255 255 255 255 255 255 255 255 255 255
255 255 255 255 255 255 255 255 255 255 255 255 255 255 255 255
255 255 255 255 255 255 255 255 255 255 255 255 255 255 255 255
255 255 255 255 255 255 255 255 255 255 255 255 255 255 255 255
255 255 255 255 255 255 255 255 255 255 255 255 255 255 255 255
255 255 255 255 255 255 255 255 255 255 255 255 255 255 255 255
255 255 255 255 255 255 255 255 255 255 255 255 255 255 255 255
255 255 255 255 255 255 255 255 255 255 255 255 251 251 251 255
249 251 255 247 243 247 251 255 255 255 255 255 255 255 255 255
255 255 255 255 255 255 255 255 255 255 255 255 255 255 255 255
255 255 255 255 255 255 255 255 255 255 255 255 255 255 255 255
255 255 255 255 255 255 255 255 255 255 255 255 255 255 255 255
255 255 255 255 255 255 255 255 255 255 255 255 255 255 255 255
255 255 255 255 255 255 255 255 255 255 255 255 255 255 255 255
255 255 255 255 255 255 255 255 255 255 255 255 255 255 255 255
255 255 255 255 255 255 255 255 255 255 255 255 255 255 255 255
255 255 255 255 255 255 255 255 255 255 255 255 255 255 255 255
255 255 255 255 255 255 255 255 255 255 255 255 255 255 255 255
255 255 255 255 255 255 255 255 255 255 255 255 255 255 255 255
255 255 255 255 255 255 255 255 255 255 255 255 255 255 255 255
255 255 255 255 255 255 255 255 255 255 255 255 255 255 255 255
255 255 255 255 255 255 255 255 255 255 255 255 255 255 255 255
255 255 255 255 255 255 255 255 255 255 255 255 251 251 255 255
255 255 251 251 247 251 255 255 255 255 255 255 255 255 255 255
255 255 255 255 255 255 255 255 255 255 255 255 255 255 255 255
255 255 255 255 255 255 255 255 255 255 255 255 255 255 255 255
255 255 255 255 255 255 255 255 255 255 255 255 255 255 255 255
255 255 255 255 255 255 255 255 255 255 255 255 255 255 255 255
255 255 255 255 255 255 255 255 255 255 255 255 255 255 255 255
255 255 255 255 255 255 255 255 255 255 255 255 255 255 255 255
255 255 255 255 255 255 255 255 255 255 255 255 255 255 255 255
255 255 255 255 255 255 255 255 255 255 255 255 255 255 255 255
255 255 255 255 255 255 255 255 255 255 255 255 255 255 255 255
255 255 255 255 255 255 255 255 255 255 255 255 255 255 255 255
255 255 255 255 255 255 255 255 255 255 255 255 255 255 255 255
255 255 255 255 255 255 255 255 255 255 255 255 255 255 255 255
255 255 255 255 255 255 255 255 255 255 255 255 255 255 255 255
255 255 255 255 255 255 255 255 255 255 255 255 255 255 255 255
255 255 255 251 247 251 255 255 255 255 251 249 255 255 255 255
255 255 255 255 255 255 255 255 255 255 255 255 255 255 255 255
255 255 255 255 255 255 255 255 255 255 255 255 255 255 255 255
255 255 255 255 255 255 255 255 255 255 255 255 255 255 255 255
255 255 255 255 255 255 255 255 255 255 255 255 255 255 255 255
255 255 255 255 255 255 255 255 255 255 255 255 255 255 255 255
255 255 255 255 255 255 255 255 255 255 255 255 255 255 255 255
255 255 255 255 255 255 255 255 255 255 255 255 255 255 255 255
255 255 255 255 255 255 255 255 255 255 255 255 255 255 255 255
255 255 255 255 255 255 255 255 255 255 255 255 255 255 255 255
255 255 255 255 255 255 255 255 255 255 255 255 255 255 255 255
255 255 255 255 255 255 255 255 255 255 255 255 255 255 255 255
255 255 255 255 255 255 255 255 255 255 255 255 255 255 255 255
255 255 255 255 255 255 255 255 255 255 255 255 255 255 255 255
255 255 255 255 255 255 255 255 255 255 255 255 255 255 255 255
255 255 255 255 251 251 255 255 255 249 251 255 251 255 255 255
255 255 255 255 255 255 255 255 255 255 255 255 255 255 255 255
255 255 255 255 255 255 255 255 255 255 255 255 255 255 255 255
255 255 255 255 255 255 255 255 255 255 255 255 255 255 255 255
255 255 255 255 255 255 255 255 255 255 255 255 255 255 255 255
255 255 255 255 255 255 255 255 255 255 255 255 255 255 255 255
255 255 255 255 255 255 255 255 255 255 255 255 255 255 255 255
255 255 255 255 255 255 255 255 255 255 255 255 255 255 255 255
255 255 255 255 255 255 255 255 255 255 255 255 255 255 255 255
255 255 255 255 255 255 255 255 255 255 255 255 255 255 255 255
255 255 255 255 255 255 255 255 255 255 255 255 255 255 255 255
255 255 255 255 255 255 255 255 255 255 255 255 255 255 255 255
255 255 255 255 255 255 255 255 255 255 255 255 255 255 255 255
255 255 255 255 255 255 255 255 255 255 255 255 255 255 255 255
255 255 255 255 255 255 255 255 255 255 255 255 255 255 255 255
255 255 255 255 255 255 255 255 255 255 255 255 255 255 255 255
255 255 255 255 255 255 255 255 255 255 255 255 255 255 255 255
255 255 255 255 255 255 255 255 255 255 255 255 255 255 255 255
255 255 255 255 255 255 255 255 255 255 255 255 255 255 255 255
255 255 255 255 255 255 255 255 255 255 255 255 255 255 255 255
255 255 255 255 255 255 255 255 255 255 255 255 255 255 255 255
255 255 255 255 255 255 255 255 255 255 255 255 255 255 255 255
255 255 255 255 255 255 255 255 255 255 255 255 255 255 255 255
255 255 255 255
