P3
# ASCII RGB teapot
256 256
255
19 92 192 19 92 192 19 92 192 19 92 192
19 92 192 19 92 192 19 92 192 19 92 192
19 92 192 19 92 192 19 92 192 19 92 192
19 92 192 19 92 192 19 92 192 19 92 192
19 92 192 19 92 192 19 92 192 19 92 192
19 92 192 19 92 192 19 92 192 19 92 192
19 92 192 19 92 192 19 92 192 19 92 192
19 92 192 19 92 192 19 92 192 19 92 192
19 92 192 19 92 192 19 92 192 19 92 192
19 92 192 19 92 192 19 92 192 19 92 192
19 92 192 19 92 192 19 92 192 19 92 192
19 92 192 19 92 192 19 92 192 19 92 192
19 92 192 19 92 192 19 92 192 19 92 192
19 92 192 19 92 192 19 92 192 19 92 192
19 92 192 19 92 192 19 92 192 19 92 192
19 92 192 19 92 192 19 92 192 19 92 192
19 92 192 19 92 192 19 92 192 19 92 192
19 92 192 19 92 192 19 92 192 19 92 192
19 92 192 19 92 192 19 92 192 19 92 192
19 92 192 19 92 192 19 92 192 19 92 192
19 92 192 19 92 192 19 92 192 19 92 192
19 92 192 19 92 192 19 92 192 19 92 192
19 92 192 19 92 192 19 92 192 19 92 192
19 92 192 19 92 192 19 92 192 19 92 192
19 92 192 19 92 192 19 92 192 19 92 192
19 92 192 19 92 192 19 92 192 19 92 192
19 92 192 19 92 192 19 92 192 19 92 192
19 92 192 19 92 192 19 92 192 19 92 192
19 92 192 19 92 192 19 92 192 19 92 192
19 92 192 19 92 192 19 92 192 19 92 192
19 92 192 19 92 192 19 92 192 19 92 192
19 92 192 19 92 192 19 92 192 19 92 192
19 92 192 19 92 192 19 92 192 19 92 192
19 92 192 19 92 192 19 92 192 19 92 192
19 92 192 19 92 192 19 92 192 19 92 192
19 92 192 19 92 192 19 92 192 19 92 192
19 92 192 19 92 192 19 92 192 19 92 192
19 92 192 19 92 192 19 92 192 19 92 192
19 92 192 19 92 192 19 92 192 19 92 192
19 92 192 19 92 192 19 92 192 19 92 192
19 92 192 19 92 192 19 92 192 19 92 192
19 92 192 19 92 192 19 92 192 19 92 192
19 92 192 19 92 192 19 92 192 19 92 192
19 92 192 19 92 192 19 92 192 19 92 192
19 92 192 19 92 192 19 92 192 19 92 192
19 92 192 19 92 192 19 92 192 19 92 192
19 92 192 19 92 192 19 92 192 19 92 192
19 92 192 19 92 192 19 92 192 19 92 192
19 92 192 19 92 192 19 92 192 19 92 192
19 92 192 19 92 192 19 92 192 19 92 192
19 92 192 19 92 192 19 92 192 19 92 192
19 92 192 19 92 192 19 92 192 19 92 192
19 92 192 19 92 192 19 92 192 19 92 192
19 92 192 19 92 192 19 92 192 19 92 192
19 92 192 19 92 192 19 92 192 19 92 192
19 92 192 19 92 192 19 92 192 19 92 192
19 92 192 19 92 192 19 92 192 19 92 192
19 92 192 19 92 192 19 92 192 19 92 192
19 92 192 19 92 192 19 92 192 19 92 192
19 92 192 19 92 192 19 92 192 19 92 192
19 92 192 19 92 192 19 92 192 19 92 192
19 92 192 19 92 192 19 92 192 19 92 192
19 92 192 19 92 192 19 92 192 19 92 192
19 92 192 19 92 192 19 92 192 19 92 192
19 92 192 19 92 192 19 92 192 19 92 192
19 92 192 19 92 192 19 92 192 19 92 192
19 92 192 19 92 192 19 92 192 19 92 192
19 92 192 19 92 192 19 92 192 19 92 192
19 92 192 19 92 192 19 92 192 19 92 192
19 92 192 19 92 192 19 92 192 19 92 192
19 92 192 19 92 192 19 92 192 19 92 192
19 92 192 19 92 192 19 92 192 19 92 192
19 92 192 19 92 192 19 92 192 19 92 192
19 92 192 19 92 192 19 92 192 19 92 192
19 92 192 19 92 192 19 92 192 19 92 192
19 92 192 19 92 192 19 92 192 19 92 192
19 92 192 19 92 192 19 92 192 19 92 192
19 92 192 19 92 192 19 92 192 19 92 192
19 92 192 19 92 192 19 92 192 19 92 192
19 92 192 19 92 192 19 92 192 19 92 192
19 92 192 19 92 192 19 92 192 19 92 192
19 92 192 19 92 192 19 92 192 19 92 192
19 92 192 19 92 192 19 92 192 19 92 192
19 92 192 19 92 192 19 92 192 19 92 192
19 92 192 19 92 192 19 92 192 19 92 192
19 92 192 19 92 192 19 92 192 19 92 192
19 92 192 19 92 192 19 92 192 19 92 192
19 92 192 19 92 192 19 92 192 19 92 192
19 92 192 19 92 192 19 92 192 19 92 192
19 92 192 19 92 192 19 92 192 19 92 192
19 92 192 19 92 192 19 92 192 19 92 192
19 92 192 19 92 192 19 92 192 19 92 192
19 92 192 19 92 192 19 92 192 19 92 192
19 92 192 19 92 192 19 92 192 19 92 192
19 92 192 19 92 192 19 92 192 19 92 192
19 92 192 19 92 192 19 92 192 19 92 192
19 92 192 19 92 192 19 92 192 19 92 192
19 92 192 19 92 192 19 92 192 19 92 192
19 92 192 19 92 192 19 92 192 19 92 192
19 92 192 19 92 192 19 92 192 19 92 192
19 92 192 19 92 192 19 92 192 19 92 192
19 92 192 19 92 192 19 92 192 19 92 192
19 92 192 19 92 192 19 92 192 19 92 192
19 92 192 19 92 192 19 92 192 19 92 192
19 92 192 19 92 192 19 92 192 19 92 192
19 92 192 19 92 192 19 92 192 19 92 192
19 92 192 19 92 192 19 92 192 19 92 192
19 92 192 19 92 192 19 92 192 19 92 192
19 92 192 19 92 192 19 92 192 19 92 192
19 92 192 19 92 192 19 92 192 19 92 192
19 92 192 19 92 192 19 92 192 19 92 192
19 92 192 19 92 192 19 92 192 19 92 192
19 92 192 19 92 192 19 92 192 19 92 192
19 92 192 19 92 192 19 92 192 19 92 192
19 92 192 19 92 192 19 92 192 19 92 192
19 92 192 19 92 192 19 92 192 19 92 192
19 92 192 19 92 192 19 92 192 19 92 192
19 92 192 19 92 192 19 92 192 19 92 192
19 92 192 19 92 192 19 92 192 19 92 192
19 92 192 19 92 192 19 92 192 19 92 192
19 92 192 19 92 192 19 92 192 19 92 192
19 92 192 19 92 192 19 92 192 19 92 192
19 92 192 19 92 192 19 92 192 19 92 192
19 92 192 19 92 192 19 92 192 19 92 192
19 92 192 19 92 192 19 92 192 19 92 192
19 92 192 19 92 192 19 92 192 19 92 192
19 92 192 19 92 192 19 92 192 19 92 192
19 92 192 19 92 192 19 92 192 19 92 192
19 92 192 19 92 192 19 92 192 19 92 192
19 92 192 19 92 192 19 92 192 19 92 192
19 92 192 19 92 192 19 92 192 19 92 192
19 92 192 19 92 192 19 92 192 19 92 192
19 92 192 19 92 192 19 92 192 19 92 192
19 92 192 19 92 192 19 92 192 19 92 192
19 92 192 19 92 192 19 92 192 19 92 192
19 92 192 19 92 192 19 92 192 19 92 192
19 92 192 19 92 192 19 92 192 19 92 192
19 92 192 19 92 192 19 92 192 19 92 192
19 92 192 19 92 192 19 92 192 19 92 192
19 92 192 19 92 192 19 92 192 19 92 192
19 92 192 19 92 192 19 92 192 19 92 192
19 92 192 19 92 192 19 92 192 19 92 192
19 92 192 19 92 192 19 92 192 19 92 192
19 92 192 19 92 192 19 92 192 19 92 192
19 92 192 19 92 192 19 92 192 19 92 192
19 92 192 19 92 192 19 92 192 19 92 192
19 92 192 19 92 192 19 92 192 19 92 192
19 92 192 19 92 192 19 92 192 19 92 192
19 92 192 19 92 192 19 92 192 19 92 192
19 92 192 19 92 192 19 92 192 19 92 192
19 92 192 19 92 192 19 92 192 19 92 192
19 92 192 19 92 192 19 92 192 19 92 192
19 92 192 19 92 192 19 92 192 19 92 192
19 92 192 19 92 192 19 92 192 19 92 192
19 92 192 19 92 192 19 92 192 19 92 192
19 92 192 19 92 192 19 92 192 19 92 192
19 92 192 19 92 192 19 92 192 19 92 192
19 92 192 19 92 192 19 92 192 19 92 192
19 92 192 19 92 192 19 92 192 19 92 192
19 92 192 19 92 192 19 92 192 19 92 192
19 92 192 19 92 192 19 92 192 19 92 192
19 92 192 19 92 192 19 92 192 19 92 192
19 92 192 19 92 192 19 92 192 19 92 192
19 92 192 19 92 192 19 92 192 19 92 192
19 92 192 19 92 192 19 92 192 19 92 192
19 92 192 19 92 192 19 92 192 19 92 192
19 92 192 19 92 192 19 92 192 19 92 192
19 92 192 19 92 192 19 92 192 19 92 192
19 92 192 19 92 192 19 92 192 19 92 192
19 92 192 19 92 192 19 92 192 19 92 192
19 92 192 19 92 192 19 92 192 19 92 192
19 92 192 19 92 192 19 92 192 19 92 192
19 92 192 19 92 192 19 92 192 19 92 192
19 92 192 19 92 192 19 92 192 19 92 192
19 92 192 19 92 192 19 92 192 19 92 192
19 92 192 19 92 192 19 92 192 19 92 192
19 92 192 19 92 192 19 92 192 19 92 192
19 92 192 19 92 192 19 92 192 19 92 192
19 92 192 19 92 192 19 92 192 19 92 192
19 92 192 19 92 192 19 92 192 19 92 192
19 92 192 19 92 192 19 92 192 19 92 192
19 92 192 19 92 192 19 92 192 19 92 192
19 92 192 19 92 192 19 92 192 19 92 192
19 92 192 19 92 192 19 92 192 19 92 192
19 92 192 19 92 192 19 92 192 19 92 192
19 92 192 19 92 192 19 92 192 19 92 192
19 92 192 19 92 192 19 92 192 19 92 192
19 92 192 19 92 192 19 92 192 19 92 192
19 92 192 19 92 192 19 92 192 19 92 192
19 92 192 19 92 192 19 92 192 19 92 192
19 92 192 19 92 192 19 92 192 19 92 192
19 92 192 19 92 192 19 92 192 19 92 192
19 92 192 19 92 192 19 92 192 19 92 192
19 92 192 19 92 192 19 92 192 19 92 192
19 92 192 19 92 192 19 92 192 19 92 192
19 92 192 19 92 192 19 92 192 19 92 192
19 92 192 19 92 192 19 92 192 19 92 192
19 92 192 19 92 192 19 92 192 19 92 192
19 92 192 19 92 192 19 92 192 19 92 192
19 92 192 19 92 192 19 92 192 19 92 192
19 92 192 19 92 192 19 92 192 19 92 192
19 92 192 19 92 192 19 92 192 19 92 192
19 92 192 19 92 192 19 92 192 19 92 192
19 92 192 19 92 192 19 92 192 19 92 192
19 92 192 19 92 192 19 92 192 19 92 192
19 92 192 19 92 192 19 92 192 19 92 192
19 92 192 19 92 192 19 92 192 19 92 192
19 92 192 19 92 192 19 92 192 19 92 192
19 92 192 19 92 192 19 92 192 19 92 192
19 92 192 19 92 192 19 92 192 19 92 192
19 92 192 19 92 192 19 92 192 19 92 192
19 92 192 19 92 192 19 92 192 19 92 192
19 92 192 19 92 192 19 92 192 19 92 192
19 92 192 19 92 192 19 92 192 19 92 192
19 92 192 19 92 192 19 92 192 19 92 192
19 92 192 19 92 192 19 92 192 19 92 192
19 92 192 19 92 192 19 92 192 19 92 192
19 92 192 19 92 192 19 92 192 19 92 192
19 92 192 19 92 192 19 92 192 19 92 192
19 92 192 19 92 192 19 92 192 19 92 192
19 92 192 19 92 192 19 92 192 19 92 192
19 92 192 19 92 192 19 92 192 19 92 192
19 92 192 19 92 192 19 92 192 19 92 192
19 92 192 19 92 192 19 92 192 19 92 192
19 92 192 19 92 192 19 92 192 19 92 192
19 92 192 19 92 192 19 92 192 19 92 192
19 92 192 19 92 192 19 92 192 19 92 192
19 92 192 19 92 192 19 92 192 19 92 192
19 92 192 19 92 192 19 92 192 19 92 192
19 92 192 19 92 192 19 92 192 19 92 192
19 92 192 19 92 192 19 92 192 19 92 192
19 92 192 19 92 192 19 92 192 19 92 192
19 92 192 19 92 192 19 92 192 19 92 192
19 92 192 19 92 192 19 92 192 19 92 192
19 92 192 19 92 192 19 92 192 19 92 192
19 92 192 19 92 192 19 92 192 19 92 192
19 92 192 19 92 192 19 92 192 19 92 192
19 92 192 19 92 192 19 92 192 19 92 192
19 92 192 19 92 192 19 92 192 19 92 192
19 92 192 19 92 192 19 92 192 19 92 192
19 92 192 19 92 192 19 92 192 19 92 192
19 92 192 19 92 192 19 92 192 19 92 192
19 92 192 19 92 192 19 92 192 19 92 192
19 92 192 19 92 192 19 92 192 19 92 192
19 92 192 19 92 192 19 92 192 19 92 192
19 92 192 19 92 192 19 92 192 19 92 192
19 92 192 19 92 192 19 92 192 19 92 192
19 92 192 19 92 192 19 92 192 19 92 192
19 92 192 19 92 192 19 92 192 19 92 192
19 92 192 19 92 192 19 92 192 19 92 192
19 92 192 19 92 192 19 92 192 19 92 192
19 92 192 19 92 192 19 92 192 19 92 192
19 92 192 19 92 192 19 92 192 19 92 192
19 92 192 19 92 192 19 92 192 19 92 192
19 92 192 19 92 192 19 92 192 19 92 192
19 92 192 19 92 192 19 92 192 19 92 192
19 92 192 19 92 192 19 92 192 19 92 192
19 92 192 19 92 192 19 92 192 19 92 192
19 92 192 19 92 192 19 92 192 19 92 192
19 92 192 19 92 192 19 92 192 19 92 192
19 92 192 19 92 192 19 92 192 19 92 192
19 92 192 19 92 192 19 92 192 19 92 192
19 92 192 19 92 192 19 92 192 19 92 192
19 92 192 19 92 192 19 92 192 19 92 192
19 92 192 19 92 192 19 92 192 19 92 192
19 92 192 19 92 192 19 92 192 19 92 192
19 92 192 19 92 192 19 92 192 19 92 192
19 92 192 19 92 192 19 92 192 19 92 192
19 92 192 19 92 192 19 92 192 19 92 192
19 92 192 19 92 192 19 92 192 19 92 192
19 92 192 19 92 192 19 92 192 19 92 192
19 92 192 19 92 192 19 92 192 19 92 192
19 92 192 19 92 192 19 92 192 19 92 192
19 92 192 19 92 192 19 92 192 19 92 192
19 92 192 19 92 192 19 92 192 19 92 192
19 92 192 19 92 192 19 92 192 19 92 192
19 92 192 19 92 192 19 92 192 19 92 192
19 92 192 19 92 192 19 92 192 19 92 192
19 92 192 19 92 192 19 92 192 19 92 192
19 92 192 19 92 192 19 92 192 19 92 192
19 92 192 19 92 192 19 92 192 19 92 192
19 92 192 19 92 192 19 92 192 19 92 192
19 92 192 19 92 192 19 92 192 19 92 192
19 92 192 19 92 192 19 92 192 19 92 192
19 92 192 19 92 192 19 92 192 19 92 192
19 92 192 19 92 192 19 92 192 19 92 192
19 92 192 19 92 192 19 92 192 19 92 192
19 92 192 19 92 192 19 92 192 19 92 192
19 92 192 19 92 192 19 92 192 19 92 192
19 92 192 19 92 192 19 92 192 19 92 192
19 92 192 19 92 192 19 92 192 19 92 192
19 92 192 19 92 192 19 92 192 19 92 192
19 92 192 19 92 192 19 92 192 19 92 192
19 92 192 19 92 192 19 92 192 19 92 192
19 92 192 19 92 192 19 92 192 19 92 192
19 92 192 19 92 192 19 92 192 19 92 192
19 92 192 19 92 192 19 92 192 19 92 192
19 92 192 19 92 192 19 92 192 19 92 192
19 92 192 19 92 192 19 92 192 19 92 192
19 92 192 19 92 192 19 92 192 19 92 192
19 92 192 19 92 192 19 92 192 19 92 192
19 92 192 19 92 192 19 92 192 19 92 192
19 92 192 19 92 192 19 92 192 19 92 192
19 92 192 19 92 192 19 92 192 19 92 192
19 92 192 19 92 192 19 92 192 19 92 192
19 92 192 19 92 192 19 92 192 19 92 192
19 92 192 19 92 192 19 92 192 19 92 192
19 92 192 19 92 192 19 92 192 19 92 192
19 92 192 19 92 192 19 92 192 19 92 192
19 92 192 19 92 192 19 92 192 19 92 192
19 92 192 19 92 192 19 92 192 19 92 192
19 92 192 19 92 192 19 92 192 19 92 192
19 92 192 19 92 192 19 92 192 19 92 192
19 92 192 19 92 192 19 92 192 19 92 192
19 92 192 19 92 192 19 92 192 19 92 192
19 92 192 19 92 192 19 92 192 19 92 192
19 92 192 19 92 192 19 92 192 19 92 192
19 92 192 19 92 192 19 92 192 19 92 192
19 92 192 19 92 192 19 92 192 19 92 192
19 92 192 19 92 192 19 92 192 19 92 192
19 92 192 19 92 192 19 92 192 19 92 192
19 92 192 19 92 192 19 92 192 19 92 192
19 92 192 19 92 192 19 92 192 19 92 192
19 92 192 19 92 192 19 92 192 19 92 192
19 92 192 19 92 192 19 92 192 19 92 192
19 92 192 19 92 192 19 92 192 19 92 192
19 92 192 19 92 192 19 92 192 19 92 192
19 92 192 19 92 192 19 92 192 19 92 192
19 92 192 19 92 192 19 92 192 19 92 192
19 92 192 19 92 192 19 92 192 19 92 192
19 92 192 19 92 192 19 92 192 19 92 192
19 92 192 19 92 192 19 92 192 19 92 192
19 92 192 19 92 192 19 92 192 19 92 192
19 92 192 19 92 192 19 92 192 19 92 192
19 92 192 19 92 192 19 92 192 19 92 192
19 92 192 19 92 192 19 92 192 19 92 192
19 92 192 19 92 192 19 92 192 19 92 192
19 92 192 19 92 192 19 92 192 19 92 192
19 92 192 19 92 192 19 92 192 19 92 192
19 92 192 19 92 192 19 92 192 19 92 192
19 92 192 19 92 192 19 92 192 19 92 192
19 92 192 19 92 192 19 92 192 19 92 192
19 92 192 19 92 192 19 92 192 19 92 192
19 92 192 19 92 192 19 92 192 19 92 192
19 92 192 19 92 192 19 92 192 19 92 192
19 92 192 19 92 192 19 92 192 19 92 192
19 92 192 19 92 192 19 92 192 19 92 192
19 92 192 19 92 192 19 92 192 19 92 192
19 92 192 19 92 192 19 92 192 19 92 192
19 92 192 19 92 192 19 92 192 19 92 192
19 92 192 19 92 192 19 92 192 19 92 192
19 92 192 19 92 192 19 92 192 19 92 192
19 92 192 19 92 192 19 92 192 19 92 192
19 92 192 19 92 192 19 92 192 19 92 192
19 92 192 19 92 192 19 92 192 19 92 192
19 92 192 19 92 192 19 92 192 19 92 192
19 92 192 19 92 192 19 92 192 19 92 192
19 92 192 19 92 192 19 92 192 19 92 192
19 92 192 19 92 192 19 92 192 19 92 192
19 92 192 19 92 192 19 92 192 19 92 192
19 92 192 19 92 192 19 92 192 19 92 192
19 92 192 19 92 192 19 92 192 19 92 192
19 92 192 19 92 192 19 92 192 19 92 192
19 92 192 19 92 192 19 92 192 19 92 192
19 92 192 19 92 192 19 92 192 19 92 192
19 92 192 19 92 192 19 92 192 19 92 192
19 92 192 19 92 192 19 92 192 19 92 192
19 92 192 19 92 192 19 92 192 19 92 192
19 92 192 19 92 192 19 92 192 19 92 192
19 92 192 19 92 192 19 92 192 19 92 192
19 92 192 19 92 192 19 92 192 19 92 192
19 92 192 19 92 192 19 92 192 19 92 192
19 92 192 19 92 192 19 92 192 19 92 192
19 92 192 19 92 192 19 92 192 19 92 192
19 92 192 19 92 192 19 92 192 19 92 192
19 92 192 19 92 192 19 92 192 19 92 192
19 92 192 19 92 192 19 92 192 19 92 192
19 92 192 19 92 192 19 92 192 19 92 192
19 92 192 19 92 192 19 92 192 19 92 192
19 92 192 19 92 192 19 92 192 19 92 192
19 92 192 19 92 192 19 92 192 19 92 192
19 92 192 19 92 192 19 92 192 19 92 192
19 92 192 19 92 192 19 92 192 19 92 192
19 92 192 19 92 192 19 92 192 19 92 192
19 92 192 19 92 192 19 92 192 19 92 192
19 92 192 19 92 192 19 92 192 19 92 192
19 92 192 19 92 192 19 92 192 19 92 192
19 92 192 19 92 192 19 92 192 19 92 192
19 92 192 19 92 192 19 92 192 19 92 192
19 92 192 19 92 192 19 92 192 19 92 192
19 92 192 19 92 192 19 92 192 19 92 192
19 92 192 19 92 192 19 92 192 19 92 192
19 92 192 19 92 192 19 92 192 19 92 192
19 92 192 19 92 192 19 92 192 19 92 192
19 92 192 19 92 192 19 92 192 19 92 192
19 92 192 19 92 192 19 92 192 19 92 192
19 92 192 19 92 192 19 92 192 19 92 192
19 92 192 19 92 192 19 92 192 19 92 192
19 92 192 19 92 192 19 92 192 19 92 192
19 92 192 19 92 192 19 92 192 19 92 192
19 92 192 19 92 192 19 92 192 19 92 192
19 92 192 19 92 192 19 92 192 19 92 192
19 92 192 19 92 192 19 92 192 19 92 192
19 92 192 19 92 192 19 92 192 19 92 192
19 92 192 19 92 192 19 92 192 19 92 192
19 92 192 19 92 192 19 92 192 19 92 192
19 92 192 19 92 192 19 92 192 19 92 192
19 92 192 19 92 192 19 92 192 19 92 192
19 92 192 19 92 192 19 92 192 19 92 192
19 92 192 19 92 192 19 92 192 19 92 192
19 92 192 19 92 192 19 92 192 19 92 192
19 92 192 19 92 192 19 92 192 19 92 192
19 92 192 19 92 192 19 92 192 19 92 192
19 92 192 19 92 192 19 92 192 19 92 192
19 92 192 19 92 192 19 92 192 19 92 192
19 92 192 19 92 192 19 92 192 19 92 192
19 92 192 19 92 192 19 92 192 19 92 192
19 92 192 19 92 192 19 92 192 19 92 192
19 92 192 19 92 192 19 92 192 19 92 192
19 92 192 19 92 192 19 92 192 19 92 192
19 92 192 19 92 192 19 92 192 19 92 192
19 92 192 19 92 192 19 92 192 19 92 192
19 92 192 19 92 192 19 92 192 19 92 192
19 92 192 19 92 192 19 92 192 19 92 192
19 92 192 19 92 192 19 92 192 19 92 192
19 92 192 19 92 192 19 92 192 19 92 192
19 92 192 19 92 192 19 92 192 19 92 192
19 92 192 19 92 192 19 92 192 19 92 192
19 92 192 19 92 192 19 92 192 19 92 192
19 92 192 19 92 192 19 92 192 19 92 192
19 92 192 19 92 192 19 92 192 19 92 192
19 92 192 19 92 192 19 92 192 19 92 192
19 92 192 19 92 192 19 92 192 19 92 192
19 92 192 19 92 192 19 92 192 19 92 192
19 92 192 19 92 192 19 92 192 19 92 192
19 92 192 19 92 192 19 92 192 19 92 192
19 92 192 19 92 192 19 92 192 19 92 192
19 92 192 19 92 192 19 92 192 19 92 192
19 92 192 19 92 192 19 92 192 19 92 192
19 92 192 19 92 192 19 92 192 19 92 192
19 92 192 19 92 192 19 92 192 19 92 192
19 92 192 19 92 192 19 92 192 19 92 192
19 92 192 19 92 192 19 92 192 19 92 192
19 92 192 19 92 192 19 92 192 19 92 192
19 92 192 19 92 192 19 92 192 19 92 192
19 92 192 19 92 192 19 92 192 19 92 192
19 92 192 19 92 192 19 92 192 19 92 192
19 92 192 19 92 192 19 92 192 19 92 192
19 92 192 19 92 192 19 92 192 19 92 192
19 92 192 19 92 192 19 92 192 19 92 192
19 92 192 19 92 192 19 92 192 19 92 192
19 92 192 19 92 192 19 92 192 19 92 192
19 92 192 19 92 192 19 92 192 19 92 192
19 92 192 19 92 192 19 92 192 19 92 192
19 92 192 19 92 192 19 92 192 19 92 192
19 92 192 19 92 192 19 92 192 19 92 192
19 92 192 19 92 192 19 92 192 19 92 192
19 92 192 19 92 192 19 92 192 19 92 192
19 92 192 19 92 192 19 92 192 19 92 192
19 92 192 19 92 192 19 92 192 19 92 192
19 92 192 19 92 192 19 92 192 19 92 192
19 92 192 19 92 192 19 92 192 19 92 192
19 92 192 19 92 192 19 92 192 19 92 192
19 92 192 19 92 192 19 92 192 19 92 192
19 92 192 19 92 192 19 92 192 19 92 192
19 92 192 19 92 192 19 92 192 19 92 192
19 92 192 19 92 192 19 92 192 19 92 192
19 92 192 19 92 192 19 92 192 19 92 192
19 92 192 19 92 192 19 92 192 19 92 192
19 92 192 19 92 192 19 92 192 19 92 192
19 92 192 19 92 192 19 92 192 19 92 192
19 92 192 19 92 192 19 92 192 19 92 192
19 92 192 19 92 192 19 92 192 19 92 192
19 92 192 19 92 192 19 92 192 19 92 192
19 92 192 19 92 192 19 92 192 19 92 192
19 92 192 19 92 192 19 92 192 19 92 192
19 92 192 19 92 192 19 92 192 19 92 192
19 92 192 19 92 192 19 92 192 19 92 192
19 92 192 19 92 192 19 92 192 19 92 192
19 92 192 19 92 192 19 92 192 19 92 192
19 92 192 19 92 192 19 92 192 19 92 192
19 92 192 19 92 192 19 92 192 19 92 192
19 92 192 19 92 192 19 92 192 19 92 192
19 92 192 19 92 192 19 92 192 19 92 192
19 92 192 19 92 192 19 92 192 19 92 192
19 92 192 19 92 192 19 92 192 19 92 192
19 92 192 19 92 192 19 92 192 19 92 192
19 92 192 19 92 192 19 92 192 19 92 192
19 92 192 19 92 192 19 92 192 19 92 192
19 92 192 19 92 192 19 92 192 19 92 192
19 92 192 19 92 192 19 92 192 19 92 192
19 92 192 19 92 192 19 92 192 19 92 192
19 92 192 19 92 192 19 92 192 19 92 192
19 92 192 19 92 192 19 92 192 19 92 192
19 92 192 19 92 192 19 92 192 19 92 192
19 92 192 19 92 192 19 92 192 19 92 192
19 92 192 19 92 192 19 92 192 19 92 192
19 92 192 19 92 192 19 92 192 19 92 192
19 92 192 19 92 192 19 92 192 19 92 192
19 92 192 19 92 192 19 92 192 19 92 192
19 92 192 19 92 192 19 92 192 19 92 192
19 92 192 19 92 192 19 92 192 19 92 192
19 92 192 19 92 192 19 92 192 19 92 192
19 92 192 19 92 192 19 92 192 19 92 192
19 92 192 19 92 192 19 92 192 19 92 192
19 92 192 19 92 192 19 92 192 19 92 192
19 92 192 19 92 192 19 92 192 19 92 192
19 92 192 19 92 192 19 92 192 19 92 192
19 92 192 19 92 192 19 92 192 19 92 192
19 92 192 19 92 192 19 92 192 19 92 192
19 92 192 19 92 192 19 92 192 19 92 192
19 92 192 19 92 192 19 92 192 19 92 192
19 92 192 19 92 192 19 92 192 19 92 192
19 92 192 19 92 192 19 92 192 19 92 192
19 92 192 19 92 192 19 92 192 19 92 192
19 92 192 19 92 192 19 92 192 19 92 192
19 92 192 19 92 192 19 92 192 19 92 192
19 92 192 19 92 192 19 92 192 19 92 192
19 92 192 19 92 192 19 92 192 19 92 192
19 92 192 19 92 192 19 92 192 19 92 192
19 92 192 19 92 192 19 92 192 19 92 192
19 92 192 19 92 192 19 92 192 19 92 192
19 92 192 19 92 192 19 92 192 19 92 192
19 92 192 19 92 192 19 92 192 19 92 192
19 92 192 19 92 192 19 92 192 19 92 192
19 92 192 19 92 192 19 92 192 19 92 192
19 92 192 19 92 192 19 92 192 19 92 192
19 92 192 19 92 192 19 92 192 19 92 192
19 92 192 19 92 192 19 92 192 19 92 192
19 92 192 19 92 192 19 92 192 19 92 192
19 92 192 19 92 192 19 92 192 19 92 192
19 92 192 19 92 192 19 92 192 19 92 192
19 92 192 19 92 192 19 92 192 19 92 192
19 92 192 19 92 192 19 92 192 19 92 192
19 92 192 19 92 192 19 92 192 19 92 192
19 92 192 19 92 192 19 92 192 19 92 192
19 92 192 19 92 192 19 92 192 19 92 192
19 92 192 19 92 192 19 92 192 19 92 192
19 92 192 19 92 192 19 92 192 19 92 192
19 92 192 19 92 192 19 92 192 19 92 192
19 92 192 19 92 192 19 92 192 19 92 192
19 92 192 19 92 192 19 92 192 19 92 192
19 92 192 19 92 192 19 92 192 19 92 192
19 92 192 19 92 192 19 92 192 19 92 192
19 92 192 19 92 192 19 92 192 19 92 192
19 92 192 19 92 192 19 92 192 19 92 192
19 92 192 19 92 192 19 92 192 19 92 192
19 92 192 19 92 192 19 92 192 19 92 192
19 92 192 19 92 192 19 92 192 19 92 192
19 92 192 19 92 192 19 92 192 19 92 192
19 92 192 19 92 192 19 92 192 19 92 192
19 92 192 19 92 192 19 92 192 19 92 192
19 92 192 19 92 192 19 92 192 19 92 192
19 92 192 19 92 192 19 92 192 19 92 192
19 92 192 19 92 192 19 92 192 19 92 192
19 92 192 19 92 192 19 92 192 19 92 192
19 92 192 19 92 192 19 92 192 19 92 192
19 92 192 19 92 192 19 92 192 19 92 192
19 92 192 19 92 192 19 92 192 19 92 192
19 92 192 19 92 192 19 92 192 19 92 192
19 92 192 19 92 192 19 92 192 19 92 192
19 92 192 19 92 192 19 92 192 19 92 192
19 92 192 19 92 192 19 92 192 19 92 192
19 92 192 19 92 192 19 92 192 19 92 192
19 92 192 19 92 192 19 92 192 19 92 192
19 92 192 19 92 192 19 92 192 19 92 192
19 92 192 19 92 192 19 92 192 19 92 192
19 92 192 19 92 192 19 92 192 19 92 192
19 92 192 19 92 192 19 92 192 19 92 192
19 92 192 19 92 192 19 92 192 19 92 192
19 92 192 19 92 192 19 92 192 19 92 192
19 92 192 19 92 192 19 92 192 19 92 192
19 92 192 19 92 192 19 92 192 19 92 192
19 92 192 19 92 192 19 92 192 19 92 192
19 92 192 19 92 192 19 92 192 19 92 192
19 92 192 19 92 192 19 92 192 19 92 192
19 92 192 19 92 192 19 92 192 19 92 192
19 92 192 19 92 192 19 92 192 19 92 192
19 92 192 19 92 192 19 92 192 19 92 192
19 92 192 19 92 192 19 92 192 19 92 192
19 92 192 19 92 192 19 92 192 19 92 192
19 92 192 19 92 192 19 92 192 19 92 192
19 92 192 19 92 192 19 92 192 19 92 192
19 92 192 19 92 192 19 92 192 19 92 192
19 92 192 19 92 192 19 92 192 19 92 192
19 92 192 19 92 192 19 92 192 19 92 192
19 92 192 19 92 192 19 92 192 19 92 192
19 92 192 19 92 192 19 92 192 19 92 192
19 92 192 19 92 192 19 92 192 19 92 192
19 92 192 19 92 192 19 92 192 19 92 192
19 92 192 19 92 192 19 92 192 19 92 192
19 92 192 19 92 192 19 92 192 19 92 192
19 92 192 19 92 192 19 92 192 19 92 192
19 92 192 19 92 192 19 92 192 19 92 192
19 92 192 19 92 192 19 92 192 19 92 192
19 92 192 19 92 192 19 92 192 19 92 192
19 92 192 19 92 192 19 92 192 19 92 192
19 92 192 19 92 192 19 92 192 19 92 192
19 92 192 19 92 192 19 92 192 19 92 192
19 92 192 19 92 192 19 92 192 19 92 192
19 92 192 19 92 192 19 92 192 19 92 192
19 92 192 19 92 192 19 92 192 19 92 192
19 92 192 19 92 192 19 92 192 19 92 192
19 92 192 19 92 192 19 92 192 19 92 192
19 92 192 19 92 192 19 92 192 19 92 192
19 92 192 19 92 192 19 92 192 19 92 192
19 92 192 19 92 192 19 92 192 19 92 192
19 92 192 19 92 192 19 92 192 19 92 192
19 92 192 19 92 192 19 92 192 19 92 192
19 92 192 19 92 192 19 92 192 19 92 192
19 92 192 19 92 192 19 92 192 19 92 192
19 92 192 19 92 192 19 92 192 19 92 192
19 92 192 19 92 192 19 92 192 19 92 192
19 92 192 19 92 192 19 92 192 19 92 192
19 92 192 19 92 192 19 92 192 19 92 192
19 92 192 19 92 192 19 92 192 19 92 192
19 92 192 19 92 192 19 92 192 19 92 192
19 92 192 19 92 192 19 92 192 19 92 192
19 92 192 19 92 192 19 92 192 19 92 192
19 92 192 19 92 192 19 92 192 19 92 192
19 92 192 19 92 192 19 92 192 19 92 192
19 92 192 19 92 192 19 92 192 19 92 192
19 92 192 19 92 192 19 92 192 19 92 192
19 92 192 19 92 192 19 92 192 19 92 192
19 92 192 19 92 192 19 92 192 19 92 192
19 92 192 19 92 192 19 92 192 19 92 192
19 92 192 19 92 192 19 92 192 19 92 192
19 92 192 19 92 192 19 92 192 19 92 192
19 92 192 19 92 192 19 92 192 19 92 192
19 92 192 19 92 192 19 92 192 19 92 192
19 92 192 19 92 192 19 92 192 19 92 192
19 92 192 19 92 192 19 92 192 19 92 192
19 92 192 19 92 192 19 92 192 19 92 192
19 92 192 19 92 192 19 92 192 19 92 192
19 92 192 19 92 192 19 92 192 19 92 192
19 92 192 19 92 192 19 92 192 19 92 192
19 92 192 19 92 192 19 92 192 19 92 192
19 92 192 19 92 192 19 92 192 19 92 192
19 92 192 19 92 192 19 92 192 19 92 192
19 92 192 19 92 192 19 92 192 19 92 192
19 92 192 19 92 192 19 92 192 19 92 192
19 92 192 19 92 192 19 92 192 19 92 192
19 92 192 19 92 192 19 92 192 19 92 192
19 92 192 19 92 192 19 92 192 19 92 192
19 92 192 19 92 192 19 92 192 19 92 192
19 92 192 19 92 192 19 92 192 19 92 192
19 92 192 19 92 192 19 92 192 19 92 192
19 92 192 19 92 192 19 92 192 19 92 192
19 92 192 19 92 192 19 92 192 19 92 192
19 92 192 19 92 192 19 92 192 19 92 192
19 92 192 19 92 192 19 92 192 19 92 192
19 92 192 19 92 192 19 92 192 19 92 192
19 92 192 19 92 192 19 92 192 19 92 192
19 92 192 19 92 192 19 92 192 19 92 192
19 92 192 19 92 192 19 92 192 19 92 192
19 92 192 19 92 192 19 92 192 19 92 192
19 92 192 19 92 192 19 92 192 19 92 192
19 92 192 19 92 192 19 92 192 19 92 192
19 92 192 19 92 192 19 92 192 19 92 192
19 92 192 19 92 192 19 92 192 19 92 192
19 92 192 19 92 192 19 92 192 19 92 192
19 92 192 19 92 192 19 92 192 19 92 192
19 92 192 19 92 192 19 92 192 19 92 192
19 92 192 19 92 192 19 92 192 19 92 192
19 92 192 19 92 192 19 92 192 19 92 192
19 92 192 19 92 192 19 92 192 19 92 192
19 92 192 19 92 192 19 92 192 19 92 192
19 92 192 19 92 192 19 92 192 19 92 192
19 92 192 19 92 192 19 92 192 19 92 192
19 92 192 19 92 192 19 92 192 19 92 192
19 92 192 19 92 192 19 92 192 19 92 192
19 92 192 19 92 192 19 92 192 19 92 192
19 92 192 19 92 192 19 92 192 19 92 192
19 92 192 19 92 192 19 92 192 19 92 192
19 92 192 19 92 192 19 92 192 19 92 192
19 92 192 19 92 192 19 92 192 19 92 192
19 92 192 19 92 192 19 92 192 19 92 192
19 92 192 19 92 192 19 92 192 19 92 192
19 92 192 19 92 192 19 92 192 19 92 192
19 92 192 19 92 192 19 92 192 19 92 192
19 92 192 19 92 192 19 92 192 19 92 192
19 92 192 19 92 192 19 92 192 19 92 192
19 92 192 19 92 192 19 92 192 19 92 192
19 92 192 19 92 192 19 92 192 19 92 192
19 92 192 19 92 192 19 92 192 19 92 192
19 92 192 19 92 192 19 92 192 19 92 192
19 92 192 19 92 192 19 92 192 19 92 192
19 92 192 19 92 192 19 92 192 19 92 192
19 92 192 19 92 192 19 92 192 19 92 192
19 92 192 19 92 192 19 92 192 19 92 192
19 92 192 19 92 192 19 92 192 19 92 192
19 92 192 19 92 192 19 92 192 19 92 192
19 92 192 19 92 192 19 92 192 19 92 192
19 92 192 19 92 192 19 92 192 19 92 192
19 92 192 19 92 192 19 92 192 19 92 192
19 92 192 19 92 192 19 92 192 19 92 192
19 92 192 19 92 192 19 92 192 19 92 192
19 92 192 19 92 192 19 92 192 19 92 192
19 92 192 19 92 192 19 92 192 19 92 192
19 92 192 19 92 192 19 92 192 19 92 192
19 92 192 19 92 192 19 92 192 19 92 192
19 92 192 19 92 192 19 92 192 19 92 192
19 92 192 19 92 192 19 92 192 19 92 192
19 92 192 19 92 192 19 92 192 19 92 192
19 92 192 19 92 192 19 92 192 19 92 192
19 92 192 19 92 192 19 92 192 19 92 192
19 92 192 19 92 192 19 92 192 19 92 192
19 92 192 19 92 192 19 92 192 19 92 192
19 92 192 19 92 192 19 92 192 19 92 192
19 92 192 19 92 192 19 92 192 19 92 192
19 92 192 19 92 192 19 92 192 19 92 192
19 92 192 19 92 192 19 92 192 19 92 192
19 92 192 19 92 192 19 92 192 19 92 192
19 92 192 19 92 192 19 92 192 19 92 192
19 92 192 19 92 192 19 92 192 19 92 192
19 92 192 19 92 192 19 92 192 19 92 192
19 92 192 19 92 192 19 92 192 19 92 192
19 92 192 19 92 192 19 92 192 19 92 192
19 92 192 19 92 192 19 92 192 19 92 192
19 92 192 19 92 192 19 92 192 19 92 192
19 92 192 19 92 192 19 92 192 19 92 192
19 92 192 19 92 192 19 92 192 19 92 192
19 92 192 19 92 192 19 92 192 19 92 192
19 92 192 19 92 192 19 92 192 19 92 192
19 92 192 19 92 192 19 92 192 19 92 192
19 92 192 19 92 192 19 92 192 19 92 192
19 92 192 19 92 192 19 92 192 19 92 192
19 92 192 19 92 192 19 92 192 19 92 192
19 92 192 19 92 192 19 92 192 19 92 192
19 92 192 19 92 192 19 92 192 19 92 192
19 92 192 19 92 192 19 92 192 19 92 192
19 92 192 19 92 192 19 92 192 19 92 192
19 92 192 19 92 192 19 92 192 19 92 192
19 92 192 19 92 192 19 92 192 19 92 192
19 92 192 19 92 192 19 92 192 19 92 192
19 92 192 19 92 192 19 92 192 19 92 192
19 92 192 19 92 192 19 92 192 19 92 192
19 92 192 19 92 192 19 92 192 19 92 192
19 92 192 19 92 192 19 92 192 19 92 192
19 92 192 19 92 192 19 92 192 19 92 192
19 92 192 19 92 192 19 92 192 19 92 192
19 92 192 19 92 192 19 92 192 19 92 192
19 92 192 19 92 192 19 92 192 19 92 192
19 92 192 19 92 192 19 92 192 19 92 192
19 92 192 19 92 192 19 92 192 19 92 192
19 92 192 19 92 192 19 92 192 19 92 192
19 92 192 19 92 192 19 92 192 19 92 192
19 92 192 19 92 192 19 92 192 19 92 192
19 92 192 19 92 192 19 92 192 19 92 192
19 92 192 19 92 192 19 92 192 19 92 192
19 92 192 19 92 192 19 92 192 19 92 192
19 92 192 19 92 192 19 92 192 19 92 192
19 92 192 19 92 192 19 92 192 19 92 192
19 92 192 19 92 192 19 92 192 19 92 192
19 92 192 19 92 192 19 92 192 19 92 192
19 92 192 19 92 192 19 92 192 19 92 192
19 92 192 19 92 192 19 92 192 19 92 192
19 92 192 19 92 192 19 92 192 19 92 192
19 92 192 19 92 192 19 92 192 19 92 192
19 92 192 19 92 192 19 92 192 19 92 192
19 92 192 19 92 192 19 92 192 19 92 192
19 92 192 19 92 192 19 92 192 19 92 192
19 92 192 19 92 192 19 92 192 19 92 192
19 92 192 19 92 192 19 92 192 19 92 192
19 92 192 19 92 192 19 92 192 19 92 192
19 92 192 19 92 192 19 92 192 19 92 192
19 92 192 19 92 192 19 92 192 19 92 192
19 92 192 19 92 192 19 92 192 19 92 192
19 92 192 19 92 192 19 92 192 19 92 192
19 92 192 19 92 192 19 92 192 19 92 192
19 92 192 19 92 192 19 92 192 19 92 192
19 92 192 19 92 192 19 92 192 19 92 192
19 92 192 19 92 192 19 92 192 19 92 192
19 92 192 19 92 192 19 92 192 19 92 192
19 92 192 19 92 192 19 92 192 19 92 192
19 92 192 19 92 192 19 92 192 19 92 192
19 92 192 19 92 192 19 92 192 19 92 192
19 92 192 19 92 192 19 92 192 19 92 192
19 92 192 19 92 192 19 92 192 19 92 192
19 92 192 19 92 192 19 92 192 19 92 192
19 92 192 19 92 192 19 92 192 19 92 192
19 92 192 19 92 192 19 92 192 19 92 192
19 92 192 19 92 192 19 92 192 19 92 192
19 92 192 19 92 192 19 92 192 19 92 192
19 92 192 19 92 192 19 92 192 19 92 192
19 92 192 19 92 192 19 92 192 19 92 192
19 92 192 19 92 192 19 92 192 19 92 192
19 92 192 19 92 192 19 92 192 19 92 192
19 92 192 19 92 192 19 92 192 19 92 192
19 92 192 19 92 192 19 92 192 19 92 192
19 92 192 19 92 192 19 92 192 19 92 192
19 92 192 19 92 192 19 92 192 19 92 192
19 92 192 19 92 192 19 92 192 19 92 192
19 92 192 19 92 192 19 92 192 19 92 192
19 92 192 19 92 192 19 92 192 19 92 192
19 92 192 19 92 192 19 92 192 19 92 192
19 92 192 19 92 192 19 92 192 19 92 192
19 92 192 19 92 192 19 92 192 19 92 192
19 92 192 19 92 192 19 92 192 19 92 192
19 92 192 19 92 192 19 92 192 19 92 192
19 92 192 19 92 192 19 92 192 19 92 192
19 92 192 19 92 192 19 92 192 19 92 192
19 92 192 19 92 192 19 92 192 19 92 192
19 92 192 19 92 192 19 92 192 19 92 192
19 92 192 19 92 192 19 92 192 19 92 192
19 92 192 19 92 192 19 92 192 19 92 192
19 92 192 19 92 192 19 92 192 19 92 192
19 92 192 19 92 192 19 92 192 19 92 192
19 92 192 19 92 192 19 92 192 19 92 192
19 92 192 19 92 192 19 92 192 19 92 192
19 92 192 19 92 192 19 92 192 19 92 192
19 92 192 19 92 192 19 92 192 19 92 192
19 92 192 19 92 192 19 92 192 19 92 192
19 92 192 19 92 192 19 92 192 19 92 192
19 92 192 19 92 192 19 92 192 19 92 192
19 92 192 19 92 192 19 92 192 19 92 192
19 92 192 19 92 192 19 92 192 19 92 192
19 92 192 19 92 192 19 92 192 19 92 192
19 92 192 19 92 192 19 92 192 19 92 192
19 92 192 19 92 192 19 92 192 19 92 192
19 92 192 19 92 192 19 92 192 19 92 192
19 92 192 19 92 192 19 92 192 19 92 192
19 92 192 19 92 192 19 92 192 19 92 192
19 92 192 19 92 192 19 92 192 19 92 192
19 92 192 19 92 192 19 92 192 19 92 192
19 92 192 19 92 192 19 92 192 19 92 192
19 92 192 19 92 192 19 92 192 19 92 192
19 92 192 19 92 192 19 92 192 19 92 192
19 92 192 19 92 192 19 92 192 19 92 192
19 92 192 19 92 192 19 92 192 19 92 192
19 92 192 19 92 192 19 92 192 19 92 192
19 92 192 19 92 192 19 92 192 19 92 192
19 92 192 19 92 192 19 92 192 19 92 192
19 92 192 19 92 192 19 92 192 19 92 192
19 92 192 19 92 192 19 92 192 19 92 192
19 92 192 19 92 192 19 92 192 19 92 192
19 92 192 19 92 192 19 92 192 19 92 192
19 92 192 19 92 192 19 92 192 19 92 192
19 92 192 19 92 192 19 92 192 19 92 192
19 92 192 19 92 192 19 92 192 19 92 192
19 92 192 19 92 192 19 92 192 19 92 192
19 92 192 19 92 192 19 92 192 19 92 192
19 92 192 19 92 192 19 92 192 19 92 192
19 92 192 19 92 192 19 92 192 19 92 192
19 92 192 19 92 192 19 92 192 19 92 192
19 92 192 19 92 192 19 92 192 19 92 192
19 92 192 19 92 192 19 92 192 19 92 192
19 92 192 19 92 192 19 92 192 19 92 192
19 92 192 19 92 192 19 92 192 19 92 192
19 92 192 19 92 192 19 92 192 19 92 192
19 92 192 19 92 192 19 92 192 19 92 192
19 92 192 19 92 192 19 92 192 19 92 192
19 92 192 19 92 192 19 92 192 19 92 192
19 92 192 19 92 192 19 92 192 19 92 192
19 92 192 19 92 192 19 92 192 19 92 192
19 92 192 19 92 192 19 92 192 19 92 192
19 92 192 19 92 192 19 92 192 19 92 192
19 92 192 19 92 192 19 92 192 19 92 192
19 92 192 19 92 192 19 92 192 19 92 192
19 92 192 19 92 192 19 92 192 19 92 192
19 92 192 19 92 192 19 92 192 19 92 192
19 92 192 19 92 192 19 92 192 19 92 192
19 92 192 19 92 192 19 92 192 19 92 192
19 92 192 19 92 192 19 92 192 19 92 192
19 92 192 19 92 192 19 92 192 19 92 192
19 92 192 19 92 192 19 92 192 19 92 192
19 92 192 19 92 192 19 92 192 19 92 192
19 92 192 19 92 192 19 92 192 19 92 192
19 92 192 19 92 192 19 92 192 19 92 192
19 92 192 19 92 192 19 92 192 19 92 192
19 92 192 19 92 192 19 92 192 19 92 192
19 92 192 19 92 192 19 92 192 19 92 192
19 92 192 19 92 192 19 92 192 19 92 192
19 92 192 19 92 192 19 92 192 19 92 192
19 92 192 19 92 192 19 92 192 19 92 192
19 92 192 19 92 192 19 92 192 19 92 192
19 92 192 19 92 192 19 92 192 19 92 192
19 92 192 19 92 192 19 92 192 19 92 192
19 92 192 19 92 192 19 92 192 19 92 192
19 92 192 19 92 192 19 92 192 19 92 192
19 92 192 19 92 192 19 92 192 19 92 192
19 92 192 19 92 192 19 92 192 19 92 192
19 92 192 19 92 192 19 92 192 19 92 192
19 92 192 19 92 192 19 92 192 19 92 192
19 92 192 19 92 192 19 92 192 19 92 192
19 92 192 19 92 192 19 92 192 19 92 192
19 92 192 19 92 192 19 92 192 19 92 192
19 92 192 19 92 192 19 92 192 19 92 192
19 92 192 19 92 192 19 92 192 19 92 192
19 92 192 19 92 192 19 92 192 19 92 192
19 92 192 19 92 192 19 92 192 19 92 192
19 92 192 19 92 192 19 92 192 19 92 192
19 92 192 19 92 192 19 92 192 19 92 192
19 92 192 19 92 192 19 92 192 19 92 192
19 92 192 19 92 192 19 92 192 19 92 192
19 92 192 19 92 192 19 92 192 19 92 192
19 92 192 19 92 192 19 92 192 19 92 192
19 92 192 19 92 192 19 92 192 19 92 192
19 92 192 19 92 192 19 92 192 19 92 192
19 92 192 19 92 192 19 92 192 19 92 192
19 92 192 19 92 192 19 92 192 19 92 192
19 92 192 19 92 192 19 92 192 19 92 192
19 92 192 19 92 192 19 92 192 19 92 192
19 92 192 19 92 192 19 92 192 19 92 192
19 92 192 19 92 192 19 92 192 19 92 192
19 92 192 19 92 192 19 92 192 19 92 192
19 92 192 19 92 192 19 92 192 19 92 192
19 92 192 19 92 192 19 92 192 19 92 192
19 92 192 19 92 192 19 92 192 19 92 192
19 92 192 19 92 192 19 92 192 19 92 192
19 92 192 19 92 192 19 92 192 19 92 192
19 92 192 19 92 192 19 92 192 19 92 192
19 92 192 19 92 192 19 92 192 19 92 192
19 92 192 19 92 192 19 92 192 19 92 192
19 92 192 19 92 192 19 92 192 19 92 192
19 92 192 19 92 192 19 92 192 19 92 192
19 92 192 19 92 192 19 92 192 19 92 192
19 92 192 19 92 192 19 92 192 19 92 192
19 92 192 19 92 192 19 92 192 19 92 192
19 92 192 19 92 192 19 92 192 19 92 192
19 92 192 19 92 192 19 92 192 19 92 192
19 92 192 19 92 192 19 92 192 19 92 192
19 92 192 19 92 192 19 92 192 19 92 192
19 92 192 19 92 192 19 92 192 19 92 192
19 92 192 19 92 192 19 92 192 19 92 192
19 92 192 19 92 192 19 92 192 19 92 192
19 92 192 19 92 192 19 92 192 19 92 192
19 92 192 19 92 192 19 92 192 19 92 192
19 92 192 19 92 192 19 92 192 19 92 192
19 92 192 19 92 192 19 92 192 19 92 192
19 92 192 19 92 192 19 92 192 19 92 192
19 92 192 19 92 192 19 92 192 19 92 192
19 92 192 19 92 192 19 92 192 19 92 192
19 92 192 19 92 192 19 92 192 19 92 192
19 92 192 19 92 192 19 92 192 19 92 192
19 92 192 19 92 192 19 92 192 19 92 192
19 92 192 19 92 192 19 92 192 19 92 192
19 92 192 19 92 192 19 92 192 19 92 192
19 92 192 19 92 192 19 92 192 19 92 192
19 92 192 19 92 192 19 92 192 19 92 192
19 92 192 19 92 192 19 92 192 19 92 192
19 92 192 19 92 192 19 92 192 19 92 192
19 92 192 19 92 192 19 92 192 19 92 192
19 92 192 19 92 192 19 92 192 19 92 192
19 92 192 19 92 192 19 92 192 19 92 192
19 92 192 19 92 192 19 92 192 19 92 192
19 92 192 19 92 192 19 92 192 19 92 192
19 92 192 19 92 192 19 92 192 19 92 192
19 92 192 19 92 192 19 92 192 19 92 192
19 92 192 19 92 192 19 92 192 19 92 192
19 92 192 19 92 192 19 92 192 19 92 192
19 92 192 19 92 192 19 92 192 19 92 192
19 92 192 19 92 192 19 92 192 19 92 192
19 92 192 19 92 192 19 92 192 19 92 192
19 92 192 19 92 192 19 92 192 19 92 192
19 92 192 19 92 192 19 92 192 19 92 192
19 92 192 19 92 192 19 92 192 19 92 192
19 92 192 19 92 192 19 92 192 19 92 192
19 92 192 19 92 192 19 92 192 19 92 192
19 92 192 19 92 192 19 92 192 19 92 192
19 92 192 19 92 192 19 92 192 19 92 192
19 92 192 19 92 192 19 92 192 19 92 192
19 92 192 19 92 192 19 92 192 19 92 192
19 92 192 19 92 192 19 92 192 19 92 192
19 92 192 19 92 192 19 92 192 19 92 192
19 92 192 19 92 192 19 92 192 19 92 192
19 92 192 19 92 192 19 92 192 19 92 192
19 92 192 19 92 192 19 92 192 19 92 192
19 92 192 19 92 192 19 92 192 19 92 192
19 92 192 19 92 192 19 92 192 19 92 192
19 92 192 19 92 192 19 92 192 19 92 192
19 92 192 19 92 192 19 92 192 19 92 192
19 92 192 19 92 192 19 92 192 19 92 192
19 92 192 19 92 192 19 92 192 19 92 192
19 92 192 19 92 192 19 92 192 19 92 192
19 92 192 19 92 192 19 92 192 19 92 192
19 92 192 19 92 192 19 92 192 19 92 192
19 92 192 19 92 192 19 92 192 19 92 192
19 92 192 19 92 192 19 92 192 19 92 192
19 92 192 19 92 192 19 92 192 19 92 192
19 92 192 19 92 192 19 92 192 19 92 192
19 92 192 19 92 192 19 92 192 19 92 192
19 92 192 19 92 192 19 92 192 19 92 192
19 92 192 19 92 192 19 92 192 19 92 192
19 92 192 19 92 192 19 92 192 19 92 192
19 92 192 19 92 192 19 92 192 19 92 192
19 92 192 19 92 192 19 92 192 19 92 192
19 92 192 19 92 192 19 92 192 19 92 192
19 92 192 19 92 192 19 92 192 19 92 192
19 92 192 19 92 192 19 92 192 19 92 192
19 92 192 19 92 192 19 92 192 19 92 192
19 92 192 19 92 192 19 92 192 19 92 192
19 92 192 19 92 192 19 92 192 19 92 192
19 92 192 19 92 192 19 92 192 19 92 192
19 92 192 19 92 192 19 92 192 19 92 192
19 92 192 19 92 192 19 92 192 19 92 192
19 92 192 19 92 192 19 92 192 19 92 192
19 92 192 19 92 192 19 92 192 19 92 192
19 92 192 19 92 192 19 92 192 19 92 192
19 92 192 19 92 192 19 92 192 19 92 192
19 92 192 19 92 192 19 92 192 19 92 192
19 92 192 19 92 192 19 92 192 19 92 192
19 92 192 19 92 192 19 92 192 19 92 192
19 92 192 19 92 192 19 92 192 19 92 192
19 92 192 19 92 192 19 92 192 19 92 192
19 92 192 19 92 192 19 92 192 19 92 192
19 92 192 19 92 192 19 92 192 19 92 192
19 92 192 19 92 192 19 92 192 19 92 192
19 92 192 19 92 192 19 92 192 19 92 192
19 92 192 19 92 192 19 92 192 19 92 192
19 92 192 19 92 192 19 92 192 19 92 192
19 92 192 19 92 192 19 92 192 19 92 192
19 92 192 19 92 192 19 92 192 19 92 192
19 92 192 19 92 192 19 92 192 19 92 192
19 92 192 19 92 192 19 92 192 19 92 192
19 92 192 19 92 192 19 92 192 19 92 192
19 92 192 19 92 192 19 92 192 19 92 192
19 92 192 19 92 192 19 92 192 19 92 192
19 92 192 19 92 192 19 92 192 19 92 192
19 92 192 19 92 192 19 92 192 19 92 192
19 92 192 19 92 192 19 92 192 19 92 192
19 92 192 19 92 192 19 92 192 19 92 192
19 92 192 19 92 192 19 92 192 19 92 192
19 92 192 19 92 192 19 92 192 19 92 192
19 92 192 19 92 192 19 92 192 19 92 192
19 92 192 19 92 192 19 92 192 19 92 192
19 92 192 19 92 192 19 92 192 19 92 192
19 92 192 19 92 192 19 92 192 19 92 192
19 92 192 19 92 192 19 92 192 19 92 192
19 92 192 19 92 192 19 92 192 19 92 192
19 92 192 19 92 192 19 92 192 19 92 192
19 92 192 19 92 192 19 92 192 19 92 192
19 92 192 19 92 192 19 92 192 19 92 192
19 92 192 19 92 192 19 92 192 19 92 192
19 92 192 19 92 192 19 92 192 19 92 192
19 92 192 19 92 192 19 92 192 19 92 192
19 92 192 19 92 192 19 92 192 19 92 192
19 92 192 19 92 192 19 92 192 19 92 192
19 92 192 19 92 192 19 92 192 19 92 192
19 92 192 19 92 192 19 92 192 19 92 192
19 92 192 19 92 192 19 92 192 19 92 192
19 92 192 19 92 192 19 92 192 19 92 192
19 92 192 19 92 192 19 92 192 19 92 192
19 92 192 19 92 192 19 92 192 19 92 192
19 92 192 19 92 192 19 92 192 19 92 192
19 92 192 19 92 192 19 92 192 19 92 192
19 92 192 19 92 192 19 92 192 19 92 192
19 92 192 19 92 192 19 92 192 19 92 192
19 92 192 19 92 192 19 92 192 19 92 192
19 92 192 19 92 192 19 92 192 19 92 192
19 92 192 19 92 192 19 92 192 19 92 192
19 92 192 19 92 192 19 92 192 19 92 192
19 92 192 19 92 192 19 92 192 19 92 192
19 92 192 19 92 192 19 92 192 19 92 192
19 92 192 19 92 192 19 92 192 19 92 192
19 92 192 19 92 192 19 92 192 19 92 192
19 92 192 19 92 192 19 92 192 19 92 192
19 92 192 19 92 192 19 92 192 19 92 192
19 92 192 19 92 192 19 92 192 19 92 192
19 92 192 19 92 192 19 92 192 19 92 192
19 92 192 19 92 192 19 92 192 19 92 192
19 92 192 19 92 192 19 92 192 19 92 192
19 92 192 19 92 192 19 92 192 19 92 192
19 92 192 19 92 192 19 92 192 19 92 192
19 92 192 19 92 192 19 92 192 19 92 192
19 92 192 19 92 192 19 92 192 19 92 192
19 92 192 19 92 192 19 92 192 19 92 192
19 92 192 19 92 192 19 92 192 19 92 192
19 92 192 19 92 192 19 92 192 19 92 192
19 92 192 19 92 192 19 92 192 19 92 192
19 92 192 19 92 192 19 92 192 19 92 192
19 92 192 19 92 192 19 92 192 19 92 192
19 92 192 19 92 192 19 92 192 19 92 192
19 92 192 19 92 192 19 92 192 19 92 192
19 92 192 19 92 192 19 92 192 19 92 192
19 92 192 19 92 192 19 92 192 19 92 192
19 92 192 19 92 192 19 92 192 19 92 192
19 92 192 19 92 192 19 92 192 19 92 192
19 92 192 19 92 192 19 92 192 19 92 192
19 92 192 19 92 192 19 92 192 19 92 192
19 92 192 19 92 192 19 92 192 19 92 192
19 92 192 19 92 192 19 92 192 19 92 192
19 92 192 19 92 192 19 92 192 19 92 192
19 92 192 19 92 192 19 92 192 19 92 192
19 92 192 19 92 192 19 92 192 19 92 192
19 92 192 19 92 192 19 92 192 19 92 192
19 92 192 19 92 192 19 92 192 19 92 192
19 92 192 19 92 192 19 92 192 19 92 192
19 92 192 19 92 192 19 92 192 19 92 192
19 92 192 19 92 192 19 92 192 19 92 192
19 92 192 19 92 192 19 92 192 19 92 192
19 92 192 19 92 192 19 92 192 19 92 192
19 92 192 19 92 192 19 92 192 19 92 192
19 92 192 19 92 192 19 92 192 19 92 192
19 92 192 19 92 192 19 92 192 19 92 192
19 92 192 19 92 192 19 92 192 19 92 192
19 92 192 19 92 192 19 92 192 19 92 192
19 92 192 19 92 192 19 92 192 19 92 192
19 92 192 19 92 192 19 92 192 19 92 192
19 92 192 19 92 192 19 92 192 19 92 192
19 92 192 19 92 192 19 92 192 19 92 192
19 92 192 19 92 192 19 92 192 19 92 192
19 92 192 19 92 192 19 92 192 19 92 192
19 92 192 19 92 192 19 92 192 19 92 192
19 92 192 19 92 192 19 92 192 19 92 192
19 92 192 19 92 192 19 92 192 19 92 192
19 92 192 19 92 192 19 92 192 19 92 192
19 92 192 19 92 192 19 92 192 19 92 192
19 92 192 19 92 192 19 92 192 19 92 192
19 92 192 19 92 192 19 92 192 19 92 192
19 92 192 19 92 192 19 92 192 19 92 192
19 92 192 19 92 192 19 92 192 19 92 192
19 92 192 19 92 192 19 92 192 19 92 192
19 92 192 19 92 192 19 92 192 19 92 192
19 92 192 19 92 192 19 92 192 19 92 192
19 92 192 19 92 192 19 92 192 19 92 192
19 92 192 19 92 192 19 92 192 19 92 192
19 92 192 19 92 192 19 92 192 19 92 192
19 92 192 19 92 192 19 92 192 19 92 192
19 92 192 19 92 192 19 92 192 19 92 192
19 92 192 19 92 192 19 92 192 19 92 192
19 92 192 19 92 192 19 92 192 19 92 192
19 92 192 19 92 192 19 92 192 19 92 192
19 92 192 19 92 192 19 92 192 19 92 192
19 92 192 19 92 192 19 92 192 19 92 192
19 92 192 19 92 192 19 92 192 19 92 192
19 92 192 19 92 192 19 92 192 19 92 192
19 92 192 19 92 192 19 92 192 19 92 192
19 92 192 19 92 192 19 92 192 19 92 192
19 92 192 19 92 192 19 92 192 19 92 192
19 92 192 19 92 192 19 92 192 19 92 192
19 92 192 19 92 192 19 92 192 19 92 192
19 92 192 19 92 192 19 92 192 19 92 192
19 92 192 19 92 192 19 92 192 19 92 192
19 92 192 19 92 192 19 92 192 19 92 192
19 92 192 19 92 192 19 92 192 19 92 192
19 92 192 19 92 192 19 92 192 19 92 192
19 92 192 19 92 192 19 92 192 19 92 192
19 92 192 19 92 192 19 92 192 19 92 192
19 92 192 19 92 192 19 92 192 19 92 192
19 92 192 19 92 192 19 92 192 19 92 192
19 92 192 19 92 192 19 92 192 19 92 192
19 92 192 19 92 192 19 92 192 19 92 192
19 92 192 19 92 192 19 92 192 19 92 192
19 92 192 19 92 192 19 92 192 19 92 192
19 92 192 19 92 192 19 92 192 19 92 192
19 92 192 19 92 192 19 92 192 19 92 192
19 92 192 19 92 192 19 92 192 19 92 192
19 92 192 19 92 192 19 92 192 19 92 192
19 92 192 19 92 192 19 92 192 19 92 192
19 92 192 19 92 192 19 92 192 19 92 192
19 92 192 19 92 192 19 92 192 19 92 192
19 92 192 19 92 192 19 92 192 19 92 192
19 92 192 19 92 192 19 92 192 19 92 192
19 92 192 19 92 192 19 92 192 19 92 192
19 92 192 19 92 192 19 92 192 19 92 192
19 92 192 19 92 192 19 92 192 19 92 192
19 92 192 19 92 192 19 92 192 19 92 192
19 92 192 19 92 192 19 92 192 19 92 192
19 92 192 19 92 192 19 92 192 19 92 192
19 92 192 19 92 192 19 92 192 19 92 192
19 92 192 19 92 192 19 92 192 19 92 192
19 92 192 19 92 192 19 92 192 19 92 192
19 92 192 19 92 192 19 92 192 19 92 192
19 92 192 19 92 192 19 92 192 19 92 192
19 92 192 19 92 192 19 92 192 19 92 192
19 92 192 19 92 192 19 92 192 19 92 192
19 92 192 19 92 192 19 92 192 19 92 192
19 92 192 19 92 192 19 92 192 19 92 192
19 92 192 19 92 192 19 92 192 19 92 192
19 92 192 19 92 192 19 92 192 19 92 192
19 92 192 19 92 192 19 92 192 19 92 192
19 92 192 19 92 192 19 92 192 19 92 192
19 92 192 19 92 192 19 92 192 19 92 192
19 92 192 19 92 192 19 92 192 19 92 192
19 92 192 19 92 192 19 92 192 19 92 192
19 92 192 19 92 192 19 92 192 19 92 192
19 92 192 19 92 192 19 92 192 19 92 192
19 92 192 19 92 192 19 92 192 19 92 192
19 92 192 19 92 192 19 92 192 19 92 192
19 92 192 19 92 192 19 92 192 19 92 192
19 92 192 19 92 192 19 92 192 19 92 192
19 92 192 19 92 192 19 92 192 19 92 192
19 92 192 19 92 192 19 92 192 19 92 192
19 92 192 19 92 192 19 92 192 19 92 192
19 92 192 19 92 192 19 92 192 19 92 192
19 92 192 19 92 192 19 92 192 19 92 192
19 92 192 19 92 192 19 92 192 19 92 192
19 92 192 19 92 192 19 92 192 19 92 192
19 92 192 19 92 192 19 92 192 19 92 192
19 92 192 19 92 192 19 92 192 19 92 192
19 92 192 19 92 192 19 92 192 19 92 192
19 92 192 19 92 192 19 92 192 19 92 192
19 92 192 19 92 192 19 92 192 19 92 192
19 92 192 19 92 192 19 92 192 19 92 192
19 92 192 19 92 192 19 92 192 19 92 192
19 92 192 19 92 192 19 92 192 19 92 192
19 92 192 19 92 192 19 92 192 19 92 192
19 92 192 19 92 192 19 92 192 19 92 192
19 92 192 19 92 192 19 92 192 19 92 192
19 92 192 19 92 192 19 92 192 19 92 192
19 92 192 19 92 192 19 92 192 19 92 192
19 92 192 19 92 192 19 92 192 19 92 192
19 92 192 19 92 192 19 92 192 19 92 192
19 92 192 19 92 192 19 92 192 19 92 192
19 92 192 19 92 192 19 92 192 19 92 192
19 92 192 19 92 192 19 92 192 19 92 192
19 92 192 19 92 192 19 92 192 19 92 192
19 92 192 19 92 192 19 92 192 19 92 192
19 92 192 19 92 192 19 92 192 19 92 192
19 92 192 19 92 192 19 92 192 19 92 192
19 92 192 19 92 192 19 92 192 19 92 192
19 92 192 19 92 192 19 92 192 19 92 192
19 92 192 19 92 192 19 92 192 19 92 192
19 92 192 19 92 192 19 92 192 19 92 192
19 92 192 19 92 192 19 92 192 19 92 192
19 92 192 19 92 192 19 92 192 19 92 192
19 92 192 19 92 192 19 92 192 19 92 192
19 92 192 19 92 192 19 92 192 19 92 192
19 92 192 19 92 192 19 92 192 19 92 192
19 92 192 19 92 192 19 92 192 19 92 192
19 92 192 19 92 192 19 92 192 19 92 192
19 92 192 19 92 192 19 92 192 19 92 192
19 92 192 19 92 192 19 92 192 19 92 192
19 92 192 19 92 192 19 92 192 19 92 192
19 92 192 19 92 192 19 92 192 19 92 192
19 92 192 19 92 192 19 92 192 19 92 192
19 92 192 19 92 192 19 92 192 19 92 192
19 92 192 19 92 192 19 92 192 19 92 192
19 92 192 19 92 192 19 92 192 19 92 192
19 92 192 19 92 192 19 92 192 19 92 192
19 92 192 19 92 192 19 92 192 19 92 192
19 92 192 19 92 192 19 92 192 19 92 192
19 92 192 19 92 192 19 92 192 19 92 192
19 92 192 19 92 192 19 92 192 19 92 192
19 92 192 19 92 192 19 92 192 19 92 192
19 92 192 19 92 192 19 92 192 19 92 192
19 92 192 19 92 192 19 92 192 19 92 192
19 92 192 19 92 192 19 92 192 19 92 192
19 92 192 19 92 192 19 92 192 19 92 192
19 92 192 19 92 192 19 92 192 19 92 192
19 92 192 19 92 192 19 92 192 19 92 192
19 92 192 19 92 192 19 92 192 19 92 192
19 92 192 19 92 192 19 92 192 19 92 192
19 92 192 19 92 192 19 92 192 19 92 192
19 92 192 19 92 192 19 92 192 19 92 192
19 92 192 19 92 192 19 92 192 19 92 192
19 92 192 19 92 192 19 92 192 19 92 192
19 92 192 19 92 192 19 92 192 19 92 192
19 92 192 19 92 192 19 92 192 19 92 192
19 92 192 19 92 192 19 92 192 19 92 192
19 92 192 19 92 192 19 92 192 19 92 192
19 92 192 19 92 192 19 92 192 19 92 192
19 92 192 19 92 192 19 92 192 19 92 192
19 92 192 19 92 192 19 92 192 19 92 192
19 92 192 19 92 192 19 92 192 19 92 192
19 92 192 19 92 192 19 92 192 19 92 192
19 92 192 19 92 192 19 92 192 19 92 192
19 92 192 19 92 192 19 92 192 19 92 192
19 92 192 19 92 192 19 92 192 19 92 192
19 92 192 19 92 192 19 92 192 19 92 192
19 92 192 19 92 192 19 92 192 19 92 192
19 92 192 19 92 192 19 92 192 19 92 192
19 92 192 19 92 192 19 92 192 19 92 192
19 92 192 19 92 192 19 92 192 19 92 192
19 92 192 19 92 192 19 92 192 19 92 192
19 92 192 19 92 192 19 92 192 19 92 192
19 92 192 19 92 192 19 92 192 19 92 192
19 92 192 19 92 192 19 92 192 19 92 192
19 92 192 19 92 192 19 92 192 19 92 192
19 92 192 19 92 192 19 92 192 19 92 192
19 92 192 19 92 192 19 92 192 19 92 192
19 92 192 19 92 192 19 92 192 19 92 192
19 92 192 19 92 192 19 92 192 19 92 192
19 92 192 19 92 192 19 92 192 19 92 192
19 92 192 19 92 192 19 92 192 19 92 192
19 92 192 19 92 192 19 92 192 19 92 192
19 92 192 19 92 192 19 92 192 19 92 192
19 92 192 19 92 192 19 92 192 19 92 192
19 92 192 19 92 192 19 92 192 19 92 192
19 92 192 19 92 192 19 92 192 19 92 192
19 92 192 19 92 192 19 92 192 19 92 192
19 92 192 19 92 192 19 92 192 19 92 192
19 92 192 19 92 192 19 92 192 19 92 192
19 92 192 19 92 192 19 92 192 19 92 192
19 92 192 19 92 192 19 92 192 19 92 192
19 92 192 19 92 192 19 92 192 19 92 192
19 92 192 19 92 192 19 92 192 19 92 192
19 92 192 19 92 192 19 92 192 19 92 192
19 92 192 19 92 192 19 92 192 19 92 192
19 92 192 19 92 192 19 92 192 19 92 192
19 92 192 19 92 192 19 92 192 19 92 192
19 92 192 19 92 192 19 92 192 19 92 192
19 92 192 19 92 192 19 92 192 19 92 192
19 92 192 19 92 192 19 92 192 19 92 192
19 92 192 19 92 192 19 92 192 19 92 192
19 92 192 19 92 192 19 92 192 19 92 192
19 92 192 19 92 192 19 92 192 19 92 192
19 92 192 19 92 192 19 92 192 19 92 192
19 92 192 19 92 192 19 92 192 19 92 192
19 92 192 19 92 192 19 92 192 19 92 192
19 92 192 19 92 192 19 92 192 19 92 192
19 92 192 19 92 192 19 92 192 19 92 192
19 92 192 19 92 192 19 92 192 19 92 192
19 92 192 19 92 192 19 92 192 19 92 192
19 92 192 19 92 192 19 92 192 19 92 192
19 92 192 19 92 192 19 92 192 19 92 192
19 92 192 19 92 192 19 92 192 19 92 192
19 92 192 19 92 192 19 92 192 19 92 192
19 92 192 19 92 192 19 92 192 19 92 192
19 92 192 19 92 192 19 92 192 19 92 192
19 92 192 19 92 192 19 92 192 19 92 192
19 92 192 19 92 192 19 92 192 19 92 192
19 92 192 19 92 192 19 92 192 19 92 192
19 92 192 19 92 192 19 92 192 19 92 192
19 92 192 19 92 192 19 92 192 19 92 192
19 92 192 19 92 192 19 92 192 19 92 192
19 92 192 19 92 192 19 92 192 19 92 192
19 92 192 19 92 192 19 92 192 19 92 192
19 92 192 19 92 192 19 92 192 19 92 192
19 92 192 19 92 192 19 92 192 19 92 192
19 92 192 19 92 192 19 92 192 19 92 192
19 92 192 19 92 192 19 92 192 19 92 192
19 92 192 19 92 192 19 92 192 19 92 192
19 92 192 19 92 192 19 92 192 19 92 192
19 92 192 19 92 192 19 92 192 19 92 192
19 92 192 19 92 192 19 92 192 19 92 192
19 92 192 19 92 192 19 92 192 19 92 192
19 92 192 19 92 192 19 92 192 19 92 192
19 92 192 19 92 192 19 92 192 19 92 192
19 92 192 19 92 192 19 92 192 19 92 192
19 92 192 19 92 192 19 92 192 19 92 192
19 92 192 19 92 192 19 92 192 19 92 192
19 92 192 19 92 192 19 92 192 19 92 192
19 92 192 19 92 192 19 92 192 19 92 192
19 92 192 19 92 192 19 92 192 19 92 192
19 92 192 19 92 192 19 92 192 19 92 192
19 92 192 19 92 192 19 92 192 19 92 192
19 92 192 19 92 192 19 92 192 19 92 192
19 92 192 19 92 192 19 92 192 19 92 192
19 92 192 19 92 192 19 92 192 19 92 192
19 92 192 19 92 192 19 92 192 19 92 192
19 92 192 19 92 192 19 92 192 19 92 192
19 92 192 19 92 192 19 92 192 19 92 192
19 92 192 19 92 192 19 92 192 19 92 192
19 92 192 19 92 192 19 92 192 19 92 192
19 92 192 19 92 192 19 92 192 19 92 192
19 92 192 19 92 192 19 92 192 19 92 192
19 92 192 19 92 192 19 92 192 19 92 192
19 92 192 19 92 192 19 92 192 19 92 192
19 92 192 19 92 192 19 92 192 19 92 192
19 92 192 19 92 192 19 92 192 19 92 192
19 92 192 19 92 192 19 92 192 19 92 192
19 92 192 19 92 192 19 92 192 19 92 192
19 92 192 19 92 192 19 92 192 19 92 192
19 92 192 19 92 192 19 92 192 19 92 192
19 92 192 19 92 192 19 92 192 19 92 192
19 92 192 19 92 192 19 92 192 19 92 192
19 92 192 19 92 192 19 92 192 19 92 192
19 92 192 19 92 192 19 92 192 19 92 192
19 92 192 19 92 192 19 92 192 19 92 192
19 92 192 19 92 192 19 92 192 19 92 192
19 92 192 19 92 192 19 92 192 19 92 192
19 92 192 19 92 192 19 92 192 19 92 192
19 92 192 19 92 192 19 92 192 19 92 192
19 92 192 19 92 192 19 92 192 19 92 192
19 92 192 19 92 192 19 92 192 19 92 192
19 92 192 19 92 192 19 92 192 19 92 192
19 92 192 19 92 192 19 92 192 19 92 192
19 92 192 19 92 192 19 92 192 19 92 192
19 92 192 19 92 192 19 92 192 19 92 192
19 92 192 19 92 192 19 92 192 19 92 192
19 92 192 19 92 192 19 92 192 19 92 192
19 92 192 19 92 192 19 92 192 19 92 192
19 92 192 19 92 192 19 92 192 19 92 192
19 92 192 19 92 192 19 92 192 19 92 192
19 92 192 19 92 192 19 92 192 19 92 192
19 92 192 19 92 192 19 92 192 19 92 192
19 92 192 19 92 192 19 92 192 19 92 192
19 92 192 19 92 192 19 92 192 19 92 192
19 92 192 19 92 192 19 92 192 19 92 192
19 92 192 19 92 192 19 92 192 19 92 192
19 92 192 19 92 192 19 92 192 19 92 192
19 92 192 19 92 192 19 92 192 19 92 192
19 92 192 19 92 192 19 92 192 19 92 192
19 92 192 19 92 192 19 92 192 19 92 192
19 92 192 19 92 192 19 92 192 19 92 192
19 92 192 19 92 192 19 92 192 19 92 192
19 92 192 19 92 192 19 92 192 19 92 192
19 92 192 19 92 192 19 92 192 19 92 192
19 92 192 19 92 192 19 92 192 19 92 192
19 92 192 19 92 192 19 92 192 19 92 192
19 92 192 19 92 192 19 92 192 19 92 192
19 92 192 19 92 192 19 92 192 19 92 192
19 92 192 19 92 192 19 92 192 19 92 192
19 92 192 19 92 192 19 92 192 19 92 192
19 92 192 19 92 192 19 92 192 19 92 192
19 92 192 19 92 192 19 92 192 19 92 192
19 92 192 19 92 192 19 92 192 19 92 192
19 92 192 19 92 192 19 92 192 19 92 192
19 92 192 19 92 192 19 92 192 19 92 192
19 92 192 19 92 192 19 92 192 19 92 192
19 92 192 19 92 192 19 92 192 19 92 192
19 92 192 19 92 192 19 92 192 19 92 192
19 92 192 19 92 192 19 92 192 19 92 192
19 92 192 19 92 192 19 92 192 19 92 192
19 92 192 19 92 192 19 92 192 19 92 192
19 92 192 19 92 192 19 92 192 19 92 192
19 92 192 19 92 192 19 92 192 19 92 192
19 92 192 19 92 192 19 92 192 19 92 192
19 92 192 19 92 192 19 92 192 19 92 192
19 92 192 19 92 192 19 92 192 19 92 192
19 92 192 19 92 192 19 92 192 19 92 192
19 92 192 19 92 192 19 92 192 19 92 192
19 92 192 19 92 192 19 92 192 19 92 192
19 92 192 19 92 192 19 92 192 19 92 192
19 92 192 19 92 192 19 92 192 19 92 192
19 92 192 19 92 192 19 92 192 19 92 192
19 92 192 19 92 192 19 92 192 19 92 192
19 92 192 19 92 192 19 92 192 19 92 192
19 92 192 19 92 192 19 92 192 19 92 192
19 92 192 19 92 192 19 92 192 19 92 192
19 92 192 19 92 192 19 92 192 19 92 192
19 92 192 19 92 192 19 92 192 19 92 192
19 92 192 19 92 192 19 92 192 19 92 192
19 92 192 19 92 192 19 92 192 19 92 192
19 92 192 19 92 192 19 92 192 19 92 192
19 92 192 19 92 192 19 92 192 19 92 192
19 92 192 19 92 192 19 92 192 19 92 192
19 92 192 19 92 192 19 92 192 19 92 192
19 92 192 19 92 192 19 92 192 19 92 192
19 92 192 19 92 192 19 92 192 19 92 192
19 92 192 19 92 192 19 92 192 19 92 192
19 92 192 19 92 192 19 92 192 19 92 192
19 92 192 19 92 192 19 92 192 19 92 192
19 92 192 19 92 192 19 92 192 19 92 192
19 92 192 19 92 192 19 92 192 19 92 192
19 92 192 19 92 192 19 92 192 19 92 192
19 92 192 19 92 192 19 92 192 19 92 192
19 92 192 19 92 192 19 92 192 19 92 192
19 92 192 19 92 192 19 92 192 19 92 192
19 92 192 19 92 192 19 92 192 19 92 192
19 92 192 19 92 192 19 92 192 19 92 192
19 92 192 19 92 192 19 92 192 19 92 192
19 92 192 19 92 192 19 92 192 19 92 192
19 92 192 19 92 192 19 92 192 19 92 192
19 92 192 19 92 192 19 92 192 19 92 192
19 92 192 19 92 192 19 92 192 19 92 192
19 92 192 19 92 192 19 92 192 19 92 192
19 92 192 19 92 192 19 92 192 19 92 192
19 92 192 19 92 192 19 92 192 19 92 192
19 92 192 19 92 192 19 92 192 19 92 192
19 92 192 19 92 192 19 92 192 19 92 192
19 92 192 19 92 192 19 92 192 19 92 192
19 92 192 19 92 192 19 92 192 19 92 192
19 92 192 19 92 192 19 92 192 19 92 192
19 92 192 19 92 192 19 92 192 19 92 192
19 92 192 19 92 192 19 92 192 19 92 192
19 92 192 19 92 192 19 92 192 19 92 192
19 92 192 19 92 192 19 92 192 19 92 192
19 92 192 19 92 192 19 92 192 19 92 192
19 92 192 19 92 192 19 92 192 19 92 192
19 92 192 19 92 192 19 92 192 19 92 192
19 92 192 19 92 192 19 92 192 19 92 192
19 92 192 19 92 192 19 92 192 19 92 192
19 92 192 19 92 192 19 92 192 19 92 192
19 92 192 19 92 192 19 92 192 19 92 192
19 92 192 19 92 192 19 92 192 19 92 192
19 92 192 19 92 192 19 92 192 19 92 192
19 92 192 19 92 192 19 92 192 19 92 192
19 92 192 19 92 192 19 92 192 19 92 192
19 92 192 19 92 192 19 92 192 19 92 192
19 92 192 19 92 192 19 92 192 19 92 192
19 92 192 19 92 192 19 92 192 19 92 192
19 92 192 19 92 192 19 92 192 19 92 192
19 92 192 19 92 192 19 92 192 19 92 192
19 92 192 19 92 192 19 92 192 19 92 192
19 92 192 19 92 192 19 92 192 19 92 192
19 92 192 19 92 192 19 92 192 19 92 192
19 92 192 19 92 192 19 92 192 19 92 192
19 92 192 19 92 192 19 92 192 19 92 192
19 92 192 19 92 192 19 92 192 19 92 192
19 92 192 19 92 192 19 92 192 19 92 192
19 92 192 19 92 192 19 92 192 19 92 192
19 92 192 19 92 192 19 92 192 19 92 192
19 92 192 19 92 192 19 92 192 19 92 192
19 92 192 19 92 192 19 92 192 19 92 192
19 92 192 19 92 192 19 92 192 19 92 192
19 92 192 19 92 192 19 92 192 19 92 192
19 92 192 19 92 192 19 92 192 19 92 192
19 92 192 19 92 192 19 92 192 19 92 192
19 92 192 19 92 192 19 92 192 19 92 192
19 92 192 19 92 192 19 92 192 19 92 192
19 92 192 19 92 192 19 92 192 19 92 192
19 92 192 19 92 192 19 92 192 19 92 192
19 92 192 19 92 192 19 92 192 19 92 192
19 92 192 19 92 192 19 92 192 19 92 192
19 92 192 19 92 192 19 92 192 19 92 192
19 92 192 19 92 192 19 92 192 19 92 192
19 92 192 19 92 192 19 92 192 19 92 192
19 92 192 19 92 192 19 92 192 19 92 192
19 92 192 19 92 192 19 92 192 19 92 192
19 92 192 19 92 192 19 92 192 19 92 192
19 92 192 19 92 192 19 92 192 19 92 192
19 92 192 19 92 192 19 92 192 19 92 192
19 92 192 19 92 192 19 92 192 19 92 192
19 92 192 19 92 192 19 92 192 19 92 192
19 92 192 19 92 192 19 92 192 19 92 192
19 92 192 19 92 192 19 92 192 19 92 192
19 92 192 19 92 192 19 92 192 19 92 192
19 92 192 19 92 192 19 92 192 19 92 192
19 92 192 19 92 192 19 92 192 19 92 192
19 92 192 19 92 192 19 92 192 19 92 192
19 92 192 19 92 192 19 92 192 19 92 192
19 92 192 19 92 192 19 92 192 19 92 192
19 92 192 19 92 192 19 92 192 19 92 192
19 92 192 19 92 192 19 92 192 19 92 192
19 92 192 19 92 192 19 92 192 19 92 192
19 92 192 19 92 192 19 92 192 19 92 192
19 92 192 19 92 192 19 92 192 19 92 192
19 92 192 19 92 192 19 92 192 19 92 192
19 92 192 19 92 192 19 92 192 19 92 192
19 92 192 19 92 192 19 92 192 19 92 192
19 92 192 19 92 192 19 92 192 19 92 192
19 92 192 19 92 192 19 92 192 19 92 192
19 92 192 19 92 192 19 92 192 19 92 192
19 92 192 19 92 192 19 92 192 19 92 192
19 92 192 19 92 192 19 92 192 19 92 192
19 92 192 19 92 192 19 92 192 19 92 192
19 92 192 19 92 192 19 92 192 19 92 192
19 92 192 19 92 192 19 92 192 19 92 192
19 92 192 19 92 192 19 92 192 19 92 192
19 92 192 19 92 192 19 92 192 19 92 192
19 92 192 19 92 192 19 92 192 19 92 192
19 92 192 19 92 192 19 92 192 19 92 192
19 92 192 19 92 192 19 92 192 19 92 192
19 92 192 19 92 192 19 92 192 19 92 192
19 92 192 19 92 192 19 92 192 19 92 192
19 92 192 19 92 192 19 92 192 19 92 192
19 92 192 19 92 192 19 92 192 19 92 192
19 92 192 19 92 192 19 92 192 19 92 192
19 92 192 19 92 192 19 92 192 19 92 192
19 92 192 19 92 192 19 92 192 19 92 192
19 92 192 19 92 192 19 92 192 19 92 192
19 92 192 19 92 192 19 92 192 19 92 192
19 92 192 19 92 192 19 92 192 19 92 192
19 92 192 19 92 192 19 92 192 19 92 192
19 92 192 19 92 192 19 92 192 19 92 192
19 92 192 19 92 192 19 92 192 19 92 192
19 92 192 19 92 192 19 92 192 19 92 192
19 92 192 19 92 192 19 92 192 19 92 192
19 92 192 19 92 192 19 92 192 19 92 192
19 92 192 19 92 192 19 92 192 19 92 192
19 92 192 19 92 192 19 92 192 19 92 192
19 92 192 19 92 192 19 92 192 19 92 192
19 92 192 19 92 192 19 92 192 19 92 192
19 92 192 19 92 192 19 92 192 19 92 192
19 92 192 19 92 192 19 92 192 19 92 192
19 92 192 19 92 192 19 92 192 19 92 192
19 92 192 19 92 192 19 92 192 19 92 192
19 92 192 19 92 192 19 92 192 19 92 192
19 92 192 19 92 192 19 92 192 19 92 192
19 92 192 19 92 192 19 92 192 19 92 192
19 92 192 19 92 192 19 92 192 19 92 192
19 92 192 19 92 192 19 92 192 19 92 192
19 92 192 19 92 192 19 92 192 19 92 192
19 92 192 19 92 192 19 92 192 19 92 192
19 92 192 19 92 192 19 92 192 19 92 192
19 92 192 19 92 192 19 92 192 19 92 192
19 92 192 19 92 192 19 92 192 19 92 192
19 92 192 19 92 192 19 92 192 19 92 192
19 92 192 19 92 192 19 92 192 19 92 192
19 92 192 19 92 192 19 92 192 19 92 192
19 92 192 19 92 192 19 92 192 19 92 192
19 92 192 19 92 192 19 92 192 19 92 192
19 92 192 19 92 192 19 92 192 19 92 192
19 92 192 19 92 192 19 92 192 19 92 192
19 92 192 19 92 192 19 92 192 19 92 192
19 92 192 19 92 192 19 92 192 19 92 192
19 92 192 19 92 192 19 92 192 19 92 192
19 92 192 19 92 192 19 92 192 19 92 192
19 92 192 19 92 192 19 92 192 19 92 192
19 92 192 19 92 192 19 92 192 19 92 192
19 92 192 19 92 192 19 92 192 19 92 192
19 92 192 19 92 192 19 92 192 19 92 192
19 92 192 19 92 192 19 92 192 19 92 192
19 92 192 19 92 192 19 92 192 19 92 192
19 92 192 19 92 192 19 92 192 19 92 192
19 92 192 19 92 192 19 92 192 19 92 192
19 92 192 19 92 192 19 92 192 19 92 192
19 92 192 19 92 192 19 92 192 19 92 192
19 92 192 19 92 192 19 92 192 19 92 192
19 92 192 19 92 192 19 92 192 19 92 192
19 92 192 19 92 192 19 92 192 19 92 192
19 92 192 19 92 192 19 92 192 19 92 192
19 92 192 19 92 192 19 92 192 19 92 192
19 92 192 19 92 192 19 92 192 19 92 192
19 92 192 19 92 192 19 92 192 19 92 192
19 92 192 19 92 192 19 92 192 19 92 192
19 92 192 19 92 192 19 92 192 19 92 192
19 92 192 19 92 192 19 92 192 19 92 192
19 92 192 19 92 192 19 92 192 19 92 192
19 92 192 19 92 192 19 92 192 19 92 192
19 92 192 19 92 192 19 92 192 19 92 192
19 92 192 19 92 192 19 92 192 19 92 192
19 92 192 19 92 192 19 92 192 19 92 192
19 92 192 19 92 192 19 92 192 19 92 192
19 92 192 19 92 192 19 92 192 19 92 192
19 92 192 19 92 192 19 92 192 19 92 192
19 92 192 19 92 192 19 92 192 19 92 192
19 92 192 19 92 192 19 92 192 19 92 192
19 92 192 19 92 192 19 92 192 19 92 192
19 92 192 19 92 192 19 92 192 19 92 192
19 92 192 19 92 192 19 92 192 19 92 192
19 92 192 19 92 192 19 92 192 19 92 192
19 92 192 19 92 192 19 92 192 19 92 192
19 92 192 19 92 192 19 92 192 19 92 192
19 92 192 19 92 192 19 92 192 19 92 192
19 92 192 19 92 192 19 92 192 19 92 192
19 92 192 19 92 192 19 92 192 19 92 192
19 92 192 19 92 192 19 92 192 19 92 192
19 92 192 19 92 192 19 92 192 19 92 192
19 92 192 19 92 192 19 92 192 19 92 192
19 92 192 19 92 192 19 92 192 19 92 192
19 92 192 19 92 192 19 92 192 19 92 192
19 92 192 19 92 192 19 92 192 19 92 192
19 92 192 19 92 192 19 92 192 19 92 192
19 92 192 19 92 192 19 92 192 19 92 192
19 92 192 19 92 192 19 92 192 19 92 192
19 92 192 19 92 192 19 92 192 19 92 192
19 92 192 19 92 192 19 92 192 19 92 192
19 92 192 19 92 192 19 92 192 19 92 192
19 92 192 19 92 192 19 92 192 19 92 192
19 92 192 19 92 192 19 92 192 19 92 192
19 92 192 19 92 192 19 92 192 19 92 192
19 92 192 19 92 192 19 92 192 19 92 192
19 92 192 19 92 192 19 92 192 19 92 192
19 92 192 19 92 192 19 92 192 19 92 192
19 92 192 19 92 192 19 92 192 19 92 192
19 92 192 19 92 192 19 92 192 19 92 192
19 92 192 19 92 192 19 92 192 19 92 192
19 92 192 19 92 192 19 92 192 19 92 192
19 92 192 19 92 192 19 92 192 19 92 192
19 92 192 19 92 192 19 92 192 19 92 192
19 92 192 19 92 192 19 92 192 19 92 192
19 92 192 19 92 192 19 92 192 19 92 192
19 92 192 19 92 192 19 92 192 19 92 192
19 92 192 19 92 192 19 92 192 19 92 192
19 92 192 19 92 192 19 92 192 19 92 192
19 92 192 19 92 192 19 92 192 19 92 192
19 92 192 19 92 192 19 92 192 19 92 192
19 92 192 19 92 192 19 92 192 19 92 192
19 92 192 19 92 192 19 92 192 19 92 192
19 92 192 19 92 192 19 92 192 19 92 192
19 92 192 19 92 192 19 92 192 19 92 192
19 92 192 19 92 192 19 92 192 19 92 192
19 92 192 19 92 192 19 92 192 19 92 192
19 92 192 19 92 192 19 92 192 19 92 192
19 92 192 19 92 192 19 92 192 19 92 192
19 92 192 19 92 192 19 92 192 19 92 192
19 92 192 19 92 192 19 92 192 19 92 192
19 92 192 19 92 192 19 92 192 19 92 192
19 92 192 19 92 192 19 92 192 19 92 192
19 92 192 19 92 192 19 92 192 19 92 192
19 92 192 19 92 192 19 92 192 19 92 192
19 92 192 19 92 192 19 92 192 19 92 192
19 92 192 19 92 192 19 92 192 19 92 192
19 92 192 19 92 192 19 92 192 19 92 192
19 92 192 19 92 192 19 92 192 19 92 192
19 92 192 19 92 192 19 92 192 19 92 192
19 92 192 19 92 192 19 92 192 19 92 192
19 92 192 19 92 192 19 92 192 19 92 192
19 92 192 19 92 192 19 92 192 19 92 192
19 92 192 19 92 192 19 92 192 19 92 192
19 92 192 19 92 192 19 92 192 19 92 192
19 92 192 19 92 192 19 92 192 19 92 192
19 92 192 19 92 192 19 92 192 19 92 192
19 92 192 19 92 192 19 92 192 19 92 192
19 92 192 19 92 192 19 92 192 19 92 192
19 92 192 19 92 192 19 92 192 19 92 192
19 92 192 19 92 192 19 92 192 19 92 192
19 92 192 19 92 192 19 92 192 19 92 192
19 92 192 19 92 192 19 92 192 19 92 192
19 92 192 19 92 192 19 92 192 19 92 192
19 92 192 19 92 192 19 92 192 19 92 192
19 92 192 19 92 192 19 92 192 19 92 192
19 92 192 19 92 192 19 92 192 19 92 192
19 92 192 19 92 192 19 92 192 19 92 192
19 92 192 19 92 192 19 92 192 19 92 192
19 92 192 19 92 192 19 92 192 19 92 192
19 92 192 19 92 192 19 92 192 19 92 192
19 92 192 19 92 192 19 92 192 19 92 192
19 92 192 19 92 192 19 92 192 19 92 192
19 92 192 19 92 192 19 92 192 19 92 192
19 92 192 19 92 192 19 92 192 19 92 192
19 92 192 19 92 192 19 92 192 19 92 192
19 92 192 19 92 192 19 92 192 19 92 192
19 92 192 19 92 192 19 92 192 19 92 192
19 92 192 19 92 192 19 92 192 19 92 192
19 92 192 19 92 192 19 92 192 19 92 192
19 92 192 19 92 192 19 92 192 19 92 192
19 92 192 19 92 192 19 92 192 19 92 192
19 92 192 19 92 192 19 92 192 19 92 192
19 92 192 19 92 192 19 92 192 19 92 192
19 92 192 19 92 192 19 92 192 19 92 192
19 92 192 19 92 192 19 92 192 19 92 192
19 92 192 19 92 192 19 92 192 19 92 192
19 92 192 19 92 192 19 92 192 19 92 192
19 92 192 19 92 192 19 92 192 19 92 192
19 92 192 19 92 192 19 92 192 19 92 192
19 92 192 19 92 192 19 92 192 19 92 192
19 92 192 19 92 192 19 92 192 19 92 192
19 92 192 19 92 192 19 92 192 19 92 192
19 92 192 19 92 192 19 92 192 19 92 192
19 92 192 19 92 192 19 92 192 19 92 192
19 92 192 19 92 192 19 92 192 19 92 192
19 92 192 19 92 192 19 92 192 19 92 192
19 92 192 19 92 192 19 92 192 19 92 192
19 92 192 19 92 192 19 92 192 19 92 192
19 92 192 19 92 192 19 92 192 19 92 192
19 92 192 19 92 192 19 92 192 19 92 192
19 92 192 19 92 192 19 92 192 19 92 192
19 92 192 19 92 192 19 92 192 19 92 192
19 92 192 19 92 192 19 92 192 19 92 192
19 92 192 19 92 192 19 92 192 19 92 192
19 92 192 19 92 192 19 92 192 19 92 192
19 92 192 19 92 192 19 92 192 19 92 192
19 92 192 19 92 192 19 92 192 19 92 192
19 92 192 19 92 192 19 92 192 19 92 192
19 92 192 19 92 192 19 92 192 19 92 192
19 92 192 19 92 192 19 92 192 19 92 192
19 92 192 19 92 192 19 92 192 19 92 192
19 92 192 19 92 192 19 92 192 19 92 192
19 92 192 19 92 192 19 92 192 19 92 192
19 92 192 19 92 192 19 92 192 19 92 192
19 92 192 19 92 192 19 92 192 19 92 192
19 92 192 19 92 192 19 92 192 19 92 192
19 92 192 19 92 192 19 92 192 19 92 192
19 92 192 19 92 192 19 92 192 19 92 192
19 92 192 19 92 192 19 92 192 19 92 192
19 92 192 19 92 192 19 92 192 19 92 192
19 92 192 19 92 192 19 92 192 19 92 192
19 92 192 19 92 192 19 92 192 19 92 192
19 92 192 19 92 192 19 92 192 19 92 192
19 92 192 19 92 192 19 92 192 19 92 192
19 92 192 19 92 192 19 92 192 19 92 192
19 92 192 19 92 192 19 92 192 19 92 192
19 92 192 19 92 192 19 92 192 19 92 192
19 92 192 19 92 192 19 92 192 19 92 192
19 92 192 19 92 192 19 92 192 19 92 192
19 92 192 19 92 192 19 92 192 19 92 192
19 92 192 19 92 192 19 92 192 19 92 192
19 92 192 19 92 192 19 92 192 19 92 192
19 92 192 19 92 192 19 92 192 19 92 192
19 92 192 19 92 192 19 92 192 19 92 192
19 92 192 19 92 192 19 92 192 19 92 192
19 92 192 19 92 192 19 92 192 19 92 192
19 92 192 19 92 192 19 92 192 19 92 192
19 92 192 19 92 192 19 92 192 19 92 192
19 92 192 19 92 192 19 92 192 19 92 192
19 92 192 19 92 192 19 92 192 19 92 192
19 92 192 19 92 192 19 92 192 19 92 192
19 92 192 19 92 192 19 92 192 19 92 192
19 92 192 19 92 192 19 92 192 19 92 192
19 92 192 19 92 192 19 92 192 19 92 192
19 92 192 19 92 192 19 92 192 19 92 192
19 92 192 19 92 192 19 92 192 19 92 192
19 92 192 19 92 192 19 92 192 19 92 192
19 92 192 19 92 192 19 92 192 19 92 192
19 92 192 19 92 192 19 92 192 19 92 192
19 92 192 19 92 192 19 92 192 19 92 192
19 92 192 19 92 192 19 92 192 19 92 192
19 92 192 19 92 192 19 92 192 19 92 192
19 92 192 19 92 192 19 92 192 19 92 192
19 92 192 19 92 192 19 92 192 19 92 192
19 92 192 19 92 192 19 92 192 19 92 192
19 92 192 19 92 192 19 92 192 19 92 192
19 92 192 19 92 192 19 92 192 19 92 192
19 92 192 19 92 192 19 92 192 19 92 192
19 92 192 19 92 192 19 92 192 19 92 192
19 92 192 19 92 192 19 92 192 19 92 192
19 92 192 19 92 192 19 92 192 19 92 192
19 92 192 19 92 192 19 92 192 19 92 192
19 92 192 19 92 192 19 92 192 19 92 192
19 92 192 19 92 192 19 92 192 19 92 192
19 92 192 19 92 192 19 92 192 19 92 192
19 92 192 19 92 192 19 92 192 19 92 192
19 92 192 19 92 192 19 92 192 19 92 192
19 92 192 19 92 192 19 92 192 19 92 192
19 92 192 19 92 192 19 92 192 19 92 192
19 92 192 19 92 192 19 92 192 19 92 192
19 92 192 19 92 192 19 92 192 19 92 192
19 92 192 19 92 192 19 92 192 19 92 192
19 92 192 19 92 192 19 92 192 19 92 192
19 92 192 19 92 192 19 92 192 19 92 192
19 92 192 19 92 192 19 92 192 19 92 192
19 92 192 19 92 192 19 92 192 19 92 192
19 92 192 19 92 192 19 92 192 19 92 192
19 92 192 19 92 192 19 92 192 19 92 192
19 92 192 19 92 192 19 92 192 19 92 192
19 92 192 19 92 192 19 92 192 19 92 192
19 92 192 19 92 192 19 92 192 19 92 192
19 92 192 19 92 192 19 92 192 19 92 192
19 92 192 19 92 192 19 92 192 19 92 192
19 92 192 19 92 192 19 92 192 19 92 192
19 92 192 19 92 192 19 92 192 19 92 192
19 92 192 19 92 192 19 92 192 19 92 192
19 92 192 19 92 192 19 92 192 19 92 192
19 92 192 19 92 192 19 92 192 19 92 192
19 92 192 19 92 192 19 92 192 19 92 192
19 92 192 19 92 192 19 92 192 19 92 192
19 92 192 19 92 192 19 92 192 19 92 192
19 92 192 19 92 192 19 92 192 19 92 192
19 92 192 19 92 192 19 92 192 19 92 192
19 92 192 19 92 192 19 92 192 19 92 192
19 92 192 19 92 192 19 92 192 19 92 192
19 92 192 19 92 192 19 92 192 19 92 192
19 92 192 19 92 192 19 92 192 19 92 192
19 92 192 19 92 192 19 92 192 19 92 192
19 92 192 19 92 192 19 92 192 19 92 192
19 92 192 19 92 192 19 92 192 19 92 192
19 92 192 19 92 192 19 92 192 19 92 192
19 92 192 19 92 192 19 92 192 19 92 192
19 92 192 19 92 192 19 92 192 19 92 192
19 92 192 19 92 192 19 92 192 19 92 192
19 92 192 19 92 192 19 92 192 19 92 192
19 92 192 19 92 192 19 92 192 19 92 192
19 92 192 19 92 192 19 92 192 19 92 192
19 92 192 19 92 192 19 92 192 19 92 192
19 92 192 19 92 192 19 92 192 19 92 192
19 92 192 19 92 192 19 92 192 19 92 192
19 92 192 19 92 192 19 92 192 19 92 192
19 92 192 19 92 192 19 92 192 19 92 192
19 92 192 19 92 192 19 92 192 19 92 192
19 92 192 19 92 192 19 92 192 19 92 192
19 92 192 19 92 192 19 92 192 19 92 192
19 92 192 19 92 192 19 92 192 19 92 192
19 92 192 19 92 192 19 92 192 19 92 192
19 92 192 19 92 192 19 92 192 19 92 192
19 92 192 19 92 192 19 92 192 19 92 192
19 92 192 19 92 192 19 92 192 19 92 192
19 92 192 19 92 192 19 92 192 19 92 192
19 92 192 19 92 192 19 92 192 19 92 192
19 92 192 19 92 192 19 92 192 19 92 192
19 92 192 19 92 192 19 92 192 19 92 192
19 92 192 19 92 192 19 92 192 19 92 192
19 92 192 19 92 192 19 92 192 19 92 192
19 92 192 19 92 192 19 92 192 19 92 192
19 92 192 19 92 192 19 92 192 19 92 192
19 92 192 19 92 192 19 92 192 19 92 192
19 92 192 19 92 192 19 92 192 19 92 192
19 92 192 19 92 192 19 92 192 19 92 192
19 92 192 19 92 192 19 92 192 19 92 192
19 92 192 19 92 192 19 92 192 19 92 192
19 92 192 19 92 192 19 92 192 19 92 192
19 92 192 19 92 192 19 92 192 19 92 192
19 92 192 19 92 192 19 92 192 19 92 192
19 92 192 19 92 192 19 92 192 19 92 192
19 92 192 19 92 192 19 92 192 19 92 192
19 92 192 19 92 192 19 92 192 19 92 192
19 92 192 19 92 192 19 92 192 19 92 192
19 92 192 19 92 192 19 92 192 19 92 192
19 92 192 19 92 192 19 92 192 19 92 192
19 92 192 19 92 192 19 92 192 19 92 192
19 92 192 19 92 192 19 92 192 19 92 192
19 92 192 19 92 192 19 92 192 19 92 192
19 92 192 19 92 192 19 92 192 19 92 192
19 92 192 19 92 192 19 92 192 19 92 192
19 92 192 19 92 192 19 92 192 19 92 192
19 92 192 19 92 192 19 92 192 19 92 192
19 92 192 19 92 192 19 92 192 19 92 192
19 92 192 19 92 192 19 92 192 19 92 192
19 92 192 19 92 192 19 92 192 19 92 192
19 92 192 19 92 192 19 92 192 19 92 192
19 92 192 19 92 192 19 92 192 19 92 192
19 92 192 19 92 192 19 92 192 19 92 192
19 92 192 19 92 192 19 92 192 19 92 192
19 92 192 19 92 192 19 92 192 19 92 192
19 92 192 19 92 192 19 92 192 19 92 192
19 92 192 19 92 192 19 92 192 19 92 192
19 92 192 19 92 192 19 92 192 19 92 192
19 92 192 19 92 192 19 92 192 19 92 192
19 92 192 19 92 192 19 92 192 19 92 192
19 92 192 19 92 192 19 92 192 19 92 192
19 92 192 19 92 192 19 92 192 19 92 192
19 92 192 19 92 192 19 92 192 19 92 192
19 92 192 19 92 192 19 92 192 19 92 192
19 92 192 19 92 192 19 92 192 19 92 192
19 92 192 19 92 192 19 92 192 19 92 192
19 92 192 19 92 192 19 92 192 19 92 192
19 92 192 19 92 192 19 92 192 19 92 192
19 92 192 19 92 192 19 92 192 19 92 192
19 92 192 19 92 192 19 92 192 19 92 192
19 92 192 19 92 192 19 92 192 19 92 192
19 92 192 19 92 192 19 92 192 19 92 192
19 92 192 19 92 192 19 92 192 19 92 192
19 92 192 19 92 192 19 92 192 19 92 192
19 92 192 19 92 192 19 92 192 19 92 192
19 92 192 19 92 192 19 92 192 19 92 192
19 92 192 19 92 192 19 92 192 19 92 192
19 92 192 19 92 192 19 92 192 19 92 192
19 92 192 19 92 192 19 92 192 19 92 192
19 92 192 19 92 192 19 92 192 19 92 192
19 92 192 19 92 192 19 92 192 19 92 192
19 92 192 19 92 192 19 92 192 19 92 192
19 92 192 19 92 192 19 92 192 19 92 192
19 92 192 19 92 192 19 92 192 19 92 192
19 92 192 19 92 192 19 92 192 19 92 192
19 92 192 19 92 192 19 92 192 19 92 192
19 92 192 19 92 192 19 92 192 19 92 192
19 92 192 19 92 192 19 92 192 19 92 192
19 92 192 19 92 192 19 92 192 19 92 192
19 92 192 19 92 192 19 92 192 19 92 192
19 92 192 19 92 192 19 92 192 19 92 192
19 92 192 19 92 192 19 92 192 19 92 192
19 92 192 19 92 192 19 92 192 19 92 192
19 92 192 19 92 192 19 92 192 19 92 192
19 92 192 19 92 192 19 92 192 19 92 192
19 92 192 19 92 192 19 92 192 19 92 192
19 92 192 19 92 192 19 92 192 19 92 192
19 92 192 19 92 192 19 92 192 19 92 192
19 92 192 19 92 192 19 92 192 19 92 192
19 92 192 19 92 192 19 92 192 19 92 192
19 92 192 19 92 192 19 92 192 19 92 192
19 92 192 19 92 192 19 92 192 19 92 192
19 92 192 19 92 192 19 92 192 19 92 192
19 92 192 19 92 192 19 92 192 19 92 192
19 92 192 19 92 192 19 92 192 19 92 192
19 92 192 19 92 192 19 92 192 19 92 192
19 92 192 19 92 192 19 92 192 19 92 192
19 92 192 19 92 192 19 92 192 19 92 192
19 92 192 19 92 192 19 92 192 19 92 192
19 92 192 19 92 192 19 92 192 19 92 192
19 92 192 19 92 192 19 92 192 19 92 192
19 92 192 19 92 192 19 92 192 19 92 192
19 92 192 19 92 192 19 92 192 19 92 192
19 92 192 19 92 192 19 92 192 19 92 192
19 92 192 19 92 192 19 92 192 19 92 192
19 92 192 19 92 192 19 92 192 19 92 192
19 92 192 19 92 192 19 92 192 19 92 192
19 92 192 19 92 192 19 92 192 19 92 192
19 92 192 19 92 192 19 92 192 19 92 192
19 92 192 19 92 192 19 92 192 19 92 192
19 92 192 19 92 192 19 92 192 19 92 192
19 92 192 19 92 192 19 92 192 19 92 192
19 92 192 19 92 192 19 92 192 19 92 192
19 92 192 19 92 192 19 92 192 19 92 192
19 92 192 19 92 192 19 92 192 19 92 192
19 92 192 19 92 192 19 92 192 19 92 192
19 92 192 19 92 192 19 92 192 19 92 192
19 92 192 19 92 192 19 92 192 19 92 192
91 55 32 101 79 76 106 81 76 109 83 77
111 84 77 110 83 77 108 82 77 104 80 76
95 57 32 19 92 192 19 92 192 19 92 192
19 92 192 19 92 192 19 92 192 19 92 192
19 92 192 19 92 192 19 92 192 19 92 192
19 92 192 19 92 192 19 92 192 19 92 192
19 92 192 19 92 192 19 92 192 19 92 192
19 92 192 19 92 192 19 92 192 19 92 192
19 92 192 19 92 192 19 92 192 19 92 192
19 92 192 19 92 192 19 92 192 19 92 192
19 92 192 19 92 192 19 92 192 19 92 192
19 92 192 19 92 192 19 92 192 19 92 192
19 92 192 19 92 192 19 92 192 19 92 192
19 92 192 19 92 192 19 92 192 19 92 192
19 92 192 19 92 192 19 92 192 19 92 192
19 92 192 19 92 192 19 92 192 19 92 192
19 92 192 19 92 192 19 92 192 19 92 192
19 92 192 19 92 192 19 92 192 19 92 192
19 92 192 19 92 192 19 92 192 19 92 192
19 92 192 19 92 192 19 92 192 19 92 192
19 92 192 19 92 192 19 92 192 19 92 192
19 92 192 19 92 192 19 92 192 19 92 192
19 92 192 19 92 192 19 92 192 19 92 192
19 92 192 19 92 192 19 92 192 19 92 192
19 92 192 19 92 192 19 92 192 19 92 192
19 92 192 19 92 192 19 92 192 19 92 192
19 92 192 19 92 192 19 92 192 19 92 192
19 92 192 19 92 192 19 92 192 19 92 192
19 92 192 19 92 192 19 92 192 19 92 192
19 92 192 19 92 192 19 92 192 19 92 192
19 92 192 19 92 192 19 92 192 19 92 192
19 92 192 19 92 192 19 92 192 19 92 192
19 92 192 19 92 192 19 92 192 19 92 192
19 92 192 19 92 192 19 92 192 19 92 192
19 92 192 19 92 192 19 92 192 19 92 192
19 92 192 19 92 192 19 92 192 19 92 192
19 92 192 19 92 192 19 92 192 19 92 192
19 92 192 19 92 192 19 92 192 19 92 192
19 92 192 19 92 192 19 92 192 19 92 192
19 92 192 19 92 192 19 92 192 19 92 192
19 92 192 19 92 192 19 92 192 19 92 192
19 92 192 19 92 192 19 92 192 19 92 192
19 92 192 19 92 192 19 92 192 19 92 192
19 92 192 19 92 192 19 92 192 19 92 192
19 92 192 19 92 192 19 92 192 19 92 192
19 92 192 19 92 192 19 92 192 19 92 192
19 92 192 19 92 192 19 92 192 19 92 192
19 92 192 19 92 192 19 92 192 19 92 192
19 92 192 19 92 192 19 92 192 19 92 192
19 92 192 19 92 192 19 92 192 19 92 192
19 92 192 19 92 192 19 92 192 19 92 192
19 92 192 19 92 192 19 92 192 19 92 192
19 92 192 19 92 192 19 92 192 19 92 192
19 92 192 19 92 192 19 92 192 19 92 192
19 92 192 19 92 192 19 92 192 19 92 192
19 92 192 19 92 192 19 92 192 19 92 192
19 92 192 19 92 192 19 92 192 19 92 192
19 92 192 19 92 192 19 92 192 19 92 192
19 92 192 19 92 192 19 92 192 19 92 192
19 92 192 19 92 192 19 92 192 19 92 192
19 92 192 19 92 192 19 92 192 19 92 192
19 92 192 19 92 192 19 92 192 19 92 192
19 92 192 19 92 192 19 92 192 19 92 192
110 83 77 116 86 77 122 89 78 126 91 78
126 91 78 127 92 78 127 92 79 128 92 79
128 93 79 128 93 79 128 93 79 128 93 79
128 92 79 128 92 79 125 91 78 121 89 78
116 86 77 19 92 192 19 92 192 19 92 192
19 92 192 19 92 192 19 92 192 19 92 192
19 92 192 19 92 192 19 92 192 19 92 192
19 92 192 19 92 192 19 92 192 19 92 192
19 92 192 19 92 192 19 92 192 19 92 192
19 92 192 19 92 192 19 92 192 19 92 192
19 92 192 19 92 192 19 92 192 19 92 192
19 92 192 19 92 192 19 92 192 19 92 192
19 92 192 19 92 192 19 92 192 19 92 192
19 92 192 19 92 192 19 92 192 19 92 192
19 92 192 19 92 192 19 92 192 19 92 192
19 92 192 19 92 192 19 92 192 19 92 192
19 92 192 19 92 192 19 92 192 19 92 192
19 92 192 19 92 192 19 92 192 19 92 192
19 92 192 19 92 192 19 92 192 19 92 192
19 92 192 19 92 192 19 92 192 19 92 192
19 92 192 19 92 192 19 92 192 19 92 192
19 92 192 19 92 192 19 92 192 19 92 192
19 92 192 19 92 192 19 92 192 19 92 192
19 92 192 19 92 192 19 92 192 19 92 192
19 92 192 19 92 192 19 92 192 19 92 192
19 92 192 19 92 192 19 92 192 19 92 192
19 92 192 19 92 192 19 92 192 19 92 192
19 92 192 19 92 192 19 92 192 19 92 192
19 92 192 19 92 192 19 92 192 19 92 192
19 92 192 19 92 192 19 92 192 19 92 192
19 92 192 19 92 192 19 92 192 19 92 192
19 92 192 19 92 192 19 92 192 19 92 192
19 92 192 19 92 192 19 92 192 19 92 192
19 92 192 19 92 192 19 92 192 19 92 192
19 92 192 19 92 192 19 92 192 19 92 192
19 92 192 19 92 192 19 92 192 19 92 192
19 92 192 19 92 192 19 92 192 19 92 192
19 92 192 19 92 192 19 92 192 19 92 192
19 92 192 19 92 192 19 92 192 19 92 192
19 92 192 19 92 192 19 92 192 19 92 192
19 92 192 19 92 192 19 92 192 19 92 192
19 92 192 19 92 192 19 92 192 19 92 192
19 92 192 19 92 192 19 92 192 19 92 192
19 92 192 19 92 192 19 92 192 19 92 192
19 92 192 19 92 192 19 92 192 19 92 192
19 92 192 19 92 192 19 92 192 19 92 192
19 92 192 19 92 192 19 92 192 19 92 192
19 92 192 19 92 192 19 92 192 19 92 192
19 92 192 19 92 192 19 92 192 19 92 192
19 92 192 19 92 192 19 92 192 19 92 192
19 92 192 19 92 192 19 92 192 19 92 192
19 92 192 19 92 192 19 92 192 19 92 192
19 92 192 19 92 192 19 92 192 19 92 192
19 92 192 19 92 192 19 92 192 19 92 192
19 92 192 19 92 192 19 92 192 19 92 192
19 92 192 19 92 192 19 92 192 19 92 192
19 92 192 19 92 192 19 92 192 19 92 192
19 92 192 19 92 192 19 92 192 19 92 192
19 92 192 19 92 192 19 92 192 19 92 192
19 92 192 19 92 192 19 92 192 19 92 192
19 92 192 19 92 192 19 92 192 19 92 192
19 92 192 19 92 192 19 92 192 19 92 192
19 92 192 19 92 192 19 92 192 19 92 192
19 92 192 71 45 30 119 88 78 125 91 78
128 93 79 132 94 79 134 95 79 134 96 79
135 96 79 136 96 79 136 96 79 136 97 79
137 97 79 137 97 79 137 97 79 137 97 79
137 97 79 137 97 79 136 97 79 136 96 79
134 95 79 131 94 79 127 92 78 11 15 24
19 92 192 19 92 192 19 92 192 19 92 192
19 92 192 19 92 192 19 92 192 19 92 192
19 92 192 19 92 192 19 92 192 19 92 192
19 92 192 19 92 192 19 92 192 19 92 192
19 92 192 19 92 192 19 92 192 19 92 192
19 92 192 19 92 192 19 92 192 19 92 192
19 92 192 19 92 192 19 92 192 19 92 192
19 92 192 19 92 192 19 92 192 19 92 192
19 92 192 19 92 192 19 92 192 19 92 192
19 92 192 19 92 192 19 92 192 19 92 192
19 92 192 19 92 192 19 92 192 19 92 192
19 92 192 19 92 192 19 92 192 19 92 192
19 92 192 19 92 192 19 92 192 19 92 192
19 92 192 19 92 192 19 92 192 19 92 192
19 92 192 19 92 192 19 92 192 19 92 192
19 92 192 19 92 192 19 92 192 19 92 192
19 92 192 19 92 192 19 92 192 19 92 192
19 92 192 19 92 192 19 92 192 19 92 192
19 92 192 19 92 192 19 92 192 19 92 192
19 92 192 19 92 192 19 92 192 19 92 192
19 92 192 19 92 192 19 92 192 19 92 192
19 92 192 19 92 192 19 92 192 19 92 192
19 92 192 19 92 192 19 92 192 19 92 192
19 92 192 19 92 192 19 92 192 19 92 192
19 92 192 19 92 192 19 92 192 19 92 192
19 92 192 19 92 192 19 92 192 19 92 192
19 92 192 19 92 192 19 92 192 19 92 192
19 92 192 19 92 192 19 92 192 19 92 192
19 92 192 19 92 192 19 92 192 19 92 192
19 92 192 19 92 192 19 92 192 19 92 192
19 92 192 19 92 192 19 92 192 19 92 192
19 92 192 19 92 192 19 92 192 19 92 192
19 92 192 19 92 192 19 92 192 19 92 192
19 92 192 19 92 192 19 92 192 19 92 192
19 92 192 19 92 192 19 92 192 19 92 192
19 92 192 19 92 192 19 92 192 19 92 192
19 92 192 19 92 192 19 92 192 19 92 192
19 92 192 19 92 192 19 92 192 19 92 192
19 92 192 19 92 192 19 92 192 19 92 192
19 92 192 19 92 192 19 92 192 19 92 192
19 92 192 19 92 192 19 92 192 19 92 192
19 92 192 19 92 192 19 92 192 19 92 192
19 92 192 19 92 192 19 92 192 19 92 192
19 92 192 19 92 192 19 92 192 19 92 192
19 92 192 19 92 192 19 92 192 19 92 192
19 92 192 19 92 192 19 92 192 19 92 192
19 92 192 19 92 192 19 92 192 19 92 192
19 92 192 19 92 192 19 92 192 19 92 192
19 92 192 19 92 192 19 92 192 19 92 192
19 92 192 19 92 192 19 92 192 19 92 192
19 92 192 19 92 192 19 92 192 19 92 192
19 92 192 19 92 192 19 92 192 19 92 192
19 92 192 19 92 192 19 92 192 19 92 192
19 92 192 19 92 192 19 92 192 19 92 192
19 92 192 19 92 192 19 92 192 19 92 192
19 92 192 19 92 192 19 92 192 19 92 192
19 92 192 19 92 192 19 92 192 19 92 192
19 92 192 19 92 192 19 92 192 19 92 192
97 77 76 121 89 78 133 95 79 137 97 80
139 98 80 141 99 80 142 99 80 142 100 80
142 100 80 143 100 80 143 100 80 143 100 80
144 100 80 144 100 80 144 100 80 144 100 80
144 101 80 145 101 80 146 101 80 146 101 80
145 101 80 143 100 80 141 99 80 133 95 79
112 85 77 19 92 192 19 92 192 19 92 192
19 92 192 19 92 192 19 92 192 19 92 192
19 92 192 19 92 192 19 92 192 19 92 192
19 92 192 19 92 192 19 92 192 19 92 192
19 92 192 19 92 192 19 92 192 19 92 192
19 92 192 19 92 192 19 92 192 19 92 192
19 92 192 19 92 192 19 92 192 19 92 192
19 92 192 19 92 192 19 92 192 19 92 192
19 92 192 19 92 192 19 92 192 19 92 192
19 92 192 19 92 192 19 92 192 19 92 192
19 92 192 19 92 192 19 92 192 19 92 192
19 92 192 19 92 192 19 92 192 19 92 192
19 92 192 19 92 192 19 92 192 19 92 192
19 92 192 19 92 192 19 92 192 19 92 192
19 92 192 19 92 192 19 92 192 19 92 192
19 92 192 19 92 192 19 92 192 19 92 192
19 92 192 19 92 192 19 92 192 19 92 192
19 92 192 19 92 192 19 92 192 19 92 192
19 92 192 19 92 192 19 92 192 19 92 192
19 92 192 19 92 192 19 92 192 19 92 192
19 92 192 19 92 192 19 92 192 19 92 192
19 92 192 19 92 192 19 92 192 19 92 192
19 92 192 19 92 192 19 92 192 19 92 192
19 92 192 19 92 192 19 92 192 19 92 192
19 92 192 19 92 192 19 92 192 19 92 192
19 92 192 19 92 192 19 92 192 19 92 192
19 92 192 19 92 192 19 92 192 19 92 192
19 92 192 19 92 192 19 92 192 19 92 192
19 92 192 19 92 192 19 92 192 19 92 192
19 92 192 19 92 192 19 92 192 19 92 192
19 92 192 19 92 192 19 92 192 19 92 192
19 92 192 19 92 192 19 92 192 19 92 192
19 92 192 19 92 192 19 92 192 19 92 192
19 92 192 19 92 192 19 92 192 19 92 192
19 92 192 19 92 192 19 92 192 19 92 192
19 92 192 19 92 192 19 92 192 19 92 192
19 92 192 19 92 192 19 92 192 19 92 192
19 92 192 19 92 192 19 92 192 19 92 192
19 92 192 19 92 192 19 92 192 19 92 192
19 92 192 19 92 192 19 92 192 19 92 192
19 92 192 19 92 192 19 92 192 19 92 192
19 92 192 19 92 192 19 92 192 19 92 192
19 92 192 19 92 192 19 92 192 19 92 192
19 92 192 19 92 192 19 92 192 19 92 192
19 92 192 19 92 192 19 92 192 19 92 192
19 92 192 19 92 192 19 92 192 19 92 192
19 92 192 19 92 192 19 92 192 19 92 192
19 92 192 19 92 192 19 92 192 19 92 192
19 92 192 19 92 192 19 92 192 19 92 192
19 92 192 19 92 192 19 92 192 19 92 192
19 92 192 19 92 192 19 92 192 19 92 192
19 92 192 19 92 192 19 92 192 19 92 192
19 92 192 19 92 192 19 92 192 19 92 192
19 92 192 19 92 192 19 92 192 19 92 192
19 92 192 19 92 192 19 92 192 19 92 192
19 92 192 19 92 192 19 92 192 19 92 192
19 92 192 19 92 192 19 92 192 19 92 192
19 92 192 19 92 192 19 92 192 19 92 192
119 88 78 133 95 79 143 100 80 147 102 80
149 103 81 150 104 81 152 104 81 152 105 81
153 105 81 153 105 81 154 105 81 154 105 81
154 106 81 155 106 81 155 106 81 156 106 81
156 106 81 156 106 81 156 106 81 156 106 81
155 106 81 156 106 81 153 105 81 147 102 80
135 96 79 19 92 192 19 92 192 19 92 192
19 92 192 19 92 192 19 92 192 19 92 192
19 92 192 19 92 192 19 92 192 19 92 192
19 92 192 19 92 192 19 92 192 19 92 192
19 92 192 19 92 192 19 92 192 19 92 192
19 92 192 19 92 192 19 92 192 19 92 192
19 92 192 19 92 192 19 92 192 19 92 192
19 92 192 19 92 192 19 92 192 19 92 192
19 92 192 19 92 192 19 92 192 19 92 192
19 92 192 19 92 192 19 92 192 19 92 192
19 92 192 19 92 192 19 92 192 19 92 192
19 92 192 19 92 192 19 92 192 19 92 192
19 92 192 19 92 192 19 92 192 19 92 192
19 92 192 19 92 192 19 92 192 19 92 192
19 92 192 19 92 192 19 92 192 19 92 192
19 92 192 19 92 192 19 92 192 19 92 192
19 92 192 19 92 192 19 92 192 19 92 192
19 92 192 19 92 192 19 92 192 19 92 192
19 92 192 19 92 192 19 92 192 19 92 192
19 92 192 19 92 192 19 92 192 19 92 192
19 92 192 19 92 192 19 92 192 19 92 192
19 92 192 19 92 192 19 92 192 19 92 192
19 92 192 19 92 192 19 92 192 19 92 192
19 92 192 19 92 192 19 92 192 19 92 192
19 92 192 19 92 192 19 92 192 19 92 192
19 92 192 19 92 192 19 92 192 19 92 192
19 92 192 19 92 192 19 92 192 19 92 192
19 92 192 19 92 192 19 92 192 19 92 192
19 92 192 19 92 192 19 92 192 19 92 192
19 92 192 19 92 192 19 92 192 19 92 192
19 92 192 19 92 192 19 92 192 19 92 192
19 92 192 19 92 192 19 92 192 19 92 192
19 92 192 19 92 192 19 92 192 19 92 192
19 92 192 19 92 192 19 92 192 19 92 192
19 92 192 19 92 192 19 92 192 19 92 192
19 92 192 19 92 192 19 92 192 19 92 192
19 92 192 19 92 192 19 92 192 19 92 192
19 92 192 19 92 192 19 92 192 19 92 192
19 92 192 19 92 192 19 92 192 19 92 192
19 92 192 19 92 192 19 92 192 19 92 192
19 92 192 19 92 192 19 92 192 19 92 192
19 92 192 19 92 192 19 92 192 19 92 192
19 92 192 19 92 192 19 92 192 19 92 192
19 92 192 19 92 192 19 92 192 19 92 192
19 92 192 19 92 192 19 92 192 19 92 192
19 92 192 19 92 192 19 92 192 19 92 192
19 92 192 19 92 192 19 92 192 19 92 192
19 92 192 19 92 192 19 92 192 19 92 192
19 92 192 19 92 192 19 92 192 19 92 192
19 92 192 19 92 192 19 92 192 19 92 192
19 92 192 19 92 192 19 92 192 19 92 192
19 92 192 19 92 192 19 92 192 19 92 192
19 92 192 19 92 192 19 92 192 19 92 192
19 92 192 19 92 192 19 92 192 19 92 192
19 92 192 19 92 192 19 92 192 19 92 192
19 92 192 19 92 192 19 92 192 19 92 192
19 92 192 19 92 192 19 92 192 19 92 192
19 92 192 19 92 192 19 92 192 78 67 74
105 81 76 139 98 80 151 104 81 157 107 81
161 109 82 164 110 82 165 111 82 165 111 82
165 111 82 165 111 82 165 111 82 165 111 82
166 111 82 166 111 82 166 112 82 168 112 83
169 113 83 170 113 83 171 114 83 172 114 83
171 114 83 169 113 83 164 111 82 156 106 81
128 93 79 92 75 75 19 92 192 19 92 192
19 92 192 19 92 192 19 92 192 19 92 192
19 92 192 19 92 192 19 92 192 19 92 192
19 92 192 19 92 192 19 92 192 19 92 192
19 92 192 19 92 192 19 92 192 19 92 192
19 92 192 19 92 192 19 92 192 19 92 192
19 92 192 19 92 192 19 92 192 19 92 192
19 92 192 19 92 192 19 92 192 19 92 192
19 92 192 19 92 192 19 92 192 19 92 192
19 92 192 19 92 192 19 92 192 19 92 192
19 92 192 19 92 192 19 92 192 19 92 192
19 92 192 19 92 192 19 92 192 19 92 192
19 92 192 19 92 192 19 92 192 19 92 192
19 92 192 19 92 192 19 92 192 19 92 192
19 92 192 19 92 192 19 92 192 19 92 192
19 92 192 19 92 192 19 92 192 19 92 192
19 92 192 19 92 192 19 92 192 19 92 192
19 92 192 19 92 192 19 92 192 19 92 192
19 92 192 19 92 192 19 92 192 19 92 192
19 92 192 19 92 192 19 92 192 19 92 192
19 92 192 19 92 192 19 92 192 19 92 192
19 92 192 19 92 192 19 92 192 19 92 192
19 92 192 19 92 192 19 92 192 19 92 192
19 92 192 19 92 192 19 92 192 19 92 192
19 92 192 19 92 192 19 92 192 19 92 192
19 92 192 19 92 192 19 92 192 19 92 192
19 92 192 19 92 192 19 92 192 19 92 192
19 92 192 19 92 192 19 92 192 19 92 192
19 92 192 19 92 192 19 92 192 19 92 192
19 92 192 19 92 192 19 92 192 19 92 192
19 92 192 19 92 192 19 92 192 19 92 192
19 92 192 19 92 192 19 92 192 19 92 192
19 92 192 19 92 192 19 92 192 19 92 192
19 92 192 19 92 192 19 92 192 19 92 192
19 92 192 19 92 192 19 92 192 19 92 192
19 92 192 19 92 192 19 92 192 19 92 192
19 92 192 19 92 192 19 92 192 19 92 192
19 92 192 19 92 192 19 92 192 19 92 192
19 92 192 19 92 192 19 92 192 19 92 192
19 92 192 19 92 192 19 92 192 19 92 192
19 92 192 19 92 192 19 92 192 19 92 192
19 92 192 19 92 192 19 92 192 19 92 192
19 92 192 19 92 192 19 92 192 19 92 192
19 92 192 19 92 192 19 92 192 19 92 192
19 92 192 19 92 192 19 92 192 19 92 192
19 92 192 19 92 192 19 92 192 19 92 192
19 92 192 19 92 192 19 92 192 19 92 192
19 92 192 19 92 192 19 92 192 19 92 192
19 92 192 19 92 192 19 92 192 19 92 192
19 92 192 19 92 192 19 92 192 19 92 192
19 92 192 19 92 192 19 92 192 19 92 192
19 92 192 19 92 192 19 92 192 19 92 192
19 92 192 19 92 192 19 92 192 19 92 192
19 92 192 19 92 192 19 92 192 19 92 192
19 92 192 19 92 192 19 92 192 19 92 192
19 92 192 19 92 192 19 92 192 19 92 192
19 92 192 19 92 192 19 92 192 19 92 192
19 92 192 19 92 192 19 92 192 19 92 192
102 79 76 114 85 77 141 99 80 159 108 82
169 113 83 175 116 83 178 117 84 181 119 84
183 120 84 184 120 84 185 121 84 186 121 84
187 122 84 187 122 85 188 122 85 188 122 85
188 122 85 187 122 85 186 121 84 184 120 84
182 119 84 175 116 83 161 109 82 137 97 79
104 80 76 19 92 192 19 92 192 19 92 192
19 92 192 19 92 192 19 92 192 19 92 192
19 92 192 19 92 192 19 92 192 19 92 192
19 92 192 19 92 192 19 92 192 19 92 192
19 92 192 19 92 192 19 92 192 19 92 192
19 92 192 19 92 192 19 92 192 19 92 192
19 92 192 19 92 192 19 92 192 19 92 192
19 92 192 19 92 192 19 92 192 19 92 192
19 92 192 19 92 192 19 92 192 19 92 192
19 92 192 19 92 192 19 92 192 19 92 192
19 92 192 19 92 192 19 92 192 19 92 192
19 92 192 19 92 192 19 92 192 19 92 192
19 92 192 19 92 192 19 92 192 19 92 192
19 92 192 19 92 192 19 92 192 19 92 192
19 92 192 19 92 192 19 92 192 19 92 192
19 92 192 19 92 192 19 92 192 19 92 192
19 92 192 19 92 192 19 92 192 19 92 192
19 92 192 19 92 192 19 92 192 19 92 192
19 92 192 19 92 192 19 92 192 19 92 192
19 92 192 19 92 192 19 92 192 19 92 192
19 92 192 19 92 192 19 92 192 19 92 192
19 92 192 19 92 192 19 92 192 19 92 192
19 92 192 19 92 192 19 92 192 19 92 192
19 92 192 19 92 192 19 92 192 19 92 192
19 92 192 19 92 192 19 92 192 19 92 192
19 92 192 19 92 192 19 92 192 19 92 192
19 92 192 19 92 192 19 92 192 19 92 192
19 92 192 19 92 192 19 92 192 19 92 192
19 92 192 19 92 192 19 92 192 19 92 192
19 92 192 19 92 192 19 92 192 19 92 192
19 92 192 19 92 192 19 92 192 19 92 192
19 92 192 19 92 192 19 92 192 19 92 192
19 92 192 19 92 192 19 92 192 19 92 192
19 92 192 19 92 192 19 92 192 19 92 192
19 92 192 19 92 192 19 92 192 19 92 192
19 92 192 19 92 192 19 92 192 19 92 192
19 92 192 19 92 192 19 92 192 19 92 192
19 92 192 19 92 192 19 92 192 19 92 192
19 92 192 19 92 192 19 92 192 19 92 192
19 92 192 19 92 192 19 92 192 19 92 192
19 92 192 19 92 192 19 92 192 19 92 192
19 92 192 19 92 192 19 92 192 19 92 192
19 92 192 19 92 192 19 92 192 19 92 192
19 92 192 19 92 192 19 92 192 19 92 192
19 92 192 19 92 192 19 92 192 19 92 192
19 92 192 19 92 192 19 92 192 19 92 192
19 92 192 19 92 192 19 92 192 19 92 192
19 92 192 19 92 192 19 92 192 19 92 192
19 92 192 19 92 192 19 92 192 19 92 192
19 92 192 19 92 192 19 92 192 19 92 192
19 92 192 19 92 192 19 92 192 19 92 192
19 92 192 19 92 192 19 92 192 19 92 192
19 92 192 19 92 192 19 92 192 19 92 192
19 92 192 19 92 192 19 92 192 19 92 192
19 92 192 19 92 192 19 92 192 19 92 192
19 92 192 19 92 192 19 92 192 19 92 192
19 92 192 19 92 192 19 92 192 19 92 192
19 92 192 19 92 192 19 92 192 19 92 192
97 48 9 99 78 76 113 85 77 128 92 79
148 102 81 166 112 83 178 119 86 186 122 86
191 124 86 194 125 86 196 127 86 198 127 86
199 128 86 201 130 87 204 133 91 213 143 101
230 160 119 247 179 139 234 170 133 196 136 103
167 113 84 147 102 81 123 90 78 89 73 75
57 28 5 19 92 192 19 92 192 19 92 192
19 92 192 19 92 192 19 92 192 19 92 192
19 92 192 19 92 192 19 92 192 19 92 192
19 92 192 19 92 192 19 92 192 19 92 192
19 92 192 19 92 192 19 92 192 19 92 192
19 92 192 19 92 192 19 92 192 19 92 192
19 92 192 19 92 192 19 92 192 19 92 192
19 92 192 19 92 192 19 92 192 19 92 192
19 92 192 19 92 192 19 92 192 19 92 192
19 92 192 19 92 192 19 92 192 19 92 192
19 92 192 19 92 192 19 92 192 19 92 192
19 92 192 19 92 192 19 92 192 19 92 192
19 92 192 19 92 192 19 92 192 19 92 192
19 92 192 19 92 192 19 92 192 19 92 192
19 92 192 19 92 192 19 92 192 19 92 192
19 92 192 19 92 192 19 92 192 19 92 192
19 92 192 19 92 192 19 92 192 19 92 192
19 92 192 19 92 192 19 92 192 19 92 192
19 92 192 19 92 192 19 92 192 19 92 192
19 92 192 19 92 192 19 92 192 19 92 192
19 92 192 19 92 192 19 92 192 19 92 192
19 92 192 19 92 192 19 92 192 19 92 192
19 92 192 19 92 192 19 92 192 19 92 192
19 92 192 19 92 192 19 92 192 19 92 192
19 92 192 19 92 192 19 92 192 19 92 192
19 92 192 19 92 192 19 92 192 19 92 192
19 92 192 19 92 192 19 92 192 19 92 192
19 92 192 19 92 192 19 92 192 19 92 192
19 92 192 19 92 192 19 92 192 19 92 192
19 92 192 19 92 192 19 92 192 19 92 192
19 92 192 19 92 192 19 92 192 19 92 192
19 92 192 19 92 192 19 92 192 19 92 192
19 92 192 19 92 192 19 92 192 19 92 192
19 92 192 19 92 192 19 92 192 19 92 192
19 92 192 19 92 192 19 92 192 19 92 192
19 92 192 19 92 192 19 92 192 19 92 192
19 92 192 19 92 192 19 92 192 19 92 192
19 92 192 19 92 192 19 92 192 19 92 192
19 92 192 19 92 192 19 92 192 19 92 192
19 92 192 19 92 192 19 92 192 19 92 192
19 92 192 19 92 192 19 92 192 19 92 192
19 92 192 19 92 192 19 92 192 19 92 192
19 92 192 19 92 192 19 92 192 19 92 192
19 92 192 19 92 192 19 92 192 19 92 192
19 92 192 19 92 192 19 92 192 19 92 192
19 92 192 19 92 192 19 92 192 19 92 192
19 92 192 19 92 192 19 92 192 19 92 192
19 92 192 19 92 192 19 92 192 19 92 192
19 92 192 19 92 192 19 92 192 19 92 192
19 92 192 19 92 192 19 92 192 19 92 192
19 92 192 19 92 192 19 92 192 19 92 192
19 92 192 19 92 192 19 92 192 19 92 192
19 92 192 19 92 192 19 92 192 19 92 192
19 92 192 19 92 192 19 92 192 19 92 192
19 92 192 19 92 192 19 92 192 19 92 192
19 92 192 19 92 192 19 92 192 19 92 192
19 92 192 19 92 192 19 92 192 19 92 192
19 92 192 19 92 192 19 92 192 19 92 192
19 92 192 79 49 30 123 71 35 145 74 17
107 82 77 113 85 77 116 86 78 150 105 83
168 118 92 183 128 100 185 129 98 181 122 90
177 118 85 176 117 84 174 115 83 170 113 83
164 110 82 156 106 81 146 101 80 132 94 79
114 85 77 143 72 17 104 62 33 84 52 31
19 92 192 19 92 192 19 92 192 19 92 192
19 92 192 19 92 192 19 92 192 19 92 192
19 92 192 19 92 192 19 92 192 19 92 192
19 92 192 19 92 192 19 92 192 19 92 192
19 92 192 19 92 192 19 92 192 19 92 192
19 92 192 19 92 192 19 92 192 19 92 192
19 92 192 19 92 192 19 92 192 19 92 192
19 92 192 19 92 192 19 92 192 19 92 192
19 92 192 19 92 192 19 92 192 19 92 192
19 92 192 19 92 192 19 92 192 19 92 192
19 92 192 19 92 192 19 92 192 19 92 192
19 92 192 19 92 192 19 92 192 19 92 192
19 92 192 19 92 192 19 92 192 19 92 192
19 92 192 19 92 192 19 92 192 19 92 192
19 92 192 19 92 192 19 92 192 19 92 192
19 92 192 19 92 192 19 92 192 19 92 192
19 92 192 19 92 192 19 92 192 19 92 192
19 92 192 19 92 192 19 92 192 19 92 192
19 92 192 19 92 192 19 92 192 19 92 192
19 92 192 19 92 192 19 92 192 19 92 192
19 92 192 19 92 192 19 92 192 19 92 192
19 92 192 19 92 192 19 92 192 19 92 192
19 92 192 19 92 192 19 92 192 19 92 192
19 92 192 19 92 192 19 92 192 19 92 192
19 92 192 19 92 192 19 92 192 19 92 192
19 92 192 19 92 192 19 92 192 19 92 192
19 92 192 19 92 192 19 92 192 19 92 192
19 92 192 19 92 192 19 92 192 19 92 192
19 92 192 19 92 192 19 92 192 19 92 192
19 92 192 19 92 192 19 92 192 19 92 192
19 92 192 19 92 192 19 92 192 19 92 192
19 92 192 19 92 192 19 92 192 19 92 192
19 92 192 19 92 192 19 92 192 19 92 192
19 92 192 19 92 192 19 92 192 19 92 192
19 92 192 19 92 192 19 92 192 19 92 192
19 92 192 19 92 192 19 92 192 19 92 192
19 92 192 19 92 192 19 92 192 19 92 192
19 92 192 19 92 192 19 92 192 19 92 192
19 92 192 19 92 192 19 92 192 19 92 192
19 92 192 19 92 192 19 92 192 19 92 192
19 92 192 19 92 192 19 92 192 19 92 192
19 92 192 19 92 192 19 92 192 19 92 192
19 92 192 19 92 192 19 92 192 19 92 192
19 92 192 19 92 192 19 92 192 19 92 192
19 92 192 19 92 192 19 92 192 19 92 192
19 92 192 19 92 192 19 92 192 19 92 192
19 92 192 19 92 192 19 92 192 19 92 192
19 92 192 19 92 192 19 92 192 19 92 192
19 92 192 19 92 192 19 92 192 19 92 192
19 92 192 19 92 192 19 92 192 19 92 192
19 92 192 19 92 192 19 92 192 19 92 192
19 92 192 19 92 192 19 92 192 19 92 192
19 92 192 19 92 192 19 92 192 19 92 192
19 92 192 19 92 192 19 92 192 19 92 192
19 92 192 19 92 192 19 92 192 19 92 192
19 92 192 19 92 192 19 92 192 19 92 192
19 92 192 19 92 192 19 92 192 19 92 192
19 92 192 19 92 192 19 92 192 19 92 192
19 92 192 19 92 192 71 45 30 86 53 31
119 69 34 126 73 35 134 77 37 144 85 43
165 101 55 178 108 58 176 103 50 174 98 42
173 97 40 173 96 40 169 94 40 165 93 41
161 94 45 155 93 49 138 83 44 113 67 36
96 57 32 82 51 31 71 45 30 19 92 192
19 92 192 19 92 192 19 92 192 19 92 192
19 92 192 19 92 192 19 92 192 19 92 192
19 92 192 19 92 192 19 92 192 19 92 192
19 92 192 19 92 192 19 92 192 19 92 192
19 92 192 19 92 192 19 92 192 19 92 192
19 92 192 19 92 192 19 92 192 19 92 192
19 92 192 19 92 192 19 92 192 19 92 192
19 92 192 19 92 192 19 92 192 19 92 192
19 92 192 19 92 192 19 92 192 19 92 192
19 92 192 19 92 192 19 92 192 19 92 192
19 92 192 19 92 192 19 92 192 19 92 192
19 92 192 19 92 192 19 92 192 19 92 192
19 92 192 19 92 192 19 92 192 19 92 192
19 92 192 19 92 192 19 92 192 19 92 192
19 92 192 19 92 192 19 92 192 19 92 192
19 92 192 19 92 192 19 92 192 19 92 192
19 92 192 19 92 192 19 92 192 19 92 192
19 92 192 19 92 192 19 92 192 19 92 192
19 92 192 19 92 192 19 92 192 19 92 192
19 92 192 19 92 192 19 92 192 19 92 192
19 92 192 19 92 192 19 92 192 19 92 192
19 92 192 19 92 192 19 92 192 19 92 192
19 92 192 19 92 192 19 92 192 19 92 192
19 92 192 19 92 192 19 92 192 19 92 192
19 92 192 19 92 192 19 92 192 19 92 192
19 92 192 19 92 192 19 92 192 19 92 192
19 92 192 19 92 192 19 92 192 19 92 192
19 92 192 19 92 192 19 92 192 19 92 192
19 92 192 19 92 192 19 92 192 19 92 192
19 92 192 19 92 192 19 92 192 19 92 192
19 92 192 19 92 192 19 92 192 19 92 192
19 92 192 19 92 192 19 92 192 19 92 192
19 92 192 19 92 192 19 92 192 19 92 192
19 92 192 19 92 192 19 92 192 19 92 192
19 92 192 19 92 192 19 92 192 19 92 192
19 92 192 19 92 192 19 92 192 19 92 192
19 92 192 19 92 192 19 92 192 19 92 192
19 92 192 19 92 192 19 92 192 19 92 192
19 92 192 19 92 192 19 92 192 19 92 192
19 92 192 19 92 192 19 92 192 19 92 192
19 92 192 19 92 192 19 92 192 19 92 192
19 92 192 19 92 192 19 92 192 19 92 192
19 92 192 19 92 192 19 92 192 19 92 192
19 92 192 19 92 192 19 92 192 19 92 192
19 92 192 19 92 192 19 92 192 19 92 192
19 92 192 19 92 192 19 92 192 19 92 192
19 92 192 19 92 192 19 92 192 19 92 192
19 92 192 19 92 192 19 92 192 19 92 192
19 92 192 19 92 192 19 92 192 19 92 192
19 92 192 19 92 192 19 92 192 19 92 192
19 92 192 19 92 192 19 92 192 19 92 192
19 92 192 19 92 192 19 92 192 19 92 192
19 92 192 19 92 192 19 92 192 19 92 192
19 92 192 19 92 192 19 92 192 19 92 192
19 92 192 19 92 192 19 92 192 19 92 192
19 92 192 19 92 192 19 92 192 19 92 192
19 92 192 19 92 192 19 92 192 19 92 192
19 92 192 19 92 192 19 92 192 19 92 192
19 92 192 19 92 192 19 92 192 64 41 29
74 47 30 105 62 33 112 65 34 116 68 34
119 70 36 121 72 38 120 72 38 116 69 36
119 69 35 121 71 37 125 77 43 131 84 52
127 83 53 109 69 42 90 55 33 75 47 30
66 42 29 59 39 28 19 92 192 19 92 192
19 92 192 19 92 192 19 92 192 19 92 192
19 92 192 19 92 192 19 92 192 19 92 192
19 92 192 19 92 192 19 92 192 19 92 192
19 92 192 19 92 192 19 92 192 19 92 192
19 92 192 19 92 192 19 92 192 19 92 192
19 92 192 19 92 192 19 92 192 19 92 192
19 92 192 19 92 192 19 92 192 19 92 192
19 92 192 19 92 192 19 92 192 19 92 192
19 92 192 19 92 192 19 92 192 19 92 192
19 92 192 19 92 192 19 92 192 19 92 192
19 92 192 19 92 192 19 92 192 19 92 192
19 92 192 19 92 192 19 92 192 19 92 192
19 92 192 19 92 192 19 92 192 19 92 192
19 92 192 19 92 192 19 92 192 19 92 192
19 92 192 19 92 192 19 92 192 19 92 192
19 92 192 19 92 192 19 92 192 19 92 192
19 92 192 19 92 192 19 92 192 19 92 192
19 92 192 19 92 192 19 92 192 19 92 192
19 92 192 19 92 192 19 92 192 19 92 192
19 92 192 19 92 192 19 92 192 19 92 192
19 92 192 19 92 192 19 92 192 19 92 192
19 92 192 19 92 192 19 92 192 19 92 192
19 92 192 19 92 192 19 92 192 19 92 192
19 92 192 19 92 192 19 92 192 19 92 192
19 92 192 19 92 192 19 92 192 19 92 192
19 92 192 19 92 192 19 92 192 19 92 192
19 92 192 19 92 192 19 92 192 19 92 192
19 92 192 19 92 192 19 92 192 19 92 192
19 92 192 19 92 192 19 92 192 19 92 192
19 92 192 19 92 192 19 92 192 19 92 192
19 92 192 19 92 192 19 92 192 19 92 192
19 92 192 19 92 192 19 92 192 19 92 192
19 92 192 19 92 192 19 92 192 19 92 192
19 92 192 19 92 192 19 92 192 19 92 192
19 92 192 19 92 192 19 92 192 19 92 192
19 92 192 19 92 192 19 92 192 19 92 192
19 92 192 19 92 192 19 92 192 19 92 192
19 92 192 19 92 192 19 92 192 19 92 192
19 92 192 19 92 192 19 92 192 19 92 192
19 92 192 19 92 192 19 92 192 19 92 192
19 92 192 19 92 192 19 92 192 19 92 192
19 92 192 19 92 192 19 92 192 19 92 192
19 92 192 19 92 192 19 92 192 19 92 192
19 92 192 19 92 192 19 92 192 19 92 192
19 92 192 19 92 192 19 92 192 19 92 192
19 92 192 19 92 192 19 92 192 19 92 192
19 92 192 19 92 192 19 92 192 19 92 192
19 92 192 19 92 192 19 92 192 19 92 192
19 92 192 19 92 192 19 92 192 19 92 192
19 92 192 19 92 192 19 92 192 19 92 192
19 92 192 19 92 192 19 92 192 19 92 192
19 92 192 19 92 192 19 92 192 19 92 192
19 92 192 19 92 192 19 92 192 19 92 192
19 92 192 19 92 192 19 92 192 19 92 192
19 92 192 19 92 192 19 92 192 19 92 192
19 92 192 19 92 192 19 92 192 19 92 192
19 92 192 19 92 192 19 92 192 19 92 192
19 92 192 19 92 192 19 92 192 137 97 79
166 111 82 189 123 85 199 128 86 207 133 88
60 40 29 70 45 30 97 58 32 101 60 33
104 62 33 106 64 35 107 64 36 104 62 34
100 60 33 99 61 36 104 68 45 102 70 50
91 60 41 75 48 31 64 41 29 59 39 28
53 36 28 203 130 86 199 128 86 191 124 85
95 76 75 89 73 75 19 92 192 19 92 192
19 92 192 19 92 192 19 92 192 19 92 192
19 92 192 19 92 192 19 92 192 19 92 192
19 92 192 19 92 192 19 92 192 19 92 192
19 92 192 19 92 192 19 92 192 19 92 192
19 92 192 19 92 192 19 92 192 19 92 192
19 92 192 19 92 192 19 92 192 19 92 192
19 92 192 19 92 192 19 92 192 19 92 192
19 92 192 19 92 192 19 92 192 19 92 192
19 92 192 19 92 192 19 92 192 19 92 192
19 92 192 19 92 192 19 92 192 19 92 192
19 92 192 19 92 192 19 92 192 19 92 192
19 92 192 19 92 192 19 92 192 19 92 192
19 92 192 19 92 192 19 92 192 19 92 192
19 92 192 19 92 192 19 92 192 19 92 192
19 92 192 19 92 192 19 92 192 19 92 192
19 92 192 19 92 192 19 92 192 19 92 192
19 92 192 19 92 192 19 92 192 19 92 192
19 92 192 19 92 192 19 92 192 19 92 192
19 92 192 19 92 192 19 92 192 19 92 192
19 92 192 19 92 192 19 92 192 19 92 192
19 92 192 19 92 192 19 92 192 19 92 192
19 92 192 19 92 192 19 92 192 19 92 192
19 92 192 19 92 192 19 92 192 19 92 192
19 92 192 19 92 192 19 92 192 19 92 192
19 92 192 19 92 192 19 92 192 19 92 192
19 92 192 19 92 192 19 92 192 19 92 192
19 92 192 19 92 192 19 92 192 19 92 192
19 92 192 19 92 192 19 92 192 19 92 192
19 92 192 19 92 192 19 92 192 19 92 192
19 92 192 19 92 192 19 92 192 19 92 192
19 92 192 19 92 192 19 92 192 19 92 192
19 92 192 19 92 192 19 92 192 19 92 192
19 92 192 19 92 192 19 92 192 19 92 192
19 92 192 19 92 192 19 92 192 19 92 192
19 92 192 19 92 192 19 92 192 19 92 192
19 92 192 19 92 192 19 92 192 19 92 192
19 92 192 19 92 192 19 92 192 19 92 192
19 92 192 19 92 192 19 92 192 19 92 192
19 92 192 19 92 192 19 92 192 19 92 192
19 92 192 19 92 192 19 92 192 19 92 192
19 92 192 19 92 192 19 92 192 19 92 192
19 92 192 19 92 192 19 92 192 19 92 192
19 92 192 19 92 192 19 92 192 19 92 192
19 92 192 19 92 192 19 92 192 19 92 192
19 92 192 19 92 192 19 92 192 19 92 192
19 92 192 19 92 192 19 92 192 19 92 192
19 92 192 19 92 192 19 92 192 19 92 192
19 92 192 19 92 192 19 92 192 19 92 192
19 92 192 19 92 192 19 92 192 19 92 192
19 92 192 19 92 192 19 92 192 19 92 192
19 92 192 19 92 192 19 92 192 19 92 192
19 92 192 19 92 192 19 92 192 19 92 192
19 92 192 19 92 192 19 92 192 19 92 192
19 92 192 19 92 192 19 92 192 19 92 192
19 92 192 19 92 192 19 92 192 133 95 79
183 120 84 201 130 87 243 171 128 251 181 139
214 146 107 188 124 88 215 127 62 181 102 45
168 94 40 161 90 39 154 87 38 150 84 38
156 78 15 62 41 29 70 45 30 74 47 30
98 59 32 103 62 35 110 68 40 106 66 38
99 60 33 98 61 37 106 72 50 95 65 47
73 48 33 60 40 29 56 38 28 53 36 28
148 74 14 165 89 29 146 83 37 56 38 28
59 39 28 63 41 29 69 44 29 60 58 72
65 61 72 69 63 73 74 65 73 83 70 74
89 73 75 88 73 75 19 92 192 19 92 192
19 92 192 19 92 192 19 92 192 19 92 192
19 92 192 19 92 192 19 92 192 19 92 192
19 92 192 19 92 192 19 92 192 19 92 192
19 92 192 19 92 192 19 92 192 19 92 192
19 92 192 19 92 192 19 92 192 19 92 192
19 92 192 19 92 192 19 92 192 19 92 192
19 92 192 19 92 192 19 92 192 19 92 192
19 92 192 19 92 192 19 92 192 19 92 192
19 92 192 19 92 192 19 92 192 19 92 192
19 92 192 19 92 192 19 92 192 19 92 192
19 92 192 19 92 192 19 92 192 19 92 192
19 92 192 19 92 192 19 92 192 19 92 192
19 92 192 19 92 192 19 92 192 19 92 192
19 92 192 19 92 192 19 92 192 19 92 192
19 92 192 19 92 192 19 92 192 19 92 192
19 92 192 19 92 192 19 92 192 19 92 192
19 92 192 19 92 192 19 92 192 19 92 192
19 92 192 19 92 192 19 92 192 19 92 192
19 92 192 19 92 192 19 92 192 19 92 192
19 92 192 19 92 192 19 92 192 19 92 192
19 92 192 19 92 192 19 92 192 19 92 192
19 92 192 19 92 192 19 92 192 19 92 192
19 92 192 19 92 192 19 92 192 19 92 192
19 92 192 19 92 192 19 92 192 19 92 192
19 92 192 19 92 192 19 92 192 19 92 192
19 92 192 19 92 192 19 92 192 19 92 192
19 92 192 19 92 192 19 92 192 19 92 192
19 92 192 19 92 192 19 92 192 19 92 192
19 92 192 19 92 192 19 92 192 19 92 192
19 92 192 19 92 192 19 92 192 19 92 192
19 92 192 19 92 192 19 92 192 19 92 192
19 92 192 19 92 192 19 92 192 19 92 192
19 92 192 19 92 192 19 92 192 19 92 192
19 92 192 19 92 192 19 92 192 19 92 192
19 92 192 19 92 192 19 92 192 19 92 192
19 92 192 19 92 192 19 92 192 19 92 192
19 92 192 19 92 192 19 92 192 19 92 192
19 92 192 19 92 192 19 92 192 19 92 192
19 92 192 19 92 192 19 92 192 19 92 192
19 92 192 19 92 192 19 92 192 19 92 192
19 92 192 19 92 192 19 92 192 19 92 192
19 92 192 19 92 192 19 92 192 19 92 192
19 92 192 19 92 192 19 92 192 19 92 192
19 92 192 19 92 192 19 92 192 19 92 192
19 92 192 19 92 192 19 92 192 19 92 192
19 92 192 19 92 192 19 92 192 19 92 192
19 92 192 19 92 192 19 92 192 19 92 192
19 92 192 19 92 192 19 92 192 19 92 192
19 92 192 19 92 192 19 92 192 19 92 192
19 92 192 19 92 192 19 92 192 19 92 192
19 92 192 19 92 192 19 92 192 19 92 192
19 92 192 19 92 192 163 110 82 193 125 85
220 152 113 202 138 101 177 118 85 178 101 44
153 86 38 165 86 24 134 67 13 128 64 12
124 62 12 121 60 12 117 58 11 114 57 11
111 55 11 108 54 10 106 53 10 104 52 10
103 51 10 53 36 28 68 44 29 75 47 30
98 59 32 104 62 34 119 77 49 116 75 46
101 61 34 97 60 35 99 65 44 85 56 38
69 45 30 60 40 29 57 38 28 46 33 27
97 48 9 98 49 9 99 49 9 17 8 1
17 8 1 17 8 1 17 8 1 18 9 1
18 9 1 18 9 1 20 10 2 29 18 10
43 31 27 51 35 28 64 41 29 52 54 71
60 58 72 77 67 73 88 72 75 19 92 192
19 92 192 19 92 192 19 92 192 19 92 192
19 92 192 19 92 192 19 92 192 19 92 192
19 92 192 19 92 192 19 92 192 19 92 192
19 92 192 19 92 192 19 92 192 19 92 192
19 92 192 19 92 192 19 92 192 19 92 192
19 92 192 19 92 192 19 92 192 19 92 192
19 92 192 19 92 192 19 92 192 19 92 192
19 92 192 19 92 192 19 92 192 19 92 192
19 92 192 19 92 192 19 92 192 19 92 192
19 92 192 19 92 192 19 92 192 19 92 192
19 92 192 19 92 192 19 92 192 19 92 192
19 92 192 19 92 192 19 92 192 19 92 192
19 92 192 19 92 192 19 92 192 19 92 192
19 92 192 19 92 192 19 92 192 19 92 192
19 92 192 19 92 192 19 92 192 19 92 192
19 92 192 19 92 192 19 92 192 19 92 192
19 92 192 19 92 192 19 92 192 19 92 192
19 92 192 19 92 192 19 92 192 19 92 192
19 92 192 19 92 192 19 92 192 19 92 192
19 92 192 19 92 192 19 92 192 19 92 192
19 92 192 19 92 192 19 92 192 19 92 192
19 92 192 19 92 192 19 92 192 19 92 192
19 92 192 19 92 192 19 92 192 19 92 192
19 92 192 19 92 192 19 92 192 19 92 192
19 92 192 19 92 192 19 92 192 19 92 192
19 92 192 19 92 192 19 92 192 19 92 192
19 92 192 19 92 192 19 92 192 19 92 192
19 92 192 19 92 192 19 92 192 19 92 192
19 92 192 19 92 192 19 92 192 19 92 192
19 92 192 19 92 192 19 92 192 19 92 192
19 92 192 19 92 192 19 92 192 19 92 192
19 92 192 19 92 192 19 92 192 19 92 192
19 92 192 19 92 192 19 92 192 19 92 192
19 92 192 19 92 192 19 92 192 19 92 192
19 92 192 19 92 192 19 92 192 19 92 192
19 92 192 19 92 192 19 92 192 19 92 192
19 92 192 19 92 192 19 92 192 19 92 192
19 92 192 19 92 192 19 92 192 19 92 192
19 92 192 19 92 192 19 92 192 19 92 192
19 92 192 19 92 192 19 92 192 19 92 192
19 92 192 19 92 192 19 92 192 19 92 192
19 92 192 19 92 192 19 92 192 19 92 192
19 92 192 19 92 192 19 92 192 19 92 192
19 92 192 19 92 192 19 92 192 19 92 192
19 92 192 19 92 192 19 92 192 19 92 192
19 92 192 19 92 192 19 92 192 19 92 192
19 92 192 19 92 192 19 92 192 19 92 192
19 92 192 19 92 192 19 92 192 19 92 192
19 92 192 19 92 192 19 92 192 19 92 192
19 92 192 85 42 8 180 118 84 191 126 88
184 123 89 195 107 43 155 87 38 137 78 36
124 62 12 117 58 11 112 56 11 107 53 10
102 51 10 97 48 9 95 47 9 93 46 9
91 45 9 144 73 17 161 92 42 170 95 40
145 76 22 107 82 77 109 83 77 109 83 77
110 83 77 110 83 77 68 44 29 82 51 31
87 53 31 109 65 34 124 79 48 124 80 49
106 63 34 99 60 33 97 61 37 89 55 34
78 49 30 70 44 30 59 39 28 78 67 74
78 67 74 78 68 74 79 68 74 79 68 74
79 68 74 104 62 33 97 58 32 88 47 16
75 37 7 5 2 0 5 2 0 0 0 0
6 3 1 2 1 0 3 1 0 4 2 0
6 3 0 23 21 25 38 29 26 52 36 28
43 50 70 61 59 72 80 69 74 76 38 7
19 92 192 19 92 192 19 92 192 19 92 192
19 92 192 19 92 192 19 92 192 19 92 192
19 92 192 19 92 192 19 92 192 19 92 192
19 92 192 19 92 192 19 92 192 19 92 192
19 92 192 19 92 192 19 92 192 19 92 192
19 92 192 19 92 192 19 92 192 19 92 192
19 92 192 19 92 192 19 92 192 19 92 192
19 92 192 19 92 192 19 92 192 19 92 192
19 92 192 19 92 192 19 92 192 19 92 192
19 92 192 19 92 192 19 92 192 19 92 192
19 92 192 19 92 192 19 92 192 19 92 192
19 92 192 19 92 192 19 92 192 19 92 192
19 92 192 19 92 192 19 92 192 19 92 192
19 92 192 19 92 192 19 92 192 19 92 192
19 92 192 19 92 192 19 92 192 19 92 192
19 92 192 19 92 192 19 92 192 19 92 192
19 92 192 19 92 192 19 92 192 19 92 192
19 92 192 19 92 192 19 92 192 19 92 192
19 92 192 19 92 192 19 92 192 19 92 192
19 92 192 19 92 192 19 92 192 19 92 192
19 92 192 19 92 192 19 92 192 19 92 192
19 92 192 19 92 192 19 92 192 19 92 192
19 92 192 19 92 192 19 92 192 19 92 192
19 92 192 19 92 192 19 92 192 19 92 192
19 92 192 19 92 192 19 92 192 19 92 192
19 92 192 19 92 192 19 92 192 19 92 192
19 92 192 19 92 192 19 92 192 19 92 192
19 92 192 19 92 192 19 92 192 19 92 192
19 92 192 19 92 192 19 92 192 19 92 192
19 92 192 19 92 192 19 92 192 19 92 192
19 92 192 19 92 192 19 92 192 19 92 192
19 92 192 19 92 192 19 92 192 19 92 192
19 92 192 19 92 192 19 92 192 19 92 192
19 92 192 19 92 192 19 92 192 19 92 192
19 92 192 19 92 192 19 92 192 19 92 192
19 92 192 19 92 192 19 92 192 19 92 192
19 92 192 19 92 192 19 92 192 19 92 192
19 92 192 19 92 192 19 92 192 19 92 192
19 92 192 19 92 192 19 92 192 19 92 192
19 92 192 19 92 192 19 92 192 19 92 192
19 92 192 19 92 192 19 92 192 19 92 192
19 92 192 19 92 192 19 92 192 19 92 192
19 92 192 19 92 192 19 92 192 19 92 192
19 92 192 19 92 192 19 92 192 19 92 192
19 92 192 19 92 192 19 92 192 19 92 192
19 92 192 19 92 192 19 92 192 19 92 192
19 92 192 19 92 192 19 92 192 19 92 192
19 92 192 19 92 192 159 108 82 182 120 84
173 115 84 181 100 41 138 79 36 119 59 11
109 54 10 103 51 10 97 48 9 90 45 9
92 47 12 84 42 8 81 40 8 138 72 21
181 109 56 107 82 77 109 83 77 110 84 77
111 84 77 112 84 77 112 85 77 49 53 71
49 53 71 48 53 71 48 52 71 48 52 71
112 85 77 112 84 77 53 26 5 94 57 32
100 60 33 121 70 35 129 79 43 128 78 44
114 67 35 113 66 34 112 66 35 107 63 34
97 58 32 90 55 32 54 27 5 79 68 74
80 68 74 80 69 74 81 69 74 81 69 74
82 69 74 82 69 74 82 69 74 82 70 74
83 70 74 83 70 74 83 70 74 83 70 74
101 60 33 88 47 16 0 0 0 0 0 0
2 4 8 0 0 0 2 11 23 0 0 0
0 0 0 2 1 0 21 20 25 45 32 27
39 48 70 170 113 83 150 103 81 19 92 192
19 92 192 19 92 192 19 92 192 19 92 192
19 92 192 19 92 192 19 92 192 19 92 192
19 92 192 19 92 192 19 92 192 19 92 192
19 92 192 19 92 192 19 92 192 19 92 192
19 92 192 19 92 192 19 92 192 19 92 192
19 92 192 19 92 192 19 92 192 19 92 192
19 92 192 19 92 192 19 92 192 19 92 192
19 92 192 19 92 192 19 92 192 19 92 192
19 92 192 19 92 192 19 92 192 19 92 192
19 92 192 19 92 192 19 92 192 19 92 192
19 92 192 19 92 192 19 92 192 19 92 192
19 92 192 19 92 192 19 92 192 19 92 192
19 92 192 19 92 192 19 92 192 19 92 192
19 92 192 19 92 192 19 92 192 19 92 192
19 92 192 19 92 192 19 92 192 19 92 192
19 92 192 19 92 192 19 92 192 19 92 192
19 92 192 19 92 192 19 92 192 19 92 192
19 92 192 19 92 192 19 92 192 19 92 192
19 92 192 19 92 192 19 92 192 19 92 192
19 92 192 19 92 192 19 92 192 19 92 192
19 92 192 19 92 192 19 92 192 19 92 192
19 92 192 19 92 192 19 92 192 19 92 192
19 92 192 19 92 192 19 92 192 19 92 192
19 92 192 19 92 192 19 92 192 19 92 192
19 92 192 19 92 192 19 92 192 19 92 192
19 92 192 19 92 192 19 92 192 19 92 192
19 92 192 19 92 192 19 92 192 19 92 192
19 92 192 19 92 192 19 92 192 19 92 192
19 92 192 19 92 192 19 92 192 19 92 192
19 92 192 19 92 192 19 92 192 19 92 192
19 92 192 19 92 192 19 92 192 19 92 192
19 92 192 19 92 192 19 92 192 19 92 192
19 92 192 19 92 192 19 92 192 19 92 192
19 92 192 19 92 192 19 92 192 19 92 192
19 92 192 19 92 192 19 92 192 19 92 192
19 92 192 19 92 192 19 92 192 19 92 192
19 92 192 19 92 192 19 92 192 19 92 192
19 92 192 19 92 192 19 92 192 19 92 192
19 92 192 19 92 192 19 92 192 19 92 192
19 92 192 19 92 192 19 92 192 19 92 192
19 92 192 19 92 192 19 92 192 19 92 192
19 92 192 19 92 192 19 92 192 19 92 192
19 92 192 19 92 192 19 92 192 19 92 192
19 92 192 19 92 192 19 92 192 19 92 192
19 92 192 19 92 192 19 92 192 19 92 192
19 92 192 19 92 192 19 92 192 147 102 80
175 116 83 160 109 82 144 82 37 129 66 15
102 51 10 94 47 9 86 43 8 81 40 8
76 38 7 73 36 7 114 57 11 160 84 24
108 82 77 110 83 77 52 54 71 52 55 71
52 55 71 52 54 71 52 54 71 52 54 71
52 54 71 52 54 71 51 54 71 51 54 71
50 53 71 50 53 71 49 53 71 48 52 71
47 52 70 46 51 70 0 0 0 111 65 34
136 78 36 139 79 37 143 83 41 140 82 41
148 84 38 148 84 37 145 82 37 138 79 36
128 74 35 120 69 35 3 1 0 80 68 74
81 69 74 82 69 74 82 70 74 83 70 74
84 70 74 84 70 74 84 71 74 85 71 74
85 71 74 85 71 74 85 71 74 86 71 74
86 71 74 86 71 74 86 71 74 86 71 74
86 71 74 89 54 31 78 39 7 0 0 0
0 0 0 0 0 0 0 0 0 0 1 2
0 0 0 116 59 14 139 79 36 144 100 80
165 111 82 144 100 80 19 92 192 19 92 192
19 92 192 19 92 192 19 92 192 19 92 192
19 92 192 19 92 192 19 92 192 19 92 192
19 92 192 19 92 192 19 92 192 19 92 192
19 92 192 19 92 192 19 92 192 19 92 192
19 92 192 19 92 192 19 92 192 19 92 192
19 92 192 19 92 192 19 92 192 19 92 192
19 92 192 19 92 192 19 92 192 19 92 192
19 92 192 19 92 192 19 92 192 19 92 192
19 92 192 19 92 192 19 92 192 19 92 192
19 92 192 19 92 192 19 92 192 19 92 192
19 92 192 19 92 192 19 92 192 19 92 192
19 92 192 19 92 192 19 92 192 19 92 192
19 92 192 19 92 192 19 92 192 19 92 192
19 92 192 19 92 192 19 92 192 19 92 192
19 92 192 19 92 192 19 92 192 19 92 192
19 92 192 19 92 192 19 92 192 19 92 192
19 92 192 19 92 192 19 92 192 19 92 192
19 92 192 19 92 192 19 92 192 19 92 192
19 92 192 19 92 192 19 92 192 19 92 192
19 92 192 19 92 192 19 92 192 19 92 192
19 92 192 19 92 192 19 92 192 19 92 192
19 92 192 19 92 192 19 92 192 19 92 192
19 92 192 19 92 192 19 92 192 19 92 192
19 92 192 19 92 192 19 92 192 19 92 192
19 92 192 19 92 192 19 92 192 19 92 192
19 92 192 19 92 192 19 92 192 19 92 192
19 92 192 19 92 192 19 92 192 19 92 192
19 92 192 19 92 192 19 92 192 19 92 192
19 92 192 19 92 192 19 92 192 19 92 192
19 92 192 19 92 192 19 92 192 19 92 192
19 92 192 19 92 192 19 92 192 19 92 192
19 92 192 19 92 192 19 92 192 19 92 192
19 92 192 19 92 192 19 92 192 19 92 192
19 92 192 19 92 192 19 92 192 19 92 192
19 92 192 19 92 192 19 92 192 19 92 192
19 92 192 19 92 192 19 92 192 19 92 192
19 92 192 19 92 192 19 92 192 19 92 192
19 92 192 19 92 192 19 92 192 19 92 192
19 92 192 19 92 192 19 92 192 19 92 192
19 92 192 19 92 192 19 92 192 19 92 192
19 92 192 19 92 192 19 92 192 19 92 192
19 92 192 19 92 192 19 92 192 19 92 192
19 92 192 19 92 192 19 92 192 19 92 192
19 92 192 19 92 192 19 92 192 19 92 192
19 92 192 168 112 83 157 107 81 147 83 37
120 61 14 91 45 9 82 41 8 73 36 7
69 34 6 64 32 6 0 0 0 148 77 23
166 93 39 112 84 77 54 56 71 55 56 71
55 56 71 55 56 71 55 56 71 55 56 71
55 56 71 55 56 71 55 56 71 54 56 71
54 55 71 54 55 71 53 55 71 53 55 71
52 55 71 51 54 71 51 54 71 50 53 71
112 57 14 56 28 5 101 79 76 112 85 77
116 86 77 110 55 11 183 102 43 189 105 44
190 105 42 191 105 42 190 104 42 133 66 13
136 96 79 126 91 78 113 85 77 91 45 9
137 72 22 85 71 74 85 71 74 86 71 74
86 71 74 86 72 74 87 72 74 87 72 74
87 72 75 87 72 75 88 72 75 88 72 75
88 72 75 88 72 75 88 72 75 88 73 75
88 73 75 88 73 75 88 73 75 88 73 75
104 62 33 89 48 16 0 0 0 0 0 0
0 0 0 1 0 0 87 43 8 93 46 9
115 61 19 135 77 36 144 100 80 159 108 82
19 92 192 19 92 192 19 92 192 19 92 192
19 92 192 19 92 192 19 92 192 19 92 192
19 92 192 19 92 192 19 92 192 19 92 192
19 92 192 19 92 192 19 92 192 19 92 192
19 92 192 19 92 192 19 92 192 19 92 192
19 92 192 19 92 192 19 92 192 19 92 192
19 92 192 19 92 192 19 92 192 19 92 192
19 92 192 19 92 192 19 92 192 19 92 192
19 92 192 19 92 192 19 92 192 19 92 192
19 92 192 19 92 192 19 92 192 19 92 192
19 92 192 19 92 192 19 92 192 19 92 192
19 92 192 19 92 192 19 92 192 19 92 192
19 92 192 19 92 192 19 92 192 19 92 192
19 92 192 19 92 192 19 92 192 19 92 192
19 92 192 19 92 192 19 92 192 19 92 192
19 92 192 19 92 192 19 92 192 19 92 192
19 92 192 19 92 192 19 92 192 19 92 192
19 92 192 19 92 192 19 92 192 19 92 192
19 92 192 19 92 192 19 92 192 19 92 192
19 92 192 19 92 192 19 92 192 19 92 192
19 92 192 19 92 192 19 92 192 19 92 192
19 92 192 19 92 192 19 92 192 19 92 192
19 92 192 19 92 192 19 92 192 19 92 192
19 92 192 19 92 192 19 92 192 19 92 192
19 92 192 19 92 192 19 92 192 19 92 192
19 92 192 19 92 192 19 92 192 19 92 192
19 92 192 19 92 192 19 92 192 19 92 192
19 92 192 19 92 192 19 92 192 19 92 192
19 92 192 19 92 192 19 92 192 19 92 192
19 92 192 19 92 192 19 92 192 19 92 192
19 92 192 19 92 192 19 92 192 19 92 192
19 92 192 19 92 192 19 92 192 19 92 192
19 92 192 19 92 192 19 92 192 19 92 192
19 92 192 19 92 192 19 92 192 19 92 192
19 92 192 19 92 192 19 92 192 19 92 192
19 92 192 19 92 192 19 92 192 19 92 192
19 92 192 19 92 192 19 92 192 19 92 192
19 92 192 19 92 192 19 92 192 19 92 192
19 92 192 19 92 192 19 92 192 19 92 192
19 92 192 19 92 192 19 92 192 19 92 192
19 92 192 19 92 192 19 92 192 19 92 192
19 92 192 19 92 192 19 92 192 19 92 192
19 92 192 19 92 192 19 92 192 19 92 192
19 92 192 19 92 192 111 84 77 165 111 82
143 100 80 118 69 34 86 43 8 75 37 7
65 32 6 57 28 5 57 28 5 0 0 0
134 70 21 164 91 39 113 85 77 116 86 77
57 57 72 58 57 72 58 57 72 58 57 72
58 57 72 58 57 72 58 57 72 58 57 72
58 57 72 58 57 72 57 57 72 57 57 72
57 57 72 57 57 72 57 57 72 57 57 72
58 57 72 59 58 72 62 59 72 66 61 72
80 68 74 92 74 75 109 83 77 119 88 78
124 90 78 176 121 91 225 166 134 214 152 117
186 123 87 185 121 85 191 128 93 193 132 98
173 116 85 163 110 82 151 104 81 136 97 79
123 90 78 118 87 78 116 86 77 118 88 78
119 88 78 121 89 78 122 89 78 123 90 78
124 90 78 125 91 78 125 91 78 126 91 78
126 91 78 126 91 78 126 91 78 126 91 78
126 91 78 126 91 78 125 91 78 125 91 78
123 90 78 122 89 78 120 88 78 133 76 36
102 51 10 0 0 0 73 36 7 76 38 7
80 40 8 85 42 8 92 46 9 128 74 35
127 92 79 155 106 81 8 14 23 19 92 192
19 92 192 19 92 192 19 92 192 19 92 192
19 92 192 19 92 192 19 92 192 19 92 192
19 92 192 19 92 192 19 92 192 19 92 192
19 92 192 19 92 192 19 92 192 19 92 192
19 92 192 19 92 192 19 92 192 19 92 192
19 92 192 19 92 192 19 92 192 19 92 192
19 92 192 19 92 192 19 92 192 19 92 192
19 92 192 19 92 192 19 92 192 19 92 192
19 92 192 19 92 192 19 92 192 19 92 192
19 92 192 19 92 192 19 92 192 19 92 192
19 92 192 19 92 192 19 92 192 19 92 192
19 92 192 19 92 192 19 92 192 19 92 192
19 92 192 19 92 192 19 92 192 19 92 192
19 92 192 19 92 192 19 92 192 19 92 192
19 92 192 19 92 192 19 92 192 19 92 192
19 92 192 19 92 192 19 92 192 19 92 192
19 92 192 19 92 192 19 92 192 19 92 192
19 92 192 19 92 192 19 92 192 19 92 192
19 92 192 19 92 192 19 92 192 19 92 192
19 92 192 19 92 192 19 92 192 19 92 192
19 92 192 19 92 192 19 92 192 19 92 192
19 92 192 19 92 192 19 92 192 19 92 192
19 92 192 19 92 192 19 92 192 19 92 192
19 92 192 19 92 192 19 92 192 19 92 192
19 92 192 19 92 192 19 92 192 19 92 192
19 92 192 19 92 192 19 92 192 19 92 192
19 92 192 19 92 192 19 92 192 19 92 192
19 92 192 19 92 192 19 92 192 19 92 192
19 92 192 19 92 192 19 92 192 19 92 192
19 92 192 19 92 192 19 92 192 19 92 192
19 92 192 19 92 192 19 92 192 19 92 192
19 92 192 19 92 192 19 92 192 19 92 192
19 92 192 19 92 192 19 92 192 19 92 192
19 92 192 19 92 192 19 92 192 19 92 192
19 92 192 19 92 192 19 92 192 19 92 192
19 92 192 19 92 192 19 92 192 19 92 192
19 92 192 19 92 192 19 92 192 19 92 192
19 92 192 19 92 192 19 92 192 19 92 192
19 92 192 19 92 192 19 92 192 19 92 192
19 92 192 19 92 192 19 92 192 19 92 192
19 92 192 19 92 192 19 92 192 19 92 192
19 92 192 19 92 192 19 92 192 19 92 192
19 92 192 158 107 82 137 97 79 111 57 13
76 38 7 67 33 6 58 29 5 52 26 5
0 0 0 102 51 10 157 88 38 112 85 77
117 87 77 119 88 78 120 88 78 60 58 72
60 58 72 60 58 72 60 58 72 60 59 72
60 59 72 60 59 72 60 59 72 61 59 72
61 59 72 61 59 72 61 59 72 62 59 72
62 59 72 63 60 72 64 60 72 65 61 72
67 62 72 71 64 73 76 66 73 82 69 74
91 74 75 99 78 76 106 81 76 167 112 82
177 117 84 186 122 85 195 126 86 200 129 87
203 130 88 214 142 99 228 157 115 210 142 101
188 123 86 178 118 84 168 112 83 158 107 82
149 103 81 140 98 80 134 95 79 130 94 79
129 93 79 128 92 79 128 92 79 128 92 79
128 92 79 128 93 79 129 93 79 129 93 79
129 93 79 129 93 79 129 93 79 129 93 79
129 93 79 129 93 79 129 93 79 129 93 79
128 92 79 128 92 79 126 92 78 125 91 78
124 90 78 120 88 78 149 84 37 72 36 7
0 0 0 71 35 7 75 37 7 81 40 8
87 43 8 122 71 35 110 84 77 152 105 81
19 92 192 19 92 192 19 92 192 19 92 192
19 92 192 19 92 192 19 92 192 19 92 192
19 92 192 19 92 192 19 92 192 19 92 192
100 79 76 114 85 77 117 87 78 119 88 78
121 89 78 123 90 78 125 91 78 123 90 78
119 88 78 115 86 77 2 11 23 19 92 192
19 92 192 19 92 192 19 92 192 19 92 192
19 92 192 19 92 192 19 92 192 19 92 192
19 92 192 19 92 192 19 92 192 19 92 192
19 92 192 19 92 192 19 92 192 19 92 192
19 92 192 19 92 192 19 92 192 19 92 192
19 92 192 19 92 192 19 92 192 19 92 192
19 92 192 19 92 192 19 92 192 19 92 192
19 92 192 19 92 192 19 92 192 19 92 192
19 92 192 19 92 192 19 92 192 19 92 192
19 92 192 19 92 192 19 92 192 19 92 192
19 92 192 19 92 192 19 92 192 19 92 192
19 92 192 19 92 192 19 92 192 19 92 192
19 92 192 19 92 192 19 92 192 19 92 192
19 92 192 19 92 192 19 92 192 19 92 192
19 92 192 19 92 192 19 92 192 19 92 192
19 92 192 19 92 192 19 92 192 19 92 192
19 92 192 19 92 192 19 92 192 19 92 192
19 92 192 19 92 192 19 92 192 19 92 192
19 92 192 19 92 192 19 92 192 19 92 192
19 92 192 19 92 192 19 92 192 19 92 192
19 92 192 19 92 192 19 92 192 19 92 192
19 92 192 19 92 192 19 92 192 19 92 192
19 92 192 19 92 192 19 92 192 19 92 192
19 92 192 19 92 192 19 92 192 19 92 192
19 92 192 19 92 192 19 92 192 19 92 192
19 92 192 19 92 192 19 92 192 19 92 192
19 92 192 19 92 192 19 92 192 19 92 192
19 92 192 19 92 192 19 92 192 19 92 192
19 92 192 19 92 192 19 92 192 19 92 192
19 92 192 19 92 192 19 92 192 19 92 192
19 92 192 19 92 192 19 92 192 19 92 192
19 92 192 19 92 192 19 92 192 19 92 192
19 92 192 19 92 192 19 92 192 19 92 192
19 92 192 19 92 192 19 92 192 19 92 192
19 92 192 19 92 192 19 92 192 19 92 192
19 92 192 19 92 192 19 92 192 136 96 79
141 99 80 110 65 34 77 38 7 64 32 6
56 28 5 70 35 7 0 0 0 109 54 10
155 87 38 114 86 77 118 87 78 121 89 78
122 89 78 124 90 78 125 91 78 125 91 78
62 60 72 63 60 72 63 60 72 63 60 72
63 60 72 63 60 72 64 60 72 64 60 72
64 60 72 65 61 72 65 61 72 66 61 72
67 62 72 69 63 73 71 64 73 73 65 73
75 66 73 79 68 74 83 70 74 87 72 75
151 104 81 159 108 82 167 112 82 176 98 40
190 105 42 201 110 43 217 124 55 219 124 54
207 114 44 205 113 43 202 112 45 195 108 43
187 103 41 177 98 40 174 115 83 167 112 83
160 108 82 154 105 81 149 103 81 144 101 80
141 99 80 138 97 80 136 97 79 135 96 79
135 96 79 134 95 79 134 95 79 133 95 79
133 95 79 133 95 79 133 95 79 133 95 79
133 95 79 133 95 79 132 95 79 132 94 79
132 94 79 131 94 79 131 94 79 130 93 79
129 93 79 128 92 79 126 91 78 123 90 78
149 84 37 0 0 0 70 35 7 66 33 6
89 44 8 76 38 7 85 42 8 126 73 35
132 94 79 134 96 79 19 92 192 19 92 192
19 92 192 19 92 192 99 78 76 114 85 77
122 89 78 127 92 79 132 94 79 136 96 79
138 98 80 140 99 80 143 100 80 144 101 80
146 102 80 147 102 80 147 102 81 147 102 81
148 102 81 145 101 80 141 99 80 137 97 80
126 91 78 0 3 8 19 92 192 19 92 192
19 92 192 19 92 192 19 92 192 19 92 192
19 92 192 19 92 192 19 92 192 19 92 192
19 92 192 19 92 192 19 92 192 19 92 192
19 92 192 19 92 192 19 92 192 19 92 192
19 92 192 19 92 192 19 92 192 19 92 192
19 92 192 19 92 192 19 92 192 19 92 192
19 92 192 19 92 192 19 92 192 19 92 192
19 92 192 19 92 192 19 92 192 19 92 192
19 92 192 19 92 192 19 92 192 19 92 192
19 92 192 19 92 192 19 92 192 19 92 192
19 92 192 19 92 192 19 92 192 19 92 192
19 92 192 19 92 192 19 92 192 19 92 192
19 92 192 19 92 192 19 92 192 19 92 192
19 92 192 19 92 192 19 92 192 19 92 192
19 92 192 19 92 192 19 92 192 19 92 192
19 92 192 19 92 192 19 92 192 19 92 192
19 92 192 19 92 192 19 92 192 19 92 192
19 92 192 19 92 192 19 92 192 19 92 192
19 92 192 19 92 192 19 92 192 19 92 192
19 92 192 19 92 192 19 92 192 19 92 192
19 92 192 19 92 192 19 92 192 19 92 192
19 92 192 19 92 192 19 92 192 19 92 192
19 92 192 19 92 192 19 92 192 19 92 192
19 92 192 19 92 192 19 92 192 19 92 192
19 92 192 19 92 192 19 92 192 19 92 192
19 92 192 19 92 192 19 92 192 19 92 192
19 92 192 19 92 192 19 92 192 19 92 192
19 92 192 19 92 192 19 92 192 19 92 192
19 92 192 19 92 192 19 92 192 19 92 192
19 92 192 19 92 192 19 92 192 19 92 192
19 92 192 19 92 192 19 92 192 19 92 192
19 92 192 19 92 192 19 92 192 19 92 192
19 92 192 19 92 192 19 92 192 19 92 192
19 92 192 19 92 192 19 92 192 19 92 192
19 92 192 19 92 192 146 102 80 115 86 77
94 47 9 67 33 6 55 27 5 27 13 2
0 0 0 0 0 0 142 81 37 116 86 77
119 88 78 122 89 78 124 90 78 125 91 78
127 92 78 127 92 79 128 92 79 129 93 79
129 93 79 130 93 79 130 93 79 65 61 72
66 61 72 66 61 72 66 62 72 67 62 72
67 62 73 68 63 73 69 63 73 70 64 73
71 64 73 73 65 73 75 66 73 140 99 80
143 100 80 146 101 80 150 103 81 154 105 81
159 108 82 163 110 82 164 92 39 180 100 41
191 105 42 198 109 43 206 115 47 207 115 47
202 111 43 201 110 43 197 108 42 190 105 42
186 103 41 179 99 40 170 95 40 170 113 83
166 111 82 161 109 82 157 107 81 153 105 81
149 103 81 147 102 80 145 101 80 142 100 80
141 99 80 140 98 80 139 98 80 138 98 80
138 97 80 137 97 80 137 97 79 137 97 79
136 97 79 136 96 79 136 96 79 135 96 79
135 96 79 135 96 79 134 96 79 134 95 79
133 95 79 132 94 79 131 94 79 130 93 79
127 92 79 125 91 78 155 81 23 1 0 0
68 34 6 63 31 6 68 34 6 75 37 7
95 47 9 107 82 76 146 102 80 79 68 74
83 70 74 134 95 79 138 98 80 142 99 80
145 101 80 147 102 81 150 103 81 153 105 81
156 106 81 158 107 82 160 108 82 161 109 82
163 110 82 164 110 82 165 111 82 165 111 82
165 111 82 164 110 82 162 109 82 159 108 82
154 105 81 145 101 80 133 95 79 19 92 192
19 92 192 19 92 192 19 92 192 19 92 192
19 92 192 19 92 192 19 92 192 19 92 192
19 92 192 19 92 192 19 92 192 19 92 192
19 92 192 19 92 192 19 92 192 19 92 192
19 92 192 19 92 192 19 92 192 19 92 192
19 92 192 19 92 192 19 92 192 19 92 192
19 92 192 19 92 192 19 92 192 19 92 192
19 92 192 19 92 192 19 92 192 19 92 192
19 92 192 19 92 192 19 92 192 19 92 192
19 92 192 19 92 192 19 92 192 19 92 192
19 92 192 19 92 192 19 92 192 19 92 192
19 92 192 19 92 192 19 92 192 19 92 192
19 92 192 19 92 192 19 92 192 19 92 192
19 92 192 19 92 192 19 92 192 19 92 192
19 92 192 19 92 192 19 92 192 19 92 192
19 92 192 19 92 192 19 92 192 19 92 192
19 92 192 19 92 192 19 92 192 19 92 192
19 92 192 19 92 192 19 92 192 19 92 192
19 92 192 19 92 192 19 92 192 19 92 192
19 92 192 19 92 192 19 92 192 19 92 192
19 92 192 19 92 192 19 92 192 19 92 192
19 92 192 19 92 192 19 92 192 19 92 192
19 92 192 19 92 192 19 92 192 19 92 192
19 92 192 19 92 192 19 92 192 19 92 192
19 92 192 19 92 192 19 92 192 19 92 192
19 92 192 19 92 192 19 92 192 19 92 192
19 92 192 19 92 192 19 92 192 19 92 192
19 92 192 19 92 192 19 92 192 19 92 192
19 92 192 19 92 192 19 92 192 19 92 192
19 92 192 19 92 192 19 92 192 19 92 192
19 92 192 19 92 192 19 92 192 19 92 192
19 92 192 19 92 192 19 92 192 19 92 192
19 92 192 19 92 192 19 92 192 19 92 192
19 92 192 19 92 192 19 92 192 19 92 192
66 43 29 145 101 80 127 73 35 76 38 7
57 28 5 48 24 4 0 0 0 28 14 2
121 60 12 154 80 23 120 88 78 123 90 78
125 91 78 127 92 78 128 92 79 129 93 79
130 93 79 131 94 79 131 94 79 132 94 79
132 95 79 133 95 79 133 95 79 134 95 79
134 96 79 135 96 79 135 96 79 136 96 79
137 97 79 138 97 80 139 98 80 140 98 80
141 99 80 142 100 80 145 101 80 147 102 80
149 103 81 152 104 81 154 105 81 158 107 82
162 109 82 161 90 39 171 95 40 182 101 41
189 104 41 194 107 42 199 110 44 199 110 44
198 109 42 198 108 42 193 106 42 186 102 41
182 101 41 178 99 40 171 95 40 166 93 39
167 112 82 164 110 82 161 109 82 158 107 82
155 106 81 153 105 81 150 103 81 148 103 81
147 102 80 145 101 80 144 100 80 143 100 80
142 100 80 142 99 80 141 99 80 140 99 80
140 98 80 139 98 80 139 98 80 139 98 80
138 98 80 138 97 80 137 97 80 137 97 79
137 97 79 136 96 79 135 96 79 134 95 79
133 95 79 131 94 79 129 93 79 170 95 40
129 64 12 0 0 0 66 33 6 73 36 7
66 33 6 78 39 7 119 61 15 145 101 80
96 76 75 98 78 76 101 79 76 157 107 82
160 109 82 163 110 82 165 111 82 167 112 83
170 113 83 172 114 83 174 115 83 175 116 83
176 116 83 176 116 83 177 117 83 177 117 83
176 116 83 175 116 83 173 115 83 170 114 83
167 112 83 162 109 82 154 106 81 140 98 80
106 81 76 19 92 192 19 92 192 19 92 192
19 92 192 19 92 192 19 92 192 19 92 192
19 92 192 19 92 192 19 92 192 19 92 192
19 92 192 19 92 192 19 92 192 19 92 192
19 92 192 19 92 192 19 92 192 19 92 192
19 92 192 19 92 192 19 92 192 19 92 192
19 92 192 19 92 192 19 92 192 19 92 192
19 92 192 19 92 192 19 92 192 19 92 192
19 92 192 19 92 192 19 92 192 19 92 192
19 92 192 19 92 192 19 92 192 19 92 192
19 92 192 19 92 192 19 92 192 19 92 192
19 92 192 19 92 192 19 92 192 19 92 192
19 92 192 19 92 192 19 92 192 19 92 192
19 92 192 19 92 192 19 92 192 19 92 192
19 92 192 19 92 192 19 92 192 19 92 192
19 92 192 19 92 192 19 92 192 19 92 192
19 92 192 19 92 192 19 92 192 19 92 192
19 92 192 19 92 192 19 92 192 19 92 192
19 92 192 19 92 192 19 92 192 19 92 192
19 92 192 19 92 192 19 92 192 19 92 192
19 92 192 19 92 192 19 92 192 19 92 192
19 92 192 19 92 192 19 92 192 19 92 192
19 92 192 19 92 192 19 92 192 19 92 192
19 92 192 19 92 192 19 92 192 19 92 192
19 92 192 19 92 192 19 92 192 19 92 192
19 92 192 19 92 192 19 92 192 19 92 192
19 92 192 19 92 192 19 92 192 19 92 192
19 92 192 19 92 192 19 92 192 19 92 192
19 92 192 19 92 192 19 92 192 19 92 192
19 92 192 19 92 192 19 92 192 19 92 192
19 92 192 19 92 192 19 92 192 19 92 192
19 92 192 19 92 192 19 92 192 19 92 192
19 92 192 19 92 192 19 92 192 19 92 192
19 92 192 19 92 192 19 92 192 19 92 192
139 98 80 112 84 77 69 34 6 53 26 5
0 0 0 0 0 0 0 0 0 135 77 36
116 86 77 123 90 78 125 91 78 127 92 79
129 93 79 130 94 79 131 94 79 132 95 79
133 95 79 134 95 79 134 96 79 135 96 79
136 96 79 136 96 79 137 97 79 137 97 80
138 97 80 138 98 80 139 98 80 140 98 80
141 99 80 142 99 80 143 100 80 144 100 80
146 101 80 147 102 80 149 103 81 151 104 81
153 105 81 155 106 81 157 107 82 160 108 82
162 109 82 161 90 39 172 96 40 181 100 41
186 103 41 199 103 27 192 106 42 192 106 42
190 105 42 191 105 42 187 103 41 181 100 41
178 99 40 175 97 40 170 95 40 164 92 39
167 112 82 165 111 82 162 110 82 160 109 82
158 107 82 156 106 81 154 105 81 152 105 81
151 104 81 149 103 81 148 103 81 147 102 80
146 101 80 145 101 80 145 101 80 144 100 80
143 100 80 143 100 80 142 99 80 142 99 80
141 99 80 141 99 80 140 99 80 140 98 80
139 98 80 139 98 80 138 98 80 138 97 80
137 97 79 136 96 79 134 95 79 132 94 79
127 92 78 156 81 23 0 0 0 8 4 0
64 32 6 60 30 6 71 35 7 95 76 75
142 99 80 108 83 77 110 84 77 112 85 77
115 86 77 176 116 83 178 117 84 179 118 84
181 119 84 182 119 84 182 120 84 182 120 84
182 119 84 181 119 84 180 118 84 178 117 84
175 116 83 172 115 83 170 113 83 167 112 83
164 111 82 162 110 82 158 107 82 152 104 81
139 98 80 101 79 76 19 92 192 19 92 192
19 92 192 19 92 192 19 92 192 19 92 192
19 92 192 19 92 192 19 92 192 19 92 192
19 92 192 19 92 192 19 92 192 19 92 192
19 92 192 19 92 192 19 92 192 19 92 192
19 92 192 19 92 192 19 92 192 19 92 192
19 92 192 19 92 192 19 92 192 19 92 192
19 92 192 19 92 192 19 92 192 19 92 192
19 92 192 19 92 192 19 92 192 19 92 192
19 92 192 19 92 192 19 92 192 19 92 192
19 92 192 19 92 192 19 92 192 19 92 192
19 92 192 19 92 192 19 92 192 19 92 192
19 92 192 19 92 192 19 92 192 19 92 192
19 92 192 19 92 192 19 92 192 19 92 192
19 92 192 19 92 192 19 92 192 19 92 192
19 92 192 19 92 192 19 92 192 19 92 192
19 92 192 19 92 192 19 92 192 19 92 192
19 92 192 19 92 192 19 92 192 19 92 192
19 92 192 19 92 192 19 92 192 19 92 192
19 92 192 19 92 192 19 92 192 19 92 192
19 92 192 19 92 192 19 92 192 19 92 192
19 92 192 19 92 192 19 92 192 19 92 192
19 92 192 19 92 192 19 92 192 19 92 192
19 92 192 19 92 192 19 92 192 19 92 192
19 92 192 19 92 192 19 92 192 19 92 192
19 92 192 19 92 192 19 92 192 19 92 192
19 92 192 19 92 192 19 92 192 19 92 192
19 92 192 19 92 192 19 92 192 19 92 192
19 92 192 19 92 192 19 92 192 19 92 192
19 92 192 19 92 192 19 92 192 19 92 192
19 92 192 19 92 192 19 92 192 19 92 192
19 92 192 19 92 192 19 92 192 19 92 192
19 92 192 19 92 192 19 92 192 19 92 192
19 92 192 19 92 192 19 92 192 119 88 78
127 92 78 74 37 7 48 24 4 0 0 0
0 0 0 49 24 4 142 74 22 118 87 78
125 91 78 127 92 79 129 93 79 131 94 79
133 95 79 134 95 79 134 96 79 135 96 79
136 96 79 137 97 79 137 97 80 138 97 80
138 98 80 139 98 80 140 98 80 140 98 80
141 99 80 142 99 80 142 100 80 143 100 80
144 100 80 145 101 80 146 101 80 148 102 81
149 103 81 150 103 81 152 104 81 153 105 81
155 106 81 157 107 81 159 108 82 161 109 82
158 89 38 166 93 39 173 96 40 179 99 40
183 101 41 192 99 27 184 92 18 184 92 18
185 92 18 186 93 18 187 93 19 182 94 26
174 97 40 172 96 40 169 94 39 163 91 39
162 91 39 165 111 82 163 110 82 161 109 82
160 108 82 158 107 82 156 107 81 155 106 81
154 105 81 152 105 81 151 104 81 150 103 81
149 103 81 148 103 81 148 102 81 147 102 80
146 101 80 146 101 80 145 101 80 145 101 80
144 100 80 144 100 80 143 100 80 143 100 80
142 100 80 142 99 80 141 99 80 141 99 80
140 98 80 139 98 80 138 97 80 136 97 79
134 96 79 129 93 79 152 79 23 0 0 0
0 0 0 71 35 7 55 27 5 70 35 7
117 87 77 131 94 79 119 88 78 120 88 78
122 89 78 123 90 78 124 90 78 185 121 84
184 121 84 183 120 84 180 119 84 177 117 84
173 115 83 168 112 83 161 109 82 156 106 81
149 103 81 143 100 80 140 98 80 137 97 80
137 97 80 140 98 80 142 99 80 145 101 80
141 99 80 124 90 78 19 92 192 19 92 192
19 92 192 19 92 192 19 92 192 19 92 192
19 92 192 19 92 192 19 92 192 19 92 192
19 92 192 19 92 192 19 92 192 19 92 192
19 92 192 19 92 192 19 92 192 19 92 192
19 92 192 19 92 192 19 92 192 19 92 192
19 92 192 19 92 192 19 92 192 19 92 192
19 92 192 19 92 192 19 92 192 19 92 192
19 92 192 19 92 192 19 92 192 19 92 192
19 92 192 19 92 192 19 92 192 19 92 192
19 92 192 19 92 192 19 92 192 19 92 192
19 92 192 19 92 192 19 92 192 19 92 192
19 92 192 19 92 192 19 92 192 19 92 192
19 92 192 19 92 192 19 92 192 19 92 192
19 92 192 19 92 192 19 92 192 19 92 192
19 92 192 19 92 192 19 92 192 19 92 192
19 92 192 19 92 192 19 92 192 19 92 192
19 92 192 19 92 192 19 92 192 19 92 192
19 92 192 19 92 192 19 92 192 19 92 192
19 92 192 19 92 192 19 92 192 19 92 192
19 92 192 19 92 192 19 92 192 19 92 192
19 92 192 19 92 192 19 92 192 19 92 192
19 92 192 19 92 192 19 92 192 19 92 192
19 92 192 19 92 192 19 92 192 19 92 192
19 92 192 19 92 192 19 92 192 19 92 192
19 92 192 19 92 192 19 92 192 19 92 192
19 92 192 19 92 192 19 92 192 19 92 192
19 92 192 19 92 192 19 92 192 19 92 192
19 92 192 19 92 192 19 92 192 19 92 192
19 92 192 19 92 192 19 92 192 19 92 192
19 92 192 19 92 192 19 92 192 19 92 192
19 92 192 19 92 192 19 92 192 19 92 192
19 92 192 19 92 192 19 92 192 19 92 192
19 92 192 19 92 192 91 74 75 138 98 80
94 47 9 49 24 4 12 6 1 48 24 4
49 24 4 124 62 12 119 88 78 125 91 78
129 93 79 131 94 79 133 95 79 135 96 79
135 96 79 136 97 79 137 97 80 138 97 80
139 98 80 139 98 80 140 98 80 140 99 80
141 99 80 142 99 80 142 99 80 143 100 80
144 100 80 144 100 80 145 101 80 146 101 80
147 102 80 148 102 81 149 103 81 150 103 81
151 104 81 152 104 81 153 105 81 155 106 81
156 107 81 158 107 82 159 108 82 160 109 82
158 89 38 166 93 39 173 96 40 177 98 40
183 91 18 199 103 28 201 105 29 201 104 29
197 102 27 194 100 27 195 101 27 191 99 27
171 85 17 170 95 40 167 93 39 163 91 39
160 90 39 164 110 82 163 110 82 161 109 82
160 109 82 159 108 82 158 107 82 157 107 81
156 106 81 154 106 81 154 105 81 153 105 81
152 104 81 151 104 81 150 103 81 149 103 81
149 103 81 148 102 81 148 102 81 147 102 80
147 102 80 146 101 80 146 101 80 145 101 80
145 101 80 144 101 80 144 100 80 143 100 80
143 100 80 142 99 80 141 99 80 140 98 80
138 98 80 136 96 79 131 94 79 137 68 13
0 0 0 0 3 8 0 3 8 52 26 5
77 38 7 143 100 80 110 83 77 124 91 78
124 91 79 124 91 79 122 90 79 120 88 78
170 114 83 162 110 82 152 104 81 142 99 80
131 94 79 118 88 78 105 81 76 94 75 75
82 70 74 77 67 74 74 65 73 75 66 73
83 70 74 92 74 75 110 83 77 120 89 78
134 95 79 128 92 79 97 77 75 19 92 192
19 92 192 19 92 192 19 92 192 19 92 192
19 92 192 19 92 192 19 92 192 19 92 192
19 92 192 19 92 192 19 92 192 19 92 192
19 92 192 19 92 192 19 92 192 19 92 192
19 92 192 19 92 192 19 92 192 19 92 192
19 92 192 19 92 192 19 92 192 19 92 192
19 92 192 19 92 192 19 92 192 19 92 192
19 92 192 19 92 192 19 92 192 19 92 192
19 92 192 19 92 192 19 92 192 19 92 192
19 92 192 19 92 192 19 92 192 19 92 192
19 92 192 19 92 192 19 92 192 19 92 192
19 92 192 19 92 192 19 92 192 19 92 192
19 92 192 19 92 192 19 92 192 19 92 192
19 92 192 19 92 192 19 92 192 19 92 192
19 92 192 19 92 192 19 92 192 19 92 192
19 92 192 19 92 192 19 92 192 19 92 192
19 92 192 19 92 192 19 92 192 19 92 192
19 92 192 19 92 192 19 92 192 19 92 192
19 92 192 19 92 192 19 92 192 19 92 192
19 92 192 19 92 192 19 92 192 19 92 192
19 92 192 19 92 192 19 92 192 19 92 192
19 92 192 19 92 192 19 92 192 19 92 192
19 92 192 19 92 192 19 92 192 19 92 192
19 92 192 19 92 192 19 92 192 19 92 192
19 92 192 19 92 192 19 92 192 19 92 192
19 92 192 19 92 192 19 92 192 19 92 192
19 92 192 19 92 192 19 92 192 19 92 192
19 92 192 19 92 192 19 92 192 19 92 192
19 92 192 19 92 192 19 92 192 19 92 192
19 92 192 19 92 192 19 92 192 19 92 192
19 92 192 19 92 192 19 92 192 19 92 192
19 92 192 19 92 192 19 92 192 19 92 192
19 92 192 66 33 6 113 85 77 138 97 80
67 33 6 47 23 4 48 24 4 48 24 4
97 48 9 117 87 78 125 91 78 130 93 79
133 95 79 134 96 79 136 96 79 137 97 80
138 97 80 139 98 80 140 98 80 140 99 80
141 99 80 142 99 80 142 99 80 143 100 80
143 100 80 144 100 80 145 101 80 145 101 80
146 101 80 147 102 80 147 102 81 148 102 81
149 103 81 150 103 81 151 104 81 152 104 81
153 105 81 153 105 81 155 106 81 156 106 81
157 107 82 158 108 82 159 108 82 156 88 38
162 91 39 168 94 39 172 96 40 180 90 18
194 100 27 196 102 28 200 105 30 198 103 29
194 100 27 191 99 27 191 99 27 188 97 26
184 95 26 169 84 16 165 92 39 163 91 39
160 90 39 159 89 38 163 110 82 162 109 82
161 109 82 160 108 82 159 108 82 158 107 82
157 107 81 156 106 81 155 106 81 154 106 81
154 105 81 153 105 81 152 104 81 151 104 81
151 104 81 150 104 81 150 103 81 149 103 81
149 103 81 148 103 81 148 102 81 148 102 81
147 102 81 147 102 80 146 102 80 146 101 80
145 101 80 145 101 80 144 100 80 143 100 80
142 99 80 140 98 80 137 97 79 131 94 79
120 60 12 0 0 0 4 2 0 0 0 0
58 29 5 138 97 80 129 93 79 106 56 18
115 86 77 109 83 77 102 79 76 94 75 75
85 71 74 73 65 73 81 69 74 63 60 72
42 49 70 40 30 27 21 14 10 10 8 9
8 7 8 7 6 8 17 10 5 64 37 16
60 45 36 71 63 64 133 112 102 100 78 76
117 87 77 127 92 78 100 78 76 19 92 192
19 92 192 19 92 192 19 92 192 19 92 192
19 92 192 19 92 192 19 92 192 19 92 192
19 92 192 19 92 192 19 92 192 19 92 192
19 92 192 19 92 192 19 92 192 19 92 192
19 92 192 19 92 192 19 92 192 19 92 192
19 92 192 19 92 192 19 92 192 19 92 192
19 92 192 19 92 192 19 92 192 19 92 192
19 92 192 19 92 192 19 92 192 19 92 192
19 92 192 19 92 192 19 92 192 19 92 192
19 92 192 19 92 192 19 92 192 19 92 192
19 92 192 19 92 192 19 92 192 19 92 192
19 92 192 19 92 192 19 92 192 19 92 192
19 92 192 19 92 192 19 92 192 19 92 192
19 92 192 19 92 192 19 92 192 19 92 192
19 92 192 19 92 192 19 92 192 19 92 192
19 92 192 19 92 192 19 92 192 19 92 192
19 92 192 19 92 192 19 92 192 19 92 192
19 92 192 19 92 192 19 92 192 19 92 192
19 92 192 19 92 192 19 92 192 19 92 192
19 92 192 19 92 192 19 92 192 19 92 192
19 92 192 19 92 192 19 92 192 19 92 192
19 92 192 19 92 192 19 92 192 19 92 192
19 92 192 19 92 192 19 92 192 19 92 192
19 92 192 19 92 192 19 92 192 19 92 192
19 92 192 19 92 192 19 92 192 19 92 192
19 92 192 19 92 192 19 92 192 19 92 192
19 92 192 19 92 192 19 92 192 19 92 192
19 92 192 19 92 192 19 92 192 19 92 192
19 92 192 19 92 192 19 92 192 19 92 192
19 92 192 19 92 192 19 92 192 19 92 192
19 92 192 19 92 192 19 92 192 19 92 192
19 92 192 19 92 192 19 92 192 19 92 192
19 92 192 84 70 74 118 87 78 137 97 80
46 23 4 47 23 4 48 24 4 49 24 4
132 69 21 125 91 78 129 93 79 133 95 79
136 96 79 137 97 80 139 98 80 140 98 80
141 99 80 141 99 80 142 99 80 143 100 80
143 100 80 144 100 80 144 101 80 145 101 80
146 101 80 146 101 80 147 102 80 147 102 81
148 102 81 149 103 81 149 103 81 150 103 81
150 104 81 151 104 81 152 104 81 153 105 81
154 105 81 155 106 81 156 106 81 157 107 81
157 107 82 158 108 82 159 108 82 158 89 38
164 92 39 168 94 39 181 94 26 189 98 26
192 99 27 195 101 28 199 105 32 196 103 30
192 99 27 189 98 26 188 97 27 185 96 26
181 94 26 180 93 26 175 88 20 162 91 39
160 90 39 158 89 38 162 109 82 161 109 82
161 109 82 160 108 82 159 108 82 159 108 82
158 107 82 157 107 81 156 107 81 156 106 81
155 106 81 154 106 81 154 105 81 153 105 81
153 105 81 152 105 81 152 104 81 151 104 81
151 104 81 151 104 81 150 103 81 150 103 81
149 103 81 149 103 81 149 103 81 148 102 81
148 102 81 147 102 81 147 102 80 146 101 80
145 101 80 143 100 80 141 99 80 137 97 80
151 79 23 0 0 0 0 0 0 0 0 0
0 0 0 135 96 79 135 96 79 111 84 77
81 69 74 67 62 73 101 90 89 54 51 56
42 25 14 5 12 23 6 32 66 19 92 192
19 92 192 19 92 192 19 92 192 19 92 192
14 27 44 1 5 11 1 5 11 52 28 9
46 23 4 71 49 33 92 84 85 161 131 114
115 86 77 123 90 78 96 77 75 19 92 192
19 92 192 19 92 192 19 92 192 19 92 192
19 92 192 19 92 192 19 92 192 19 92 192
19 92 192 19 92 192 19 92 192 19 92 192
19 92 192 19 92 192 19 92 192 19 92 192
19 92 192 19 92 192 19 92 192 19 92 192
19 92 192 19 92 192 19 92 192 19 92 192
19 92 192 19 92 192 19 92 192 19 92 192
19 92 192 19 92 192 19 92 192 19 92 192
19 92 192 19 92 192 19 92 192 19 92 192
19 92 192 19 92 192 19 92 192 19 92 192
19 92 192 19 92 192 19 92 192 19 92 192
19 92 192 19 92 192 19 92 192 19 92 192
19 92 192 19 92 192 19 92 192 19 92 192
19 92 192 19 92 192 19 92 192 19 92 192
19 92 192 19 92 192 19 92 192 19 92 192
19 92 192 19 92 192 19 92 192 19 92 192
19 92 192 19 92 192 19 92 192 19 92 192
19 92 192 19 92 192 19 92 192 19 92 192
19 92 192 19 92 192 19 92 192 19 92 192
19 92 192 19 92 192 19 92 192 19 92 192
19 92 192 19 92 192 19 92 192 19 92 192
19 92 192 19 92 192 19 92 192 19 92 192
19 92 192 19 92 192 19 92 192 19 92 192
19 92 192 19 92 192 19 92 192 19 92 192
19 92 192 19 92 192 19 92 192 19 92 192
19 92 192 19 92 192 19 92 192 19 92 192
19 92 192 19 92 192 19 92 192 19 92 192
19 92 192 19 92 192 19 92 192 19 92 192
19 92 192 19 92 192 19 92 192 19 92 192
19 92 192 19 92 192 19 92 192 19 92 192
19 92 192 19 92 192 19 92 192 19 92 192
19 92 192 19 92 192 19 92 192 19 92 192
19 92 192 91 74 75 121 89 78 140 98 80
47 23 4 48 24 4 0 0 0 0 0 0
136 78 36 129 93 79 133 95 79 136 96 79
139 98 80 140 98 80 141 99 80 142 99 80
143 100 80 144 100 80 144 100 80 145 101 80
145 101 80 146 101 80 146 102 80 147 102 80
147 102 81 148 102 81 148 103 81 149 103 81
150 103 81 150 103 81 151 104 81 151 104 81
152 104 81 153 105 81 153 105 81 154 105 81
155 106 81 156 106 81 156 107 81 157 107 82
158 107 82 159 108 82 156 79 18 161 90 39
165 92 39 169 94 39 173 86 17 188 97 26
190 98 27 193 101 29 198 105 33 195 102 30
190 98 27 187 97 26 185 96 26 183 95 27
179 93 26 178 92 25 181 90 18 162 91 39
160 90 39 159 89 38 156 81 23 161 109 82
161 109 82 160 109 82 160 108 82 159 108 82
159 108 82 158 107 82 157 107 82 157 107 81
156 107 81 156 106 81 155 106 81 155 106 81
154 106 81 154 105 81 154 105 81 153 105 81
153 105 81 152 105 81 152 104 81 152 104 81
151 104 81 151 104 81 151 104 81 150 104 81
150 103 81 150 103 81 149 103 81 149 103 81
148 102 81 146 102 80 144 100 80 141 99 80
154 87 38 0 0 0 0 0 0 0 0 0
0 0 0 143 100 80 138 97 80 114 85 77
27 17 10 6 32 66 19 92 192 19 92 192
19 92 192 19 92 192 19 92 192 19 92 192
19 92 192 19 92 192 19 92 192 19 92 192
25 37 55 3 16 33 3 16 33 67 42 25
70 35 7 80 41 12 123 100 89 156 122 101
187 141 112 128 92 79 103 80 76 19 92 192
19 92 192 19 92 192 19 92 192 19 92 192
19 92 192 19 92 192 19 92 192 19 92 192
19 92 192 19 92 192 19 92 192 19 92 192
19 92 192 19 92 192 19 92 192 19 92 192
19 92 192 19 92 192 19 92 192 19 92 192
19 92 192 19 92 192 19 92 192 19 92 192
19 92 192 19 92 192 19 92 192 19 92 192
19 92 192 19 92 192 19 92 192 19 92 192
19 92 192 19 92 192 19 92 192 19 92 192
19 92 192 19 92 192 19 92 192 19 92 192
19 92 192 19 92 192 19 92 192 19 92 192
19 92 192 19 92 192 19 92 192 19 92 192
19 92 192 19 92 192 19 92 192 19 92 192
19 92 192 19 92 192 19 92 192 19 92 192
19 92 192 19 92 192 19 92 192 19 92 192
19 92 192 19 92 192 19 92 192 19 92 192
19 92 192 19 92 192 19 92 192 19 92 192
19 92 192 19 92 192 19 92 192 19 92 192
19 92 192 19 92 192 19 92 192 19 92 192
19 92 192 19 92 192 19 92 192 19 92 192
19 92 192 19 92 192 19 92 192 19 92 192
19 92 192 19 92 192 19 92 192 19 92 192
19 92 192 19 92 192 19 92 192 19 92 192
19 92 192 19 92 192 19 92 192 19 92 192
19 92 192 19 92 192 19 92 192 19 92 192
19 92 192 19 92 192 19 92 192 19 92 192
19 92 192 19 92 192 19 92 192 19 92 192
19 92 192 19 92 192 19 92 192 19 92 192
19 92 192 19 92 192 19 92 192 19 92 192
19 92 192 19 92 192 19 92 192 19 92 192
19 92 192 19 92 192 19 92 192 19 92 192
19 92 192 19 92 192 19 92 192 19 92 192
83 70 74 96 76 75 118 87 78 138 97 80
109 54 10 12 6 1 0 0 0 88 44 8
117 87 77 130 93 79 135 96 79 138 98 80
141 99 80 142 100 80 143 100 80 144 100 80
145 101 80 146 101 80 146 102 80 147 102 80
147 102 81 148 102 81 148 103 81 149 103 81
149 103 81 150 103 81 150 103 81 151 104 81
151 104 81 152 104 81 152 105 81 153 105 81
153 105 81 154 105 81 155 106 81 155 106 81
156 106 81 156 107 81 157 107 81 158 107 82
158 108 82 159 108 82 162 90 39 164 92 39
167 93 39 183 95 26 185 96 26 188 97 26
189 98 27 193 101 30 197 105 34 193 101 30
188 97 27 186 96 26 183 95 27 182 95 27
178 93 26 178 92 25 177 92 25 171 89 25
161 90 39 160 90 39 161 90 39 161 109 82
161 109 82 160 109 82 160 108 82 160 108 82
159 108 82 159 108 82 158 108 82 158 107 82
158 107 82 157 107 82 157 107 81 156 107 81
156 106 81 156 106 81 155 106 81 155 106 81
155 106 81 154 106 81 154 105 81 154 105 81
154 105 81 153 105 81 153 105 81 153 105 81
152 105 81 152 104 81 152 104 81 151 104 81
150 103 81 149 103 81 147 102 81 144 100 80
134 95 79 113 56 11 0 0 0 0 0 0
0 0 0 150 103 81 136 96 79 117 87 77
148 84 37 19 92 192 19 92 192 19 92 192
19 92 192 19 92 192 19 92 192 19 92 192
19 92 192 19 92 192 19 92 192 6 32 66
6 32 66 3 16 33 3 16 33 84 44 14
99 53 17 131 70 22 130 84 51 200 155 126
198 147 113 131 94 79 102 79 76 19 92 192
19 92 192 19 92 192 19 92 192 19 92 192
19 92 192 19 92 192 19 92 192 19 92 192
19 92 192 19 92 192 19 92 192 19 92 192
19 92 192 19 92 192 19 92 192 19 92 192
19 92 192 19 92 192 19 92 192 19 92 192
19 92 192 19 92 192 19 92 192 19 92 192
19 92 192 19 92 192 19 92 192 19 92 192
19 92 192 19 92 192 19 92 192 19 92 192
19 92 192 19 92 192 19 92 192 19 92 192
19 92 192 19 92 192 19 92 192 19 92 192
19 92 192 19 92 192 19 92 192 19 92 192
19 92 192 19 92 192 19 92 192 19 92 192
19 92 192 19 92 192 19 92 192 19 92 192
19 92 192 19 92 192 19 92 192 19 92 192
19 92 192 19 92 192 19 92 192 19 92 192
19 92 192 19 92 192 19 92 192 19 92 192
19 92 192 19 92 192 19 92 192 19 92 192
19 92 192 19 92 192 19 92 192 19 92 192
19 92 192 19 92 192 19 92 192 19 92 192
19 92 192 19 92 192 19 92 192 19 92 192
19 92 192 19 92 192 19 92 192 19 92 192
19 92 192 19 92 192 19 92 192 19 92 192
19 92 192 19 92 192 19 92 192 19 92 192
19 92 192 19 92 192 19 92 192 19 92 192
19 92 192 19 92 192 19 92 192 19 92 192
19 92 192 19 92 192 19 92 192 19 92 192
19 92 192 19 92 192 19 92 192 19 92 192
19 92 192 19 92 192 19 92 192 19 92 192
19 92 192 19 92 192 19 92 192 19 92 192
19 92 192 19 92 192 19 92 192 19 92 192
19 92 192 19 92 192 19 92 192 19 92 192
19 92 192 19 92 192 19 92 192 19 92 192
88 72 75 95 76 75 115 86 77 135 96 79
141 99 80 0 0 0 0 0 0 19 9 1
146 83 37 129 93 79 138 98 80 141 99 80
143 100 80 145 101 80 146 101 80 147 102 80
147 102 81 148 102 81 148 103 81 149 103 81
149 103 81 150 103 81 150 103 81 151 104 81
151 104 81 151 104 81 152 104 81 152 105 81
153 105 81 153 105 81 154 105 81 154 105 81
155 106 81 155 106 81 156 106 81 156 106 81
157 107 81 157 107 82 158 107 82 158 108 82
159 108 82 159 108 82 165 92 39 166 93 39
168 94 39 173 86 17 186 96 26 187 97 26
189 98 27 193 102 30 196 105 34 192 101 30
187 97 27 185 96 26 183 95 27 182 95 27
179 93 26 177 92 25 177 92 25 164 82 16
162 90 39 162 90 39 163 91 39 161 109 82
161 109 82 161 109 82 161 109 82 160 109 82
160 108 82 160 108 82 159 108 82 159 108 82
159 108 82 158 108 82 158 107 82 158 107 82
157 107 82 157 107 82 157 107 81 157 107 81
156 106 81 156 106 81 156 106 81 156 106 81
156 106 81 155 106 81 155 106 81 155 106 81
155 106 81 154 106 81 154 105 81 153 105 81
153 105 81 152 104 81 150 103 81 145 101 80
167 83 16 113 56 11 0 0 0 0 0 0
137 97 79 149 103 81 135 96 79 116 86 77
156 88 38 19 92 192 19 92 192 19 92 192
19 92 192 19 92 192 19 92 192 19 92 192
19 92 192 19 92 192 19 92 192 6 32 66
6 32 66 6 32 66 2 11 23 108 64 33
123 65 20 133 76 36 155 89 39 189 134 97
147 102 80 136 97 79 93 75 75 19 92 192
19 92 192 19 92 192 19 92 192 19 92 192
19 92 192 19 92 192 19 92 192 19 92 192
19 92 192 19 92 192 19 92 192 19 92 192
19 92 192 19 92 192 19 92 192 19 92 192
19 92 192 19 92 192 19 92 192 19 92 192
19 92 192 19 92 192 19 92 192 19 92 192
19 92 192 19 92 192 19 92 192 19 92 192
19 92 192 19 92 192 19 92 192 19 92 192
19 92 192 19 92 192 19 92 192 19 92 192
19 92 192 19 92 192 19 92 192 19 92 192
19 92 192 19 92 192 19 92 192 19 92 192
19 92 192 19 92 192 19 92 192 19 92 192
19 92 192 19 92 192 19 92 192 19 92 192
19 92 192 19 92 192 19 92 192 19 92 192
19 92 192 19 92 192 19 92 192 19 92 192
19 92 192 19 92 192 19 92 192 19 92 192
19 92 192 19 92 192 19 92 192 19 92 192
19 92 192 19 92 192 19 92 192 19 92 192
19 92 192 19 92 192 19 92 192 19 92 192
19 92 192 19 92 192 19 92 192 19 92 192
19 92 192 19 92 192 19 92 192 19 92 192
19 92 192 19 92 192 19 92 192 19 92 192
19 92 192 19 92 192 19 92 192 19 92 192
19 92 192 19 92 192 19 92 192 19 92 192
19 92 192 19 92 192 19 92 192 19 92 192
19 92 192 19 92 192 19 92 192 19 92 192
19 92 192 19 92 192 19 92 192 19 92 192
19 92 192 19 92 192 19 92 192 19 92 192
19 92 192 19 92 192 19 92 192 19 92 192
19 92 192 19 92 192 19 92 192 19 92 192
19 92 192 19 92 192 19 92 192 19 92 192
19 92 192 19 92 192 19 92 192 79 68 74
91 74 75 97 77 75 113 85 77 127 92 79
141 99 80 131 94 79 0 0 0 0 0 0
118 69 34 130 93 79 138 97 80 143 100 80
145 101 80 147 102 80 148 102 81 149 103 81
149 103 81 150 103 81 150 104 81 151 104 81
151 104 81 152 104 81 152 104 81 152 105 81
153 105 81 153 105 81 153 105 81 154 105 81
154 106 81 155 106 81 155 106 81 156 106 81
156 106 81 156 107 81 157 107 81 157 107 82
158 107 82 158 107 82 159 108 82 159 108 82
159 108 82 160 108 82 169 94 39 169 94 39
170 95 40 174 87 17 187 97 26 188 97 26
190 99 28 194 103 32 196 105 34 191 101 30
187 97 27 185 96 26 183 95 27 182 95 28
179 94 27 177 92 26 177 92 25 164 82 16
163 91 39 163 91 39 167 93 39 162 109 82
162 109 82 161 109 82 161 109 82 161 109 82
161 109 82 160 109 82 160 108 82 160 108 82
160 108 82 160 108 82 159 108 82 159 108 82
159 108 82 159 108 82 158 108 82 158 108 82
158 107 82 158 107 82 158 107 82 158 107 82
157 107 82 157 107 82 157 107 82 157 107 82
157 107 81 157 107 81 157 107 81 156 106 81
156 106 81 154 105 81 152 104 81 146 101 80
154 87 38 77 38 7 0 0 0 111 84 77
154 105 81 145 101 80 133 95 79 116 86 77
109 83 77 100 79 76 19 92 192 19 92 192
19 92 192 19 92 192 19 92 192 19 92 192
19 92 192 19 92 192 19 92 192 6 32 66
6 32 66 6 32 66 2 11 23 26 23 25
145 74 17 160 90 39 170 95 40 156 107 81
153 105 81 135 96 79 83 70 74 19 92 192
19 92 192 19 92 192 19 92 192 19 92 192
19 92 192 19 92 192 19 92 192 19 92 192
19 92 192 19 92 192 19 92 192 19 92 192
19 92 192 19 92 192 19 92 192 19 92 192
19 92 192 19 92 192 19 92 192 19 92 192
19 92 192 19 92 192 19 92 192 19 92 192
19 92 192 19 92 192 19 92 192 19 92 192
19 92 192 19 92 192 19 92 192 19 92 192
19 92 192 19 92 192 19 92 192 19 92 192
19 92 192 19 92 192 19 92 192 19 92 192
19 92 192 19 92 192 19 92 192 19 92 192
19 92 192 19 92 192 19 92 192 19 92 192
19 92 192 19 92 192 19 92 192 19 92 192
19 92 192 19 92 192 19 92 192 19 92 192
19 92 192 19 92 192 19 92 192 19 92 192
19 92 192 19 92 192 19 92 192 19 92 192
19 92 192 19 92 192 19 92 192 19 92 192
19 92 192 19 92 192 19 92 192 19 92 192
19 92 192 19 92 192 19 92 192 19 92 192
19 92 192 19 92 192 19 92 192 19 92 192
19 92 192 19 92 192 19 92 192 19 92 192
19 92 192 19 92 192 19 92 192 19 92 192
19 92 192 19 92 192 19 92 192 19 92 192
19 92 192 19 92 192 19 92 192 19 92 192
19 92 192 19 92 192 19 92 192 19 92 192
19 92 192 19 92 192 19 92 192 19 92 192
19 92 192 19 92 192 19 92 192 19 92 192
19 92 192 19 92 192 19 92 192 19 92 192
19 92 192 19 92 192 19 92 192 19 92 192
19 92 192 19 92 192 19 92 192 19 92 192
19 92 192 19 92 192 19 92 192 19 92 192
19 92 192 19 92 192 19 92 192 84 70 74
92 74 75 99 78 76 108 82 77 122 89 78
135 96 79 146 101 80 122 90 78 0 0 0
9 4 0 127 92 78 136 96 79 143 100 80
147 102 81 149 103 81 150 103 81 151 104 81
152 104 81 152 104 81 153 105 81 153 105 81
153 105 81 154 105 81 154 105 81 154 105 81
155 106 81 155 106 81 155 106 81 156 106 81
156 106 81 156 106 81 156 107 81 157 107 81
157 107 82 158 107 82 158 107 82 158 108 82
159 108 82 159 108 82 159 108 82 160 108 82
160 108 82 160 109 82 174 97 40 173 96 40
172 96 40 182 91 18 189 97 26 189 98 27
191 100 28 195 104 33 196 105 34 191 100 29
187 97 27 185 96 26 184 95 27 182 95 27
181 94 27 178 93 26 179 93 25 166 83 16
164 92 39 167 93 39 171 95 40 162 110 82
162 109 82 162 109 82 162 109 82 162 109 82
162 109 82 162 109 82 161 109 82 161 109 82
161 109 82 161 109 82 161 109 82 160 109 82
160 109 82 160 109 82 160 109 82 160 108 82
160 108 82 160 108 82 160 108 82 160 108 82
160 108 82 160 108 82 160 108 82 160 108 82
159 108 82 159 108 82 160 108 82 159 108 82
158 107 82 156 107 81 153 105 81 144 101 80
116 58 11 0 0 0 0 0 0 157 107 81
152 104 81 141 99 80 128 93 79 116 86 77
108 83 77 97 50 13 19 92 192 19 92 192
19 92 192 19 92 192 19 92 192 19 92 192
19 92 192 19 92 192 19 92 192 6 32 66
6 32 66 10 15 24 18 19 24 36 28 26
53 32 15 172 96 40 182 101 41 163 110 82
156 106 81 131 94 79 74 65 73 19 92 192
19 92 192 19 92 192 19 92 192 19 92 192
19 92 192 19 92 192 19 92 192 19 92 192
19 92 192 19 92 192 19 92 192 19 92 192
19 92 192 19 92 192 19 92 192 19 92 192
19 92 192 19 92 192 19 92 192 19 92 192
19 92 192 19 92 192 19 92 192 19 92 192
19 92 192 19 92 192 19 92 192 19 92 192
19 92 192 19 92 192 19 92 192 19 92 192
19 92 192 19 92 192 19 92 192 19 92 192
19 92 192 19 92 192 19 92 192 19 92 192
19 92 192 19 92 192 19 92 192 19 92 192
19 92 192 19 92 192 19 92 192 19 92 192
19 92 192 19 92 192 19 92 192 19 92 192
19 92 192 19 92 192 19 92 192 19 92 192
19 92 192 19 92 192 19 92 192 19 92 192
19 92 192 19 92 192 19 92 192 19 92 192
19 92 192 19 92 192 19 92 192 19 92 192
19 92 192 19 92 192 19 92 192 19 92 192
19 92 192 19 92 192 19 92 192 19 92 192
19 92 192 19 92 192 19 92 192 19 92 192
19 92 192 19 92 192 19 92 192 19 92 192
19 92 192 19 92 192 19 92 192 19 92 192
19 92 192 19 92 192 19 92 192 19 92 192
19 92 192 19 92 192 19 92 192 19 92 192
19 92 192 19 92 192 19 92 192 19 92 192
19 92 192 19 92 192 19 92 192 19 92 192
19 92 192 19 92 192 19 92 192 19 92 192
19 92 192 19 92 192 19 92 192 19 92 192
19 92 192 19 92 192 19 92 192 19 92 192
19 92 192 19 92 192 19 92 192 19 92 192
19 92 192 19 92 192 19 92 192 19 92 192
19 92 192 19 92 192 19 92 192 88 73 75
94 75 75 100 78 76 104 80 76 117 87 77
130 93 79 140 98 80 148 102 81 144 101 80
13 6 1 109 54 10 134 96 79 142 99 80
147 102 81 151 104 81 152 104 81 153 105 81
154 105 81 154 106 81 155 106 81 155 106 81
155 106 81 156 106 81 156 106 81 156 106 81
156 107 81 157 107 81 157 107 81 157 107 82
158 107 82 158 107 82 158 107 82 158 108 82
159 108 82 159 108 82 159 108 82 160 108 82
160 108 82 160 108 82 161 109 82 161 109 82
161 109 82 161 109 82 186 103 41 179 99 40
178 99 40 177 98 40 173 86 17 191 99 27
194 101 29 197 105 33 197 105 33 192 100 29
188 98 27 186 96 26 185 96 26 183 95 27
183 95 27 182 94 26 162 81 16 167 93 39
170 95 40 173 96 40 185 102 41 163 110 82
163 110 82 163 110 82 163 110 82 163 110 82
163 110 82 163 110 82 162 110 82 162 110 82
162 110 82 162 110 82 162 110 82 162 110 82
162 109 82 162 109 82 162 109 82 162 109 82
162 109 82 162 109 82 162 109 82 162 109 82
162 109 82 162 110 82 162 109 82 162 109 82
163 110 82 162 109 82 162 109 82 161 109 82
160 109 82 157 107 82 151 104 81 136 71 21
97 48 9 138 98 80 160 109 82 156 106 81
147 102 81 137 97 80 125 91 78 114 85 77
109 83 77 133 76 36 19 92 192 19 92 192
19 92 192 19 92 192 19 92 192 19 92 192
19 92 192 19 92 192 6 32 66 6 32 66
13 35 67 18 19 24 24 22 25 44 32 27
56 38 28 72 46 31 90 55 32 167 112 82
155 106 81 123 90 78 19 92 192 19 92 192
19 92 192 19 92 192 19 92 192 19 92 192
19 92 192 19 92 192 19 92 192 19 92 192
19 92 192 19 92 192 19 92 192 19 92 192
19 92 192 19 92 192 19 92 192 19 92 192
19 92 192 19 92 192 19 92 192 19 92 192
19 92 192 19 92 192 19 92 192 19 92 192
19 92 192 19 92 192 19 92 192 19 92 192
19 92 192 19 92 192 19 92 192 19 92 192
19 92 192 19 92 192 19 92 192 19 92 192
19 92 192 19 92 192 19 92 192 19 92 192
19 92 192 19 92 192 19 92 192 19 92 192
19 92 192 19 92 192 19 92 192 19 92 192
19 92 192 19 92 192 19 92 192 19 92 192
19 92 192 19 92 192 19 92 192 19 92 192
19 92 192 19 92 192 19 92 192 19 92 192
19 92 192 19 92 192 19 92 192 19 92 192
19 92 192 19 92 192 19 92 192 19 92 192
19 92 192 19 92 192 19 92 192 19 92 192
19 92 192 19 92 192 19 92 192 19 92 192
19 92 192 19 92 192 19 92 192 19 92 192
19 92 192 19 92 192 19 92 192 19 92 192
19 92 192 19 92 192 19 92 192 19 92 192
19 92 192 19 92 192 19 92 192 19 92 192
19 92 192 19 92 192 19 92 192 19 92 192
19 92 192 19 92 192 19 92 192 19 92 192
19 92 192 19 92 192 19 92 192 19 92 192
19 92 192 19 92 192 19 92 192 19 92 192
19 92 192 19 92 192 19 92 192 19 92 192
19 92 192 19 92 192 19 92 192 19 92 192
19 92 192 19 92 192 19 92 192 19 92 192
19 92 192 19 92 192 19 92 192 19 92 192
19 92 192 19 92 192 81 69 74 91 74 75
96 76 75 100 78 76 104 81 76 113 85 77
123 90 78 133 95 79 142 99 80 150 103 81
151 104 81 0 0 0 24 15 10 139 98 80
145 101 80 150 104 81 154 105 81 155 106 81
156 106 81 157 107 81 157 107 81 157 107 82
158 107 82 158 107 82 158 108 82 158 108 82
159 108 82 159 108 82 159 108 82 159 108 82
159 108 82 160 108 82 160 108 82 160 108 82
160 109 82 161 109 82 161 109 82 161 109 82
161 109 82 161 109 82 162 109 82 162 109 82
162 109 82 162 110 82 163 110 82 192 106 42
186 103 41 183 101 41 182 100 41 194 100 27
176 88 17 197 103 29 197 104 31 194 101 28
191 99 27 189 98 26 189 98 27 190 98 27
170 85 17 173 96 40 174 97 40 175 97 40
179 99 40 190 105 42 164 111 82 164 111 82
164 110 82 164 110 82 164 110 82 164 110 82
164 110 82 164 110 82 164 110 82 164 110 82
164 110 82 164 110 82 164 110 82 164 110 82
164 110 82 164 110 82 164 110 82 164 111 82
164 111 82 165 111 82 165 111 82 165 111 82
165 111 82 165 111 82 165 111 82 166 111 82
166 111 82 165 111 82 165 111 82 164 110 82
161 109 82 155 106 81 142 81 37 90 45 9
156 106 81 163 110 82 159 108 82 151 104 81
142 100 80 133 95 79 117 87 77 112 84 77
110 83 77 107 82 76 97 58 32 19 92 192
19 92 192 19 92 192 19 92 192 19 92 192
19 92 192 19 92 192 6 32 66 6 32 66
19 38 68 27 23 25 30 25 26 50 28 13
64 42 29 83 54 35 71 64 73 80 68 74
152 104 81 109 83 77 19 92 192 19 92 192
19 92 192 19 92 192 19 92 192 19 92 192
19 92 192 19 92 192 19 92 192 19 92 192
19 92 192 19 92 192 19 92 192 19 92 192
19 92 192 19 92 192 19 92 192 19 92 192
19 92 192 19 92 192 19 92 192 19 92 192
19 92 192 19 92 192 19 92 192 19 92 192
19 92 192 19 92 192 19 92 192 19 92 192
19 92 192 19 92 192 19 92 192 19 92 192
19 92 192 19 92 192 19 92 192 19 92 192
19 92 192 19 92 192 19 92 192 19 92 192
19 92 192 19 92 192 19 92 192 19 92 192
19 92 192 19 92 192 19 92 192 19 92 192
19 92 192 19 92 192 19 92 192 19 92 192
19 92 192 19 92 192 19 92 192 19 92 192
19 92 192 19 92 192 19 92 192 19 92 192
19 92 192 19 92 192 19 92 192 19 92 192
19 92 192 19 92 192 19 92 192 19 92 192
19 92 192 19 92 192 19 92 192 19 92 192
19 92 192 19 92 192 19 92 192 19 92 192
19 92 192 19 92 192 19 92 192 19 92 192
19 92 192 19 92 192 19 92 192 19 92 192
19 92 192 19 92 192 19 92 192 19 92 192
19 92 192 19 92 192 19 92 192 19 92 192
19 92 192 19 92 192 19 92 192 19 92 192
19 92 192 19 92 192 19 92 192 19 92 192
19 92 192 19 92 192 19 92 192 19 92 192
19 92 192 19 92 192 19 92 192 19 92 192
19 92 192 19 92 192 19 92 192 19 92 192
19 92 192 19 92 192 19 92 192 19 92 192
19 92 192 19 92 192 19 92 192 19 92 192
19 92 192 19 92 192 19 92 192 19 92 192
19 92 192 19 92 192 86 71 74 93 75 75
98 77 76 101 79 76 105 81 76 108 82 77
118 87 78 127 92 79 136 97 79 145 101 80
151 104 81 156 106 81 149 103 81 7 3 0
111 84 77 149 103 81 153 105 81 157 107 81
159 108 82 159 108 82 160 108 82 160 109 82
161 109 82 161 109 82 161 109 82 161 109 82
161 109 82 161 109 82 161 109 82 162 109 82
162 109 82 162 109 82 162 109 82 162 109 82
162 109 82 162 110 82 163 110 82 163 110 82
163 110 82 163 110 82 163 110 82 164 110 82
164 110 82 164 110 82 164 110 82 164 110 82
164 110 82 198 108 42 195 108 43 190 106 43
185 103 41 184 102 41 182 101 41 181 100 41
182 101 41 182 101 41 183 101 41 183 101 41
184 102 41 190 105 42 204 115 48 208 115 46
166 111 82 166 111 82 166 111 82 166 111 82
166 111 82 166 111 82 166 111 82 166 111 82
166 111 82 166 111 82 166 111 82 166 111 82
166 111 82 166 111 82 166 111 82 166 111 82
166 112 82 167 112 82 167 112 82 167 112 82
167 112 82 167 112 83 167 112 83 168 112 83
168 113 83 169 113 83 169 113 83 169 113 83
168 112 83 169 113 83 167 112 83 164 110 82
159 108 82 145 73 17 152 104 81 167 112 82
165 111 82 161 109 82 154 105 81 146 101 80
138 97 80 128 92 79 115 86 77 112 84 77
110 84 77 108 82 77 150 88 41 19 92 192
19 92 192 19 92 192 19 92 192 19 92 192
19 92 192 19 92 192 6 32 66 17 37 67
26 41 68 29 24 25 36 28 26 59 29 5
74 47 31 91 56 34 76 66 73 84 71 74
89 73 75 87 72 75 19 92 192 19 92 192
19 92 192 19 92 192 19 92 192 19 92 192
19 92 192 19 92 192 19 92 192 19 92 192
19 92 192 19 92 192 19 92 192 19 92 192
19 92 192 19 92 192 19 92 192 19 92 192
19 92 192 19 92 192 19 92 192 19 92 192
19 92 192 19 92 192 19 92 192 19 92 192
19 92 192 19 92 192 19 92 192 19 92 192
19 92 192 19 92 192 19 92 192 19 92 192
19 92 192 19 92 192 19 92 192 19 92 192
19 92 192 19 92 192 19 92 192 19 92 192
19 92 192 19 92 192 19 92 192 19 92 192
19 92 192 19 92 192 19 92 192 19 92 192
19 92 192 19 92 192 19 92 192 19 92 192
19 92 192 19 92 192 19 92 192 19 92 192
19 92 192 19 92 192 19 92 192 19 92 192
19 92 192 19 92 192 19 92 192 19 92 192
19 92 192 19 92 192 19 92 192 19 92 192
19 92 192 19 92 192 19 92 192 19 92 192
19 92 192 19 92 192 19 92 192 19 92 192
19 92 192 19 92 192 19 92 192 19 92 192
19 92 192 19 92 192 19 92 192 19 92 192
19 92 192 19 92 192 19 92 192 19 92 192
19 92 192 19 92 192 19 92 192 19 92 192
19 92 192 19 92 192 19 92 192 19 92 192
19 92 192 19 92 192 19 92 192 19 92 192
19 92 192 19 92 192 19 92 192 19 92 192
19 92 192 19 92 192 19 92 192 19 92 192
19 92 192 19 92 192 19 92 192 19 92 192
19 92 192 19 92 192 19 92 192 19 92 192
19 92 192 19 92 192 19 92 192 19 92 192
19 92 192 19 92 192 19 92 192 19 92 192
19 92 192 78 67 74 89 73 75 95 76 75
99 78 76 103 80 76 106 81 76 108 82 77
112 85 77 122 89 78 131 94 79 139 98 80
145 101 80 152 104 81 157 107 81 159 108 82
148 102 81 45 32 27 151 104 81 155 106 81
159 108 82 162 109 82 163 110 82 163 110 82
163 110 82 164 110 82 164 110 82 164 110 82
164 110 82 164 110 82 164 110 82 164 110 82
164 111 82 164 111 82 165 111 82 165 111 82
165 111 82 165 111 82 165 111 82 165 111 82
165 111 82 165 111 82 165 111 82 165 111 82
165 111 82 166 111 82 166 111 82 166 111 82
166 111 82 166 111 82 166 112 82 166 112 82
167 112 82 224 112 22 223 121 45 219 119 45
219 119 45 222 121 46 226 123 45 227 117 30
167 112 83 167 112 83 167 112 83 167 112 83
167 112 83 168 112 83 168 112 83 168 112 83
168 112 83 168 112 83 168 112 83 168 112 83
168 112 83 168 112 83 168 112 83 168 113 83
169 113 83 169 113 83 169 113 83 169 113 83
169 113 83 169 113 83 169 113 83 170 113 83
170 114 83 171 114 83 171 114 83 172 114 83
172 114 83 172 114 83 172 114 83 172 115 83
171 114 83 170 113 83 166 111 82 154 105 81
153 105 81 169 113 83 170 113 83 167 112 82
161 109 82 156 106 81 149 103 81 141 99 80
132 95 79 123 90 78 116 86 77 112 85 77
111 84 77 109 83 77 106 81 76 95 57 32
19 92 192 19 92 192 19 92 192 19 92 192
19 92 192 6 32 66 11 34 67 23 40 68
27 23 25 35 27 26 42 31 27 65 36 14
91 60 41 100 60 33 81 69 74 87 72 75
88 72 75 68 62 73 19 92 192 19 92 192
19 92 192 19 92 192 19 92 192 19 92 192
19 92 192 19 92 192 19 92 192 19 92 192
19 92 192 19 92 192 19 92 192 19 92 192
19 92 192 19 92 192 19 92 192 19 92 192
19 92 192 19 92 192 19 92 192 19 92 192
19 92 192 19 92 192 19 92 192 19 92 192
19 92 192 19 92 192 19 92 192 19 92 192
19 92 192 19 92 192 19 92 192 19 92 192
19 92 192 19 92 192 19 92 192 19 92 192
19 92 192 19 92 192 19 92 192 19 92 192
19 92 192 19 92 192 19 92 192 19 92 192
19 92 192 19 92 192 19 92 192 19 92 192
19 92 192 19 92 192 19 92 192 19 92 192
19 92 192 19 92 192 19 92 192 19 92 192
19 92 192 19 92 192 19 92 192 19 92 192
19 92 192 19 92 192 19 92 192 19 92 192
19 92 192 19 92 192 19 92 192 19 92 192
19 92 192 19 92 192 19 92 192 19 92 192
19 92 192 19 92 192 19 92 192 19 92 192
19 92 192 19 92 192 19 92 192 19 92 192
19 92 192 19 92 192 19 92 192 19 92 192
19 92 192 19 92 192 19 92 192 19 92 192
19 92 192 19 92 192 19 92 192 19 92 192
19 92 192 19 92 192 19 92 192 19 92 192
19 92 192 19 92 192 19 92 192 19 92 192
19 92 192 19 92 192 19 92 192 19 92 192
19 92 192 19 92 192 19 92 192 19 92 192
19 92 192 19 92 192 19 92 192 19 92 192
19 92 192 19 92 192 19 92 192 19 92 192
19 92 192 19 92 192 19 92 192 19 92 192
19 92 192 19 92 192 19 92 192 19 92 192
19 92 192 83 70 74 91 74 75 97 77 75
101 79 76 104 80 76 107 82 76 109 83 77
111 84 77 117 87 77 125 91 78 133 95 79
139 98 80 146 101 80 152 104 81 158 107 82
162 109 82 163 110 82 158 107 82 33 45 69
157 107 82 161 109 82 164 110 82 165 111 82
166 112 82 167 112 82 167 112 83 167 112 83
167 112 83 167 112 83 167 112 83 167 112 83
167 112 83 167 112 82 167 112 83 167 112 83
167 112 83 167 112 83 168 112 83 168 112 83
168 112 83 168 112 83 168 112 83 168 112 83
168 112 83 168 112 83 168 112 83 168 112 83
168 112 83 168 112 83 168 112 83 168 112 83
168 113 83 168 113 83 168 113 83 169 113 83
169 113 83 169 113 83 169 113 83 169 113 83
169 113 83 169 113 83 169 113 83 169 113 83
169 113 83 169 113 83 170 113 83 170 113 83
170 113 83 170 113 83 170 114 83 171 114 83
171 114 83 171 114 83 171 114 83 171 114 83
171 114 83 172 114 83 172 114 83 172 114 83
172 115 83 173 115 83 174 115 83 174 115 83
175 116 83 175 116 83 175 116 83 175 116 83
176 116 83 176 117 83 176 116 83 174 115 83
171 114 83 163 110 82 166 111 82 174 115 83
173 115 83 171 114 83 167 112 82 162 109 82
156 106 81 150 103 81 143 100 80 136 97 79
127 92 79 121 89 78 117 87 77 113 85 77
111 84 77 110 83 77 107 82 76 111 56 13
19 92 192 19 92 192 19 92 192 19 92 192
19 92 192 6 32 66 21 39 68 30 43 69
36 28 26 40 30 27 49 27 11 74 47 30
106 72 49 78 67 74 85 71 74 89 73 75
85 71 74 19 92 192 19 92 192 19 92 192
19 92 192 19 92 192 19 92 192 19 92 192
19 92 192 19 92 192 19 92 192 19 92 192
19 92 192 19 92 192 19 92 192 19 92 192
19 92 192 19 92 192 19 92 192 19 92 192
19 92 192 19 92 192 19 92 192 19 92 192
19 92 192 19 92 192 19 92 192 19 92 192
19 92 192 19 92 192 19 92 192 19 92 192
19 92 192 19 92 192 19 92 192 19 92 192
19 92 192 19 92 192 19 92 192 19 92 192
19 92 192 19 92 192 19 92 192 19 92 192
19 92 192 19 92 192 19 92 192 19 92 192
19 92 192 19 92 192 19 92 192 19 92 192
19 92 192 19 92 192 19 92 192 19 92 192
19 92 192 19 92 192 19 92 192 19 92 192
19 92 192 19 92 192 19 92 192 19 92 192
19 92 192 19 92 192 19 92 192 19 92 192
19 92 192 19 92 192 19 92 192 19 92 192
19 92 192 19 92 192 19 92 192 19 92 192
19 92 192 19 92 192 19 92 192 19 92 192
19 92 192 19 92 192 19 92 192 19 92 192
19 92 192 19 92 192 19 92 192 19 92 192
19 92 192 19 92 192 19 92 192 19 92 192
19 92 192 19 92 192 19 92 192 19 92 192
19 92 192 19 92 192 19 92 192 19 92 192
19 92 192 19 92 192 19 92 192 19 92 192
19 92 192 19 92 192 19 92 192 19 92 192
19 92 192 19 92 192 19 92 192 19 92 192
19 92 192 19 92 192 19 92 192 19 92 192
19 92 192 19 92 192 19 92 192 19 92 192
19 92 192 19 92 192 19 92 192 19 92 192
19 92 192 19 92 192 19 92 192 19 92 192
19 92 192 88 72 75 93 75 75 98 78 76
102 79 76 105 81 76 107 82 77 109 83 77
111 84 77 113 85 77 120 88 78 127 92 78
134 95 79 140 98 80 146 102 80 152 104 81
157 107 81 161 109 82 165 111 82 167 112 83
166 112 82 152 104 81 162 109 82 165 111 82
168 112 83 170 113 83 171 114 83 171 114 83
171 114 83 171 114 83 171 114 83 171 114 83
171 114 83 171 114 83 171 114 83 171 114 83
171 114 83 170 114 83 170 114 83 170 114 83
171 114 83 171 114 83 171 114 83 171 114 83
171 114 83 171 114 83 171 114 83 171 114 83
171 114 83 171 114 83 171 114 83 171 114 83
171 114 83 171 114 83 171 114 83 171 114 83
172 114 83 172 114 83 172 114 83 172 114 83
172 114 83 172 114 83 172 114 83 172 115 83
172 115 83 173 115 83 173 115 83 173 115 83
173 115 83 173 115 83 173 115 83 174 115 83
174 115 83 174 115 83 174 115 83 174 116 83
175 116 83 176 116 83 176 117 83 177 117 83
177 117 84 177 117 84 178 117 84 178 117 84
178 117 84 180 118 84 181 119 84 180 118 84
179 118 84 178 117 84 175 116 83 162 109 82
175 116 83 177 117 84 177 117 83 174 116 83
171 114 83 167 112 82 162 109 82 157 107 81
151 104 81 145 101 80 138 97 80 131 94 79
127 92 78 123 90 78 118 88 78 113 85 77
112 84 77 110 83 77 108 82 77 141 80 37
19 92 192 19 92 192 19 92 192 19 92 192
6 32 66 14 35 67 27 42 69 36 46 69
45 32 27 46 33 27 71 36 7 89 58 37
100 60 34 83 70 74 89 73 75 90 73 75
78 67 74 19 92 192 19 92 192 19 92 192
19 92 192 19 92 192 19 92 192 19 92 192
19 92 192 19 92 192 19 92 192 19 92 192
19 92 192 19 92 192 19 92 192 19 92 192
19 92 192 19 92 192 19 92 192 19 92 192
19 92 192 19 92 192 19 92 192 19 92 192
19 92 192 19 92 192 19 92 192 19 92 192
19 92 192 19 92 192 19 92 192 19 92 192
19 92 192 19 92 192 19 92 192 19 92 192
19 92 192 19 92 192 19 92 192 19 92 192
19 92 192 19 92 192 19 92 192 19 92 192
19 92 192 19 92 192 19 92 192 19 92 192
19 92 192 19 92 192 19 92 192 19 92 192
19 92 192 19 92 192 19 92 192 19 92 192
19 92 192 19 92 192 19 92 192 19 92 192
19 92 192 19 92 192 19 92 192 19 92 192
19 92 192 19 92 192 19 92 192 19 92 192
19 92 192 19 92 192 19 92 192 19 92 192
19 92 192 19 92 192 19 92 192 19 92 192
19 92 192 19 92 192 19 92 192 19 92 192
19 92 192 19 92 192 19 92 192 19 92 192
19 92 192 19 92 192 19 92 192 19 92 192
19 92 192 19 92 192 19 92 192 19 92 192
19 92 192 19 92 192 19 92 192 19 92 192
19 92 192 19 92 192 19 92 192 19 92 192
19 92 192 19 92 192 19 92 192 19 92 192
19 92 192 19 92 192 19 92 192 19 92 192
19 92 192 19 92 192 19 92 192 19 92 192
19 92 192 19 92 192 19 92 192 19 92 192
19 92 192 19 92 192 19 92 192 19 92 192
19 92 192 19 92 192 19 92 192 19 92 192
19 92 192 19 92 192 19 92 192 19 92 192
80 68 74 90 73 75 95 76 75 100 78 76
103 80 76 106 81 76 108 82 77 110 83 77
112 84 77 113 85 77 117 87 77 121 89 78
128 92 79 134 96 79 141 99 80 146 102 80
151 104 81 156 106 81 161 109 82 165 111 82
168 113 83 171 114 83 171 114 83 170 114 83
160 109 82 2 1 0 171 114 83 173 115 83
175 116 83 176 116 83 176 116 83 176 116 83
175 116 83 175 116 83 175 116 83 175 116 83
175 116 83 175 116 83 175 116 83 175 116 83
175 116 83 175 116 83 174 116 83 174 115 83
174 115 83 174 115 83 174 115 83 174 115 83
174 115 83 174 115 83 174 115 83 174 115 83
174 116 83 174 116 83 174 116 83 175 116 83
175 116 83 175 116 83 175 116 83 175 116 83
175 116 83 175 116 83 175 116 83 175 116 83
175 116 83 176 116 83 176 116 83 176 116 83
177 117 83 177 117 83 177 117 84 178 117 84
178 118 84 179 118 84 179 118 84 180 118 84
180 118 84 180 119 84 181 119 84 181 119 84
181 119 84 183 120 84 183 120 84 184 120 84
184 121 84 184 121 85 183 120 85 165 92 39
169 113 83 179 118 84 181 119 84 181 119 84
180 118 84 177 117 84 174 116 84 170 114 83
166 111 82 161 109 82 157 107 81 152 104 81
146 101 80 139 98 80 135 96 79 131 94 79
128 92 79 124 90 78 120 88 78 116 86 77
112 84 77 111 84 77 109 83 77 106 81 76
104 55 18 19 92 192 19 92 192 19 92 192
6 32 66 24 40 68 34 45 69 42 49 70
44 32 27 52 35 28 75 41 15 112 76 53
80 69 74 87 72 75 91 74 75 88 72 75
58 57 72 19 92 192 19 92 192 19 92 192
19 92 192 19 92 192 19 92 192 19 92 192
19 92 192 19 92 192 19 92 192 19 92 192
19 92 192 19 92 192 19 92 192 19 92 192
19 92 192 19 92 192 19 92 192 19 92 192
19 92 192 19 92 192 19 92 192 19 92 192
19 92 192 19 92 192 19 92 192 19 92 192
19 92 192 19 92 192 19 92 192 19 92 192
19 92 192 19 92 192 19 92 192 19 92 192
19 92 192 19 92 192 19 92 192 19 92 192
19 92 192 19 92 192 19 92 192 19 92 192
19 92 192 19 92 192 19 92 192 19 92 192
19 92 192 19 92 192 19 92 192 19 92 192
19 92 192 19 92 192 19 92 192 19 92 192
19 92 192 19 92 192 19 92 192 19 92 192
19 92 192 19 92 192 19 92 192 19 92 192
19 92 192 19 92 192 19 92 192 19 92 192
19 92 192 19 92 192 19 92 192 19 92 192
19 92 192 19 92 192 19 92 192 19 92 192
19 92 192 19 92 192 19 92 192 19 92 192
19 92 192 19 92 192 19 92 192 19 92 192
19 92 192 19 92 192 19 92 192 19 92 192
19 92 192 19 92 192 19 92 192 19 92 192
19 92 192 19 92 192 19 92 192 19 92 192
19 92 192 19 92 192 19 92 192 19 92 192
19 92 192 19 92 192 19 92 192 19 92 192
19 92 192 19 92 192 19 92 192 19 92 192
19 92 192 19 92 192 19 92 192 19 92 192
19 92 192 19 92 192 19 92 192 19 92 192
19 92 192 19 92 192 19 92 192 19 92 192
19 92 192 19 92 192 19 92 192 19 92 192
19 92 192 19 92 192 19 92 192 19 92 192
85 71 74 92 74 75 97 77 76 101 79 76
104 80 76 107 82 76 109 83 77 111 84 77
112 85 77 114 86 77 118 87 78 121 89 78
124 90 78 129 93 79 135 96 79 140 99 80
145 101 80 151 104 81 155 106 81 160 108 82
164 110 82 167 112 83 170 113 83 173 115 83
175 116 83 176 117 83 175 116 83 173 115 83
160 109 82 94 47 9 178 118 84 179 118 84
180 118 84 180 119 84 181 119 84 180 119 84
180 118 84 179 118 84 180 118 84 180 118 84
180 118 84 179 118 84 179 118 84 179 118 84
179 118 84 179 118 84 179 118 84 179 118 84
179 118 84 179 118 84 179 118 84 179 118 84
179 118 84 179 118 84 179 118 84 179 118 84
179 118 84 179 118 84 180 118 84 180 118 84
180 118 84 180 118 84 180 119 84 181 119 84
181 119 84 181 119 84 181 119 84 182 119 84
182 119 84 182 120 84 183 120 84 183 120 84
183 120 84 184 120 84 184 120 84 184 120 84
185 121 84 186 121 84 187 122 85 188 122 85
189 123 85 189 123 86 189 124 86 149 103 81
172 114 83 181 119 84 184 120 84 185 121 85
185 121 85 185 122 86 183 121 86 181 120 86
177 118 85 173 116 84 169 113 83 165 111 83
160 109 82 156 106 81 151 104 81 146 101 80
141 99 80 138 98 80 135 96 79 132 95 79
129 93 79 125 91 78 121 89 78 117 87 77
112 85 77 111 84 77 109 83 77 107 82 76
125 72 35 19 92 192 19 92 192 2 11 23
18 38 68 32 45 69 40 49 70 47 33 27
50 35 28 56 29 9 87 55 34 105 65 38
85 71 74 91 74 75 92 74 75 82 69 74
19 92 192 19 92 192 19 92 192 19 92 192
19 92 192 19 92 192 19 92 192 19 92 192
19 92 192 19 92 192 19 92 192 19 92 192
19 92 192 19 92 192 19 92 192 19 92 192
19 92 192 19 92 192 19 92 192 19 92 192
19 92 192 19 92 192 19 92 192 19 92 192
19 92 192 19 92 192 19 92 192 19 92 192
19 92 192 19 92 192 19 92 192 19 92 192
19 92 192 19 92 192 19 92 192 19 92 192
19 92 192 19 92 192 19 92 192 19 92 192
19 92 192 19 92 192 19 92 192 19 92 192
19 92 192 19 92 192 19 92 192 19 92 192
19 92 192 19 92 192 19 92 192 19 92 192
19 92 192 19 92 192 19 92 192 19 92 192
19 92 192 19 92 192 19 92 192 19 92 192
19 92 192 19 92 192 19 92 192 19 92 192
19 92 192 19 92 192 19 92 192 19 92 192
19 92 192 19 92 192 19 92 192 19 92 192
19 92 192 19 92 192 19 92 192 19 92 192
19 92 192 19 92 192 19 92 192 19 92 192
19 92 192 19 92 192 19 92 192 19 92 192
19 92 192 19 92 192 19 92 192 19 92 192
19 92 192 19 92 192 19 92 192 19 92 192
19 92 192 19 92 192 19 92 192 19 92 192
19 92 192 19 92 192 19 92 192 19 92 192
19 92 192 19 92 192 19 92 192 19 92 192
19 92 192 19 92 192 19 92 192 19 92 192
19 92 192 19 92 192 19 92 192 19 92 192
19 92 192 19 92 192 19 92 192 19 92 192
19 92 192 19 92 192 19 92 192 19 92 192
19 92 192 19 92 192 19 92 192 19 92 192
19 92 192 19 92 192 19 92 192 77 67 73
88 73 75 94 75 75 99 78 76 102 79 76
105 81 76 107 82 77 109 83 77 111 84 77
113 85 77 115 86 77 119 88 78 122 89 78
125 91 78 128 92 79 131 94 79 135 96 79
140 98 80 145 101 80 150 103 81 154 106 81
158 107 82 162 109 82 165 111 82 169 113 83
172 114 83 175 116 83 177 117 83 179 118 84
180 118 84 181 119 84 180 119 84 178 117 84
173 115 83 160 108 82 171 95 40 185 121 84
185 121 84 186 121 84 186 121 84 186 121 84
186 121 84 186 121 84 185 121 84 185 121 84
184 121 84 184 120 84 184 120 84 184 120 84
184 120 84 184 120 84 184 120 84 184 121 84
184 121 84 184 121 84 184 121 84 185 121 84
185 121 84 185 121 84 185 121 84 185 121 84
185 121 84 185 121 84 186 121 84 186 121 84
186 121 84 186 121 84 186 122 84 187 122 84
188 122 85 188 123 85 189 123 85 190 123 85
190 124 85 191 124 85 192 125 86 193 126 86
194 127 87 195 128 89 153 105 81 171 114 83
181 119 84 185 121 84 188 122 85 189 124 86
191 125 88 193 128 90 194 129 93 193 129 93
190 128 93 187 126 91 182 122 89 177 119 87
172 116 85 168 113 83 164 110 83 159 108 82
155 106 81 150 103 81 147 102 80 144 101 80
142 99 80 139 98 80 136 96 79 133 95 79
130 93 79 126 92 78 122 90 78 118 88 78
113 85 77 111 84 77 110 83 77 108 82 77
105 81 76 103 61 33 19 92 192 10 33 67
29 43 69 39 48 70 46 52 70 55 37 28
56 37 28 85 47 18 108 71 46 83 70 74
90 73 75 93 75 75 90 73 75 66 61 72
19 92 192 19 92 192 19 92 192 19 92 192
19 92 192 19 92 192 19 92 192 19 92 192
19 92 192 19 92 192 19 92 192 19 92 192
19 92 192 19 92 192 19 92 192 19 92 192
19 92 192 19 92 192 19 92 192 19 92 192
19 92 192 19 92 192 19 92 192 19 92 192
19 92 192 19 92 192 19 92 192 19 92 192
19 92 192 19 92 192 19 92 192 19 92 192
19 92 192 19 92 192 19 92 192 19 92 192
19 92 192 19 92 192 19 92 192 19 92 192
19 92 192 19 92 192 19 92 192 19 92 192
19 92 192 19 92 192 19 92 192 19 92 192
19 92 192 19 92 192 19 92 192 19 92 192
19 92 192 19 92 192 19 92 192 19 92 192
19 92 192 19 92 192 19 92 192 19 92 192
19 92 192 19 92 192 19 92 192 19 92 192
19 92 192 19 92 192 19 92 192 19 92 192
19 92 192 19 92 192 19 92 192 19 92 192
19 92 192 19 92 192 19 92 192 19 92 192
19 92 192 19 92 192 19 92 192 19 92 192
19 92 192 19 92 192 19 92 192 19 92 192
19 92 192 19 92 192 19 92 192 19 92 192
19 92 192 19 92 192 19 92 192 19 92 192
19 92 192 19 92 192 19 92 192 19 92 192
19 92 192 19 92 192 19 92 192 19 92 192
19 92 192 19 92 192 19 92 192 19 92 192
19 92 192 19 92 192 19 92 192 19 92 192
19 92 192 19 92 192 19 92 192 19 92 192
19 92 192 19 92 192 19 92 192 19 92 192
19 92 192 19 92 192 19 92 192 19 92 192
19 92 192 19 92 192 19 92 192 19 92 192
19 92 192 19 92 192 19 92 192 82 69 74
90 74 75 96 76 75 100 78 76 103 80 76
106 81 76 108 82 77 110 83 77 112 84 77
113 85 77 116 87 77 120 88 78 123 90 78
126 91 78 129 93 79 132 94 79 134 96 79
137 97 79 139 98 80 144 100 80 149 103 81
153 105 81 156 107 81 160 108 82 164 110 82
167 112 83 170 114 83 173 115 83 175 116 84
178 117 84 180 118 84 182 119 84 183 120 84
185 121 84 185 121 84 186 121 84 186 121 84
185 121 84 182 120 84 180 118 84 172 114 83
162 110 82 151 104 81 191 124 85 191 124 85
192 124 85 192 124 85 192 124 85 192 124 85
192 124 85 192 124 85 192 124 85 192 124 85
192 124 85 192 124 85 192 124 85 192 124 85
192 125 85 192 125 85 193 125 85 193 125 85
193 125 85 193 125 85 194 125 85 194 126 85
195 126 85 195 126 86 195 126 86 196 127 86
197 128 87 198 129 88 174 97 40 159 108 82
170 114 83 180 118 84 184 121 84 188 122 85
190 124 85 193 126 86 195 127 88 198 130 91
201 134 95 206 139 100 211 145 106 212 147 109
212 147 110 208 145 108 202 140 104 196 134 100
189 129 95 182 123 91 176 118 87 170 115 85
166 112 83 162 110 82 158 107 82 154 105 81
152 104 81 149 103 81 147 102 81 145 101 80
143 100 80 140 98 80 137 97 79 134 95 79
131 94 79 128 92 79 124 90 78 120 88 78
115 86 77 112 84 77 110 84 77 109 83 77
106 81 76 128 67 21 6 32 66 25 41 68
38 47 70 45 51 70 52 55 71 54 37 28
62 34 12 89 55 32 107 65 36 89 73 75
93 75 75 94 75 75 83 70 74 19 92 192
19 92 192 19 92 192 19 92 192 19 92 192
19 92 192 19 92 192 19 92 192 19 92 192
19 92 192 19 92 192 19 92 192 19 92 192
19 92 192 19 92 192 19 92 192 19 92 192
19 92 192 19 92 192 19 92 192 19 92 192
19 92 192 19 92 192 19 92 192 19 92 192
19 92 192 19 92 192 19 92 192 19 92 192
19 92 192 19 92 192 19 92 192 19 92 192
19 92 192 19 92 192 19 92 192 19 92 192
19 92 192 19 92 192 19 92 192 19 92 192
19 92 192 19 92 192 19 92 192 19 92 192
19 92 192 19 92 192 19 92 192 19 92 192
19 92 192 19 92 192 19 92 192 19 92 192
19 92 192 19 92 192 19 92 192 19 92 192
19 92 192 19 92 192 19 92 192 19 92 192
19 92 192 19 92 192 19 92 192 19 92 192
19 92 192 19 92 192 19 92 192 19 92 192
19 92 192 19 92 192 19 92 192 19 92 192
19 92 192 19 92 192 19 92 192 19 92 192
19 92 192 19 92 192 19 92 192 19 92 192
19 92 192 19 92 192 19 92 192 19 92 192
19 92 192 19 92 192 19 92 192 19 92 192
19 92 192 19 92 192 19 92 192 19 92 192
19 92 192 19 92 192 19 92 192 19 92 192
19 92 192 19 92 192 19 92 192 19 92 192
19 92 192 19 92 192 19 92 192 19 92 192
19 92 192 19 92 192 19 92 192 19 92 192
19 92 192 19 92 192 19 92 192 19 92 192
19 92 192 19 92 192 19 92 192 19 92 192
19 92 192 19 92 192 19 92 192 19 92 192
19 92 192 19 92 192 19 92 192 19 92 192
19 92 192 19 92 192 19 92 192 86 71 74
92 75 75 98 77 76 101 79 76 104 80 76
107 82 76 109 83 77 110 84 77 112 84 77
114 85 77 117 87 78 121 89 78 124 90 78
127 92 78 130 93 79 132 95 79 135 96 79
138 97 80 140 98 80 142 99 80 144 101 80
147 102 80 151 104 81 155 106 81 158 108 82
162 110 82 165 111 83 169 113 84 172 115 84
175 117 85 178 118 85 180 119 86 182 120 86
184 121 86 185 121 85 186 122 85 187 122 85
188 123 85 189 123 85 190 123 85 190 124 85
191 124 85 191 124 85 191 124 85 191 124 85
190 123 85 189 123 85 188 123 85 188 122 85
187 122 84 186 121 84 185 121 84 184 120 84
181 119 84 179 118 84 180 118 84 180 118 84
180 118 84 180 119 84 180 119 84 181 119 84
183 120 84 185 121 84 186 122 84 188 122 85
189 123 85 190 123 85 191 124 85 192 124 85
194 125 85 196 127 86 197 128 87 199 130 89
201 132 92 205 136 95 209 140 100 217 148 108
225 157 117 231 163 124 236 169 130 239 172 133
238 173 135 235 170 133 230 166 129 222 159 123
213 151 115 203 142 108 194 134 100 185 127 94
179 121 90 173 117 87 168 113 85 164 111 83
159 108 82 158 107 82 156 106 81 154 105 81
152 104 81 150 103 81 148 102 81 145 101 80
143 100 80 141 99 80 138 97 80 135 96 79
132 94 79 129 93 79 125 91 78 121 89 78
117 87 77 112 84 77 111 84 77 109 83 77
107 82 76 103 80 76 19 38 68 35 46 69
44 51 70 52 54 71 59 39 28 60 40 29
68 34 7 105 66 40 86 71 74 93 75 75
96 76 75 91 74 75 66 62 72 19 92 192
19 92 192 19 92 192 19 92 192 19 92 192
19 92 192 19 92 192 19 92 192 19 92 192
19 92 192 19 92 192 19 92 192 19 92 192
19 92 192 19 92 192 19 92 192 19 92 192
19 92 192 19 92 192 19 92 192 19 92 192
19 92 192 19 92 192 19 92 192 19 92 192
19 92 192 19 92 192 19 92 192 19 92 192
19 92 192 19 92 192 19 92 192 19 92 192
19 92 192 19 92 192 19 92 192 19 92 192
19 92 192 19 92 192 19 92 192 19 92 192
19 92 192 19 92 192 19 92 192 19 92 192
19 92 192 19 92 192 19 92 192 19 92 192
19 92 192 19 92 192 19 92 192 19 92 192
19 92 192 19 92 192 19 92 192 19 92 192
19 92 192 19 92 192 19 92 192 19 92 192
19 92 192 19 92 192 19 92 192 19 92 192
19 92 192 19 92 192 19 92 192 19 92 192
19 92 192 19 92 192 19 92 192 19 92 192
19 92 192 19 92 192 19 92 192 19 92 192
19 92 192 19 92 192 19 92 192 19 92 192
19 92 192 19 92 192 19 92 192 19 92 192
19 92 192 19 92 192 19 92 192 19 92 192
19 92 192 19 92 192 19 92 192 19 92 192
19 92 192 19 92 192 19 92 192 19 92 192
19 92 192 19 92 192 19 92 192 19 92 192
19 92 192 19 92 192 19 92 192 19 92 192
19 92 192 19 92 192 19 92 192 19 92 192
19 92 192 19 92 192 19 92 192 19 92 192
19 92 192 19 92 192 19 92 192 19 92 192
19 92 192 19 92 192 19 92 192 19 92 192
19 92 192 19 92 192 19 92 192 19 92 192
19 92 192 19 92 192 78 67 74 89 73 75
94 76 75 99 78 76 102 79 76 105 81 76
107 82 77 109 83 77 111 84 77 113 85 77
115 86 77 118 88 78 122 89 78 125 91 78
128 92 79 130 94 79 133 95 79 136 96 79
138 97 80 140 99 80 143 100 80 145 101 80
147 102 81 149 103 81 151 104 81 153 105 81
157 107 82 160 109 83 164 111 84 168 114 85
172 116 87 176 119 89 180 122 90 184 125 92
187 127 93 190 128 94 192 129 94 193 130 94
194 130 94 194 129 92 193 128 90 193 127 89
193 127 88 193 126 87 193 126 87 194 126 86
194 126 86 194 126 86 195 126 86 195 126 85
195 126 85 196 126 85 196 126 85 196 127 85
196 127 85 197 127 86 197 127 86 197 127 86
197 127 86 198 127 86 198 128 86 198 128 86
199 128 87 199 129 87 200 130 88 201 131 90
203 133 91 205 135 94 208 138 97 211 141 100
216 146 105 220 151 110 226 157 116 232 163 122
238 169 129 243 175 135 248 180 141 251 184 145
252 186 147 251 185 147 247 182 144 241 177 140
233 169 133 224 161 126 214 152 118 203 143 109
195 135 102 187 128 96 180 122 91 174 118 88
169 114 85 165 112 84 163 111 83 162 110 83
160 108 82 158 107 82 156 107 82 154 106 81
152 105 81 150 104 81 148 102 81 146 101 80
144 100 80 141 99 80 139 98 80 136 96 79
133 95 79 130 93 79 126 91 78 122 89 78
118 87 78 112 84 77 111 84 77 110 83 77
107 82 77 104 81 76 111 55 11 44 50 70
51 54 71 57 57 72 67 43 29 64 32 6
93 56 32 110 65 34 92 74 75 96 77 76
95 76 75 83 70 74 19 92 192 19 92 192
19 92 192 19 92 192 19 92 192 19 92 192
19 92 192 19 92 192 19 92 192 19 92 192
19 92 192 19 92 192 19 92 192 19 92 192
19 92 192 19 92 192 19 92 192 19 92 192
19 92 192 19 92 192 19 92 192 19 92 192
19 92 192 19 92 192 19 92 192 19 92 192
19 92 192 19 92 192 19 92 192 19 92 192
19 92 192 19 92 192 19 92 192 19 92 192
19 92 192 19 92 192 19 92 192 19 92 192
19 92 192 19 92 192 19 92 192 19 92 192
19 92 192 19 92 192 19 92 192 19 92 192
19 92 192 19 92 192 19 92 192 19 92 192
19 92 192 19 92 192 19 92 192 19 92 192
19 92 192 19 92 192 19 92 192 19 92 192
19 92 192 19 92 192 19 92 192 19 92 192
19 92 192 19 92 192 19 92 192 19 92 192
19 92 192 19 92 192 19 92 192 19 92 192
19 92 192 19 92 192 19 92 192 19 92 192
19 92 192 19 92 192 19 92 192 19 92 192
19 92 192 19 92 192 19 92 192 19 92 192
19 92 192 19 92 192 19 92 192 19 92 192
19 92 192 19 92 192 19 92 192 19 92 192
19 92 192 19 92 192 19 92 192 19 92 192
19 92 192 19 92 192 19 92 192 19 92 192
19 92 192 19 92 192 19 92 192 19 92 192
19 92 192 19 92 192 19 92 192 19 92 192
19 92 192 19 92 192 19 92 192 19 92 192
19 92 192 19 92 192 19 92 192 19 92 192
19 92 192 19 92 192 19 92 192 19 92 192
19 92 192 19 92 192 19 92 192 19 92 192
19 92 192 19 92 192 19 92 192 19 92 192
19 92 192 19 92 192 83 70 74 91 74 75
96 76 75 100 78 76 103 80 76 106 81 76
108 82 77 110 83 77 112 84 77 113 85 77
116 86 77 119 88 78 122 90 78 125 91 78
128 93 79 131 94 79 134 95 79 136 97 79
139 98 80 141 99 80 143 100 80 145 101 80
147 102 81 149 103 81 151 104 81 153 105 81
155 106 82 158 108 82 160 109 83 163 111 85
167 114 87 172 118 90 178 123 93 185 128 97
191 133 102 197 138 106 203 143 110 208 147 113
211 149 115 213 150 115 213 150 114 213 150 113
213 148 111 211 146 109 209 143 106 207 141 103
205 138 99 203 136 97 201 134 94 200 132 92
199 130 91 198 129 89 197 128 88 197 128 87
197 127 87 197 127 87 197 127 86 197 127 86
197 127 87 197 128 87 198 128 87 199 129 88
200 130 89 201 131 91 202 133 92 205 135 95
207 138 97 210 141 101 213 145 104 217 149 109
221 153 113 225 157 118 228 161 122 231 164 125
234 167 128 235 169 131 235 170 132 233 168 131
229 165 128 223 160 124 217 155 119 211 149 114
204 143 109 198 137 104 191 132 99 184 126 94
178 121 90 174 118 88 172 116 87 170 115 86
168 113 85 166 112 84 164 111 83 162 110 83
160 109 82 158 108 82 156 107 82 155 106 81
153 105 81 151 104 81 149 103 81 147 102 80
144 101 80 142 99 80 139 98 80 136 97 79
133 95 79 130 94 79 127 92 78 123 90 78
119 88 78 115 86 77 111 84 77 110 83 77
108 82 77 105 81 76 126 73 35 50 54 71
57 57 71 63 60 72 65 42 29 69 36 9
105 64 36 90 73 75 97 77 76 98 77 76
91 74 75 59 58 72 19 92 192 19 92 192
19 92 192 19 92 192 19 92 192 19 92 192
19 92 192 19 92 192 19 92 192 19 92 192
19 92 192 19 92 192 19 92 192 19 92 192
19 92 192 19 92 192 19 92 192 19 92 192
19 92 192 19 92 192 19 92 192 19 92 192
19 92 192 19 92 192 19 92 192 19 92 192
19 92 192 19 92 192 19 92 192 19 92 192
19 92 192 19 92 192 19 92 192 19 92 192
19 92 192 19 92 192 19 92 192 19 92 192
19 92 192 19 92 192 19 92 192 19 92 192
19 92 192 19 92 192 19 92 192 19 92 192
19 92 192 19 92 192 19 92 192 19 92 192
19 92 192 19 92 192 19 92 192 19 92 192
19 92 192 19 92 192 19 92 192 19 92 192
19 92 192 19 92 192 19 92 192 19 92 192
19 92 192 19 92 192 19 92 192 19 92 192
19 92 192 19 92 192 19 92 192 19 92 192
19 92 192 19 92 192 19 92 192 19 92 192
19 92 192 19 92 192 19 92 192 19 92 192
19 92 192 19 92 192 19 92 192 19 92 192
19 92 192 19 92 192 19 92 192 19 92 192
19 92 192 19 92 192 19 92 192 19 92 192
19 92 192 19 92 192 19 92 192 19 92 192
19 92 192 19 92 192 19 92 192 19 92 192
19 92 192 19 92 192 19 92 192 19 92 192
19 92 192 19 92 192 19 92 192 19 92 192
19 92 192 19 92 192 19 92 192 19 92 192
19 92 192 19 92 192 19 92 192 19 92 192
19 92 192 19 92 192 19 92 192 19 92 192
19 92 192 19 92 192 19 92 192 19 92 192
19 92 192 19 92 192 19 92 192 19 92 192
19 92 192 19 92 192 87 72 74 93 75 75
98 77 76 101 79 76 104 80 76 106 82 76
108 83 77 110 84 77 112 84 77 114 85 77
117 87 77 120 88 78 123 90 78 126 92 78
129 93 79 132 94 79 134 96 79 137 97 79
139 98 80 142 99 80 144 100 80 146 101 80
148 102 81 150 103 81 152 104 81 154 105 81
156 107 82 158 108 83 160 109 84 163 111 85
166 114 87 170 117 90 175 121 93 180 126 97
186 131 102 194 138 108 203 146 115 212 154 122
220 161 128 227 167 134 232 171 137 235 174 139
237 175 140 237 174 139 235 172 136 232 168 132
227 163 126 223 158 121 218 153 116 214 149 111
210 144 106 206 140 102 203 136 98 200 133 95
198 131 92 197 129 90 196 128 89 195 127 88
194 127 87 194 126 87 194 126 87 194 126 87
195 127 88 195 128 88 196 128 89 197 129 90
198 131 92 199 133 94 201 134 96 203 136 98
204 138 100 205 139 102 206 141 103 206 142 105
206 142 106 206 142 106 205 142 106 203 140 105
199 137 103 195 134 100 191 131 97 186 127 94
184 125 93 182 124 92 180 123 91 178 121 90
176 120 89 174 118 88 172 116 87 170 115 86
168 113 85 166 112 84 164 111 83 162 110 83
160 109 82 158 108 82 157 107 82 155 106 81
153 105 81 151 104 81 149 103 81 147 102 80
145 101 80 142 100 80 140 98 80 137 97 79
134 95 79 131 94 79 128 92 79 124 90 78
120 88 78 116 86 77 112 84 77 110 83 77
109 83 77 106 81 76 103 80 76 57 57 71
63 60 72 71 45 30 69 38 14 98 59 33
89 73 75 96 77 76 100 79 77 96 76 75
78 67 74 19 92 192 19 92 192 19 92 192
19 92 192 19 92 192 19 92 192 19 92 192
19 92 192 19 92 192 19 92 192 19 92 192
19 92 192 19 92 192 19 92 192 19 92 192
19 92 192 19 92 192 19 92 192 19 92 192
19 92 192 19 92 192 19 92 192 19 92 192
19 92 192 19 92 192 19 92 192 19 92 192
19 92 192 19 92 192 19 92 192 19 92 192
19 92 192 19 92 192 19 92 192 19 92 192
19 92 192 19 92 192 19 92 192 19 92 192
19 92 192 19 92 192 19 92 192 19 92 192
19 92 192 19 92 192 19 92 192 19 92 192
19 92 192 19 92 192 19 92 192 19 92 192
19 92 192 19 92 192 19 92 192 19 92 192
19 92 192 19 92 192 19 92 192 19 92 192
19 92 192 19 92 192 19 92 192 19 92 192
19 92 192 19 92 192 19 92 192 19 92 192
19 92 192 19 92 192 19 92 192 19 92 192
19 92 192 19 92 192 19 92 192 19 92 192
19 92 192 19 92 192 19 92 192 19 92 192
19 92 192 159 108 82 186 121 84 196 126 85
202 130 88 202 131 89 196 127 88 186 123 87
173 116 85 154 87 39 162 91 40 151 104 81
160 108 82 141 99 80 128 92 79 104 81 76
19 92 192 19 92 192 19 92 192 19 92 192
19 92 192 19 92 192 19 92 192 19 92 192
19 92 192 19 92 192 19 92 192 19 92 192
19 92 192 19 92 192 19 92 192 19 92 192
19 92 192 19 92 192 19 92 192 19 92 192
19 92 192 19 92 192 19 92 192 19 92 192
19 92 192 19 92 192 19 92 192 19 92 192
19 92 192 19 92 192 19 92 192 19 92 192
19 92 192 78 67 74 89 73 75 94 76 75
99 78 76 102 79 76 105 81 76 107 82 76
109 83 77 111 84 77 113 85 77 114 86 77
118 87 78 121 89 78 124 90 78 127 92 78
130 93 79 132 95 79 135 96 79 137 97 80
140 98 80 142 99 80 144 100 80 146 102 80
148 103 81 150 104 81 152 105 81 154 106 82
156 107 82 158 108 83 161 110 84 164 112 85
167 115 87 171 118 90 176 122 93 181 127 98
187 132 103 194 138 108 201 145 115 208 152 121
216 158 127 222 164 133 227 169 138 232 173 141
236 177 144 239 179 145 239 179 145 238 177 142
235 173 138 231 169 133 226 163 128 221 158 122
216 152 116 210 147 110 206 141 105 201 137 100
198 133 96 195 130 93 193 128 91 191 126 89
190 125 88 189 124 87 189 124 86 188 123 86
188 123 86 188 123 86 188 123 86 188 123 86
188 124 87 188 124 87 189 125 88 189 125 89
189 126 90 189 126 90 188 126 90 187 125 91
186 125 91 186 125 91 186 126 92 186 126 92
186 126 93 186 126 93 185 126 93 184 126 93
183 125 93 182 124 92 180 122 91 178 121 90
176 119 89 174 118 88 172 116 87 170 115 86
168 114 85 166 112 84 164 111 83 162 110 83
160 109 82 159 108 82 157 107 82 155 106 81
154 105 81 152 104 81 150 103 81 147 102 81
145 101 80 143 100 80 140 99 80 138 97 80
135 96 79 132 94 79 129 93 79 125 91 78
121 89 78 117 87 78 112 84 77 110 84 77
109 83 77 107 82 76 104 80 76 124 72 36
68 62 73 81 50 31 80 43 16 88 72 75
95 76 76 102 81 79 99 78 76 88 73 75
19 92 192 19 92 192 19 92 192 19 92 192
19 92 192 19 92 192 19 92 192 19 92 192
19 92 192 19 92 192 19 92 192 19 92 192
19 92 192 19 92 192 19 92 192 19 92 192
19 92 192 19 92 192 19 92 192 19 92 192
19 92 192 19 92 192 19 92 192 19 92 192
19 92 192 19 92 192 19 92 192 19 92 192
19 92 192 19 92 192 19 92 192 19 92 192
19 92 192 19 92 192 19 92 192 19 92 192
19 92 192 19 92 192 19 92 192 19 92 192
19 92 192 19 92 192 19 92 192 19 92 192
19 92 192 19 92 192 19 92 192 19 92 192
19 92 192 19 92 192 19 92 192 19 92 192
19 92 192 19 92 192 19 92 192 19 92 192
19 92 192 19 92 192 19 92 192 19 92 192
19 92 192 19 92 192 19 92 192 19 92 192
19 92 192 19 92 192 19 92 192 19 92 192
19 92 192 19 92 192 19 92 192 19 92 192
19 92 192 19 92 192 19 92 192 19 92 192
169 113 83 186 121 84 195 126 86 206 136 96
239 171 131 222 156 118 190 128 93 170 113 83
150 76 17 142 71 14 124 62 12 103 51 10
83 41 8 63 31 6 42 21 4 37 18 3
46 23 4 151 104 81 151 104 81 145 101 80
135 96 79 117 87 77 19 92 192 19 92 192
19 92 192 19 92 192 19 92 192 19 92 192
19 92 192 19 92 192 19 92 192 19 92 192
19 92 192 19 92 192 19 92 192 19 92 192
19 92 192 19 92 192 19 92 192 19 92 192
19 92 192 19 92 192 19 92 192 19 92 192
19 92 192 19 92 192 19 92 192 19 92 192
19 92 192 19 92 192 19 92 192 19 92 192
19 92 192 83 70 74 91 74 75 96 76 75
100 78 76 103 80 76 106 81 76 108 82 77
110 83 77 111 84 77 113 85 77 115 86 77
119 88 78 122 89 78 125 91 78 128 92 79
130 94 79 133 95 79 135 96 79 138 97 80
140 98 80 142 100 80 145 101 80 147 102 80
149 103 81 151 104 81 152 105 81 154 106 82
156 107 82 159 108 83 161 110 84 164 112 86
167 115 88 171 118 90 176 122 94 182 127 98
188 133 103 195 139 109 202 146 115 209 152 122
216 159 128 222 164 133 227 169 138 232 173 141
234 175 143 235 176 143 234 175 142 232 172 139
229 168 135 224 164 130 219 158 124 214 153 119
209 147 113 204 142 108 199 137 103 195 133 98
192 130 95 189 127 92 187 125 90 186 123 88
185 122 87 184 121 86 183 121 85 183 120 85
183 120 85 183 120 84 183 120 84 183 120 85
183 120 85 183 120 85 183 121 86 183 121 86
183 121 87 184 122 87 184 123 88 185 123 89
185 124 90 186 125 91 186 125 91 186 125 92
186 126 92 185 126 93 185 126 93 184 125 93
183 124 92 181 123 92 180 122 91 178 121 90
176 119 89 174 118 88 172 116 87 170 115 86
168 114 85 166 112 84 164 111 83 162 110 83
161 109 82 159 108 82 157 107 82 156 106 81
154 105 81 152 104 81 150 103 81 148 102 81
146 101 80 143 100 80 141 99 80 138 98 80
135 96 79 133 95 79 130 93 79 126 91 78
122 90 78 118 87 78 114 85 77 111 84 77
109 83 77 108 82 77 105 81 76 101 79 76
74 65 73 74 40 15 104 62 33 93 75 75
102 81 79 103 81 78 95 76 75 68 62 73
19 92 192 19 92 192 19 92 192 19 92 192
19 92 192 19 92 192 19 92 192 19 92 192
19 92 192 19 92 192 19 92 192 19 92 192
19 92 192 19 92 192 19 92 192 19 92 192
19 92 192 19 92 192 19 92 192 19 92 192
19 92 192 19 92 192 19 92 192 19 92 192
19 92 192 19 92 192 19 92 192 19 92 192
19 92 192 19 92 192 19 92 192 19 92 192
19 92 192 19 92 192 19 92 192 19 92 192
19 92 192 19 92 192 19 92 192 19 92 192
19 92 192 19 92 192 19 92 192 19 92 192
19 92 192 19 92 192 19 92 192 19 92 192
19 92 192 19 92 192 19 92 192 19 92 192
19 92 192 19 92 192 19 92 192 19 92 192
19 92 192 19 92 192 19 92 192 19 92 192
19 92 192 19 92 192 19 92 192 19 92 192
19 92 192 19 92 192 19 92 192 19 92 192
19 92 192 19 92 192 19 92 192 19 92 192
153 105 81 176 116 83 184 121 84 188 123 85
194 127 89 206 140 101 239 173 136 244 180 144
213 151 117 182 124 92 160 90 39 153 76 15
136 68 13 124 62 12 0 0 0 0 0 0
0 0 0 0 0 0 0 0 0 146 101 80
166 111 82 168 113 83 166 111 82 161 109 82
154 106 81 145 101 80 132 94 79 104 80 76
19 92 192 19 92 192 19 92 192 19 92 192
19 92 192 19 92 192 19 92 192 19 92 192
19 92 192 19 92 192 19 92 192 19 92 192
19 92 192 19 92 192 19 92 192 19 92 192
19 92 192 19 92 192 19 92 192 19 92 192
19 92 192 19 92 192 19 92 192 19 92 192
19 92 192 19 92 192 19 92 192 19 92 192
19 92 192 87 72 74 92 75 75 97 77 76
101 79 76 104 80 76 106 81 76 108 82 77
110 83 77 112 84 77 113 85 77 116 86 77
119 88 78 122 90 78 125 91 78 128 93 79
131 94 79 134 95 79 136 96 79 138 98 80
141 99 80 143 100 80 145 101 80 147 102 81
149 103 81 151 104 81 153 105 81 155 106 82
157 107 82 159 109 83 162 110 84 164 113 86
168 115 88 172 119 91 177 123 95 182 128 99
189 134 104 196 140 110 203 146 116 210 153 122
216 159 128 222 165 133 227 169 137 231 173 141
234 175 142 234 175 142 234 174 141 231 171 138
228 167 134 223 163 129 219 158 124 213 152 118
208 147 112 203 142 107 199 137 102 195 133 98
192 130 95 189 127 92 187 125 89 186 123 88
184 122 87 184 121 86 183 120 85 183 120 85
183 120 84 182 120 84 182 120 84 182 120 85
182 120 85 183 120 85 183 120 85 183 121 86
183 121 86 183 122 87 184 122 88 184 123 89
185 124 89 185 124 90 185 125 91 185 125 91
185 125 92 185 125 92 184 125 92 183 125 92
182 124 92 181 123 91 179 122 90 178 121 90
176 119 89 174 118 88 172 116 87 170 115 86
168 114 85 166 112 84 164 111 83 163 110 83
161 109 82 159 108 82 158 107 82 156 106 81
154 105 81 152 104 81 150 103 81 148 102 81
146 101 80 144 100 80 142 99 80 139 98 80
136 96 79 133 95 79 130 94 79 127 92 78
123 90 78 119 88 78 115 86 77 111 84 77
110 83 77 108 82 77 105 81 76 102 79 76
74 40 15 86 46 16 93 75 75 101 80 78
107 85 81 99 78 76 81 69 74 19 92 192
19 92 192 19 92 192 19 92 192 19 92 192
19 92 192 19 92 192 19 92 192 19 92 192
19 92 192 19 92 192 19 92 192 19 92 192
19 92 192 19 92 192 19 92 192 19 92 192
19 92 192 19 92 192 19 92 192 19 92 192
19 92 192 19 92 192 19 92 192 19 92 192
19 92 192 19 92 192 19 92 192 19 92 192
19 92 192 19 92 192 19 92 192 19 92 192
19 92 192 19 92 192 19 92 192 19 92 192
19 92 192 19 92 192 19 92 192 19 92 192
19 92 192 19 92 192 19 92 192 19 92 192
19 92 192 19 92 192 19 92 192 19 92 192
19 92 192 19 92 192 19 92 192 19 92 192
19 92 192 19 92 192 19 92 192 19 92 192
19 92 192 19 92 192 19 92 192 19 92 192
19 92 192 19 92 192 19 92 192 19 92 192
19 92 192 19 92 192 19 92 192 19 92 192
19 92 192 130 93 79 161 109 82 169 113 83
172 114 83 176 116 83 179 118 84 181 119 84
183 120 85 186 123 87 196 134 98 210 147 113
215 154 120 202 143 111 18 10 4 0 0 0
0 0 0 0 0 0 0 0 0 0 0 0
143 75 22 171 114 83 180 118 84 182 119 84
180 118 84 178 117 84 174 115 83 170 113 83
164 110 82 157 107 81 149 103 81 136 96 79
117 87 78 89 44 8 19 92 192 19 92 192
19 92 192 19 92 192 19 92 192 19 92 192
19 92 192 19 92 192 19 92 192 19 92 192
19 92 192 19 92 192 19 92 192 19 92 192
19 92 192 19 92 192 19 92 192 19 92 192
19 92 192 19 92 192 19 92 192 19 92 192
19 92 192 19 92 192 19 92 192 19 92 192
78 67 74 89 73 75 94 75 75 98 78 76
102 79 76 104 81 76 107 82 76 109 83 77
111 84 77 112 85 77 114 85 77 117 87 77
120 88 78 123 90 78 126 91 78 129 93 79
132 94 79 134 95 79 137 97 79 139 98 80
141 99 80 143 100 80 145 101 80 147 102 81
149 103 81 151 104 81 153 105 81 155 106 82
157 107 82 159 109 83 162 111 84 165 113 86
168 116 88 173 119 91 177 124 95 183 129 100
189 134 105 196 140 110 203 147 116 210 153 122
216 159 128 222 165 133 227 169 137 231 172 140
233 174 142 234 174 142 233 173 140 230 170 137
227 167 133 223 162 128 218 157 123 213 151 117
207 146 112 203 141 106 198 136 102 194 133 98
191 129 94 189 127 92 187 124 89 185 123 88
184 122 86 183 121 86 183 120 85 183 120 85
182 120 84 182 120 84 182 120 84 182 120 85
182 120 85 182 120 85 182 120 85 183 121 86
183 121 86 183 121 87 184 122 87 184 123 88
184 123 89 184 124 90 185 124 90 185 124 91
185 125 91 184 125 92 184 125 92 183 124 92
182 124 91 181 123 91 179 122 90 177 120 89
176 119 88 174 118 88 172 116 87 170 115 86
168 114 85 166 112 84 165 111 83 163 110 83
161 109 82 159 108 82 158 107 82 156 106 81
154 106 81 152 105 81 151 104 81 148 103 81
146 102 80 144 100 80 142 99 80 139 98 80
137 97 79 134 95 79 131 94 79 128 92 79
124 90 78 120 88 78 116 86 77 111 84 77
110 83 77 108 82 77 106 81 76 103 80 76
122 71 35 92 74 75 99 79 77 111 88 85
103 80 77 90 73 75 19 92 192 19 92 192
19 92 192 19 92 192 19 92 192 19 92 192
19 92 192 19 92 192 19 92 192 19 92 192
19 92 192 19 92 192 19 92 192 19 92 192
19 92 192 19 92 192 19 92 192 19 92 192
19 92 192 19 92 192 19 92 192 19 92 192
19 92 192 19 92 192 19 92 192 19 92 192
19 92 192 19 92 192 19 92 192 19 92 192
19 92 192 19 92 192 19 92 192 19 92 192
19 92 192 19 92 192 19 92 192 19 92 192
19 92 192 19 92 192 19 92 192 19 92 192
19 92 192 19 92 192 19 92 192 19 92 192
19 92 192 19 92 192 19 92 192 19 92 192
19 92 192 19 92 192 19 92 192 19 92 192
19 92 192 19 92 192 19 92 192 19 92 192
19 92 192 19 92 192 19 92 192 19 92 192
19 92 192 19 92 192 19 92 192 19 92 192
19 92 192 19 92 192 19 92 192 19 92 192
146 102 80 148 103 81 149 103 81 151 104 81
153 105 81 157 107 81 160 108 82 164 110 82
167 112 82 170 113 83 172 115 83 175 116 83
0 0 0 0 0 0 58 34 16 114 60 16
122 89 78 173 115 83 185 121 84 190 124 85
193 126 87 198 132 94 203 138 101 203 139 103
198 136 101 190 130 97 181 122 91 173 116 86
166 112 83 162 109 82 157 107 81 150 103 81
138 98 80 122 89 78 107 82 76 19 92 192
19 92 192 19 92 192 19 92 192 19 92 192
19 92 192 19 92 192 19 92 192 19 92 192
19 92 192 19 92 192 19 92 192 19 92 192
19 92 192 19 92 192 19 92 192 19 92 192
19 92 192 19 92 192 19 92 192 19 92 192
19 92 192 19 92 192 19 92 192 19 92 192
82 70 74 90 74 75 96 76 75 99 78 76
102 80 76 105 81 76 107 82 77 109 83 77
111 84 77 113 85 77 114 86 77 118 87 78
121 89 78 124 90 78 127 92 78 129 93 79
132 94 79 135 96 79 137 97 79 139 98 80
141 99 80 144 100 80 146 101 80 148 102 81
150 103 81 151 104 81 153 105 81 155 106 82
157 108 82 160 109 83 162 111 85 165 113 86
169 116 89 173 120 92 178 124 96 184 129 100
190 135 105 197 141 111 203 147 117 210 153 123
217 159 128 222 165 133 227 169 137 231 172 140
233 174 141 233 174 141 232 172 139 229 169 136
226 166 132 222 161 127 217 156 122 212 151 116
207 145 111 202 140 106 198 136 101 194 132 97
191 129 94 189 126 91 187 124 89 185 123 88
184 122 86 183 121 86 183 120 85 182 120 85
182 120 84 182 120 84 182 120 84 182 120 84
182 120 85 182 120 85 182 120 85 182 120 86
183 121 86 183 121 87 183 122 87 183 122 88
184 123 89 184 123 89 184 124 90 184 124 90
184 124 91 184 124 91 183 124 91 183 124 91
182 123 91 180 122 91 179 121 90 177 120 89
176 119 88 174 118 87 172 116 87 170 115 86
168 114 85 166 112 84 165 111 83 163 110 83
161 109 82 159 108 82 158 107 82 156 107 82
154 106 81 153 105 81 151 104 81 149 103 81
147 102 80 145 101 80 142 100 80 140 98 80
137 97 80 134 96 79 131 94 79 128 93 79
125 91 78 121 89 78 117 87 78 113 85 77
110 83 77 108 83 77 107 82 76 104 80 76
99 78 76 98 78 76 112 89 86 108 85 80
96 76 75 62 59 72 19 92 192 19 92 192
19 92 192 19 92 192 19 92 192 19 92 192
19 92 192 19 92 192 19 92 192 19 92 192
19 92 192 19 92 192 19 92 192 19 92 192
19 92 192 19 92 192 19 92 192 19 92 192
19 92 192 19 92 192 19 92 192 19 92 192
19 92 192 19 92 192 19 92 192 19 92 192
19 92 192 19 92 192 19 92 192 19 92 192
19 92 192 19 92 192 19 92 192 19 92 192
19 92 192 19 92 192 19 92 192 19 92 192
19 92 192 19 92 192 19 92 192 19 92 192
19 92 192 19 92 192 19 92 192 19 92 192
19 92 192 19 92 192 19 92 192 19 92 192
19 92 192 19 92 192 19 92 192 19 92 192
19 92 192 19 92 192 19 92 192 19 92 192
19 92 192 19 92 192 19 92 192 19 92 192
19 92 192 19 92 192 19 92 192 19 92 192
19 92 192 19 92 192 19 92 192 19 92 192
155 106 81 135 96 79 123 90 78 169 94 39
168 94 39 173 96 40 183 101 41 189 104 41
195 107 42 202 111 43 177 98 40 163 110 82
186 121 84 195 126 85 199 129 88 210 141 100
227 159 119 242 176 137 241 176 139 232 169 133
221 159 125 212 152 118 200 141 109 190 132 101
181 125 95 174 120 91 176 121 92 174 120 91
171 116 87 167 113 84 161 109 82 156 106 81
150 103 81 139 98 80 125 91 78 108 82 77
19 92 192 19 92 192 19 92 192 19 92 192
19 92 192 19 92 192 19 92 192 19 92 192
19 92 192 19 92 192 19 92 192 19 92 192
19 92 192 19 92 192 19 92 192 19 92 192
19 92 192 19 92 192 19 92 192 19 92 192
19 92 192 19 92 192 19 92 192 19 92 192
86 71 74 92 74 75 97 77 75 100 78 76
103 80 76 106 81 76 108 82 77 110 83 77
112 84 77 113 85 77 115 86 77 118 88 78
122 89 78 124 91 78 127 92 79 130 93 79
133 95 79 135 96 79 137 97 80 140 98 80
142 99 80 144 100 80 146 101 80 148 102 81
150 103 81 152 104 81 154 105 81 156 106 82
158 108 83 160 109 83 163 111 85 166 114 87
169 117 89 174 120 92 179 124 96 184 129 100
190 135 106 197 141 111 204 147 117 210 154 123
217 160 128 222 165 133 227 169 137 230 172 139
232 173 141 232 173 140 231 171 138 229 169 135
225 165 131 221 160 126 216 155 121 211 150 116
206 145 111 202 140 106 197 136 101 194 132 97
191 129 94 188 126 91 186 124 89 185 123 87
184 122 86 183 121 86 183 120 85 182 120 85
182 120 84 182 120 84 182 120 84 182 120 84
182 120 85 182 120 85 182 120 85 182 120 85
182 120 86 183 121 86 183 121 87 183 122 88
183 122 88 184 123 89 184 123 90 184 123 90
183 124 90 183 124 91 183 124 91 182 123 91
181 123 91 180 122 90 179 121 90 177 120 89
175 119 88 174 117 87 172 116 86 170 115 86
168 114 85 166 112 84 165 111 83 163 110 83
161 109 82 160 108 82 158 107 82 156 107 82
155 106 81 153 105 81 151 104 81 149 103 81
147 102 81 145 101 80 143 100 80 140 99 80
138 97 80 135 96 79 132 94 79 129 93 79
126 91 78 122 89 78 118 87 78 114 85 77
110 83 77 109 83 77 107 82 76 105 81 76
101 79 76 111 88 85 117 93 88 100 79 76
75 66 73 19 92 192 19 92 192 19 92 192
19 92 192 19 92 192 19 92 192 19 92 192
19 92 192 19 92 192 19 92 192 19 92 192
19 92 192 19 92 192 19 92 192 19 92 192
19 92 192 19 92 192 19 92 192 19 92 192
19 92 192 19 92 192 19 92 192 19 92 192
19 92 192 19 92 192 19 92 192 19 92 192
19 92 192 19 92 192 19 92 192 19 92 192
19 92 192 19 92 192 19 92 192 19 92 192
19 92 192 19 92 192 19 92 192 19 92 192
19 92 192 19 92 192 19 92 192 19 92 192
19 92 192 19 92 192 19 92 192 19 92 192
19 92 192 19 92 192 19 92 192 19 92 192
19 92 192 19 92 192 19 92 192 19 92 192
19 92 192 19 92 192 19 92 192 19 92 192
19 92 192 19 92 192 19 92 192 19 92 192
19 92 192 19 92 192 19 92 192 19 92 192
19 92 192 19 92 192 19 92 192 19 92 192
19 92 192 19 92 192 58 57 72 127 92 78
150 104 81 184 125 92 175 117 85 173 115 84
175 116 84 175 116 83 168 113 83 164 110 82
163 110 82 162 110 82 159 108 82 155 106 81
154 105 81 152 104 81 151 104 81 150 103 81
148 102 81 146 101 80 145 101 80 151 104 81
156 107 82 160 109 83 165 112 85 170 116 88
171 117 89 168 115 87 166 113 85 160 109 83
155 106 81 149 103 81 131 66 15 146 83 37
106 81 76 19 92 192 19 92 192 19 92 192
19 92 192 19 92 192 19 92 192 19 92 192
19 92 192 19 92 192 19 92 192 19 92 192
19 92 192 19 92 192 19 92 192 19 92 192
19 92 192 19 92 192 19 92 192 19 92 192
19 92 192 19 92 192 19 92 192 76 66 73
88 72 75 94 75 75 98 77 76 101 79 76
104 80 76 106 82 76 108 83 77 110 83 77
112 84 77 113 85 77 116 86 77 119 88 78
122 89 78 125 91 78 128 92 79 130 94 79
133 95 79 135 96 79 138 97 80 140 98 80
142 99 80 144 101 80 146 102 80 148 102 81
150 103 81 152 104 81 154 105 82 156 107 82
158 108 83 160 110 84 163 112 85 166 114 87
170 117 89 174 121 93 179 125 96 185 130 101
191 136 106 197 142 112 204 148 118 211 154 123
217 160 129 222 164 133 226 168 137 230 171 139
231 172 140 231 172 139 230 171 138 228 168 134
224 164 130 220 159 126 215 154 120 210 149 115
206 144 110 201 140 105 197 135 101 193 132 97
190 128 94 188 126 91 186 124 89 185 123 87
184 121 86 183 121 86 183 120 85 182 120 85
182 120 84 182 119 84 182 119 84 182 119 84
182 120 84 182 120 85 182 120 85 182 120 85
182 120 86 182 121 86 182 121 87 183 122 87
183 122 88 183 122 89 183 123 89 183 123 90
183 123 90 183 123 90 182 123 90 182 123 90
181 122 90 179 121 90 178 121 89 177 120 89
175 118 88 173 117 87 172 116 86 170 115 85
168 114 85 166 112 84 165 111 83 163 110 83
161 109 82 160 108 82 158 108 82 157 107 82
155 106 81 153 105 81 151 104 81 149 103 81
147 102 81 145 101 80 143 100 80 141 99 80
138 97 80 135 96 79 133 95 79 130 93 79
127 92 78 123 90 78 119 88 78 115 86 77
110 83 77 109 83 77 107 82 77 105 81 76
102 79 76 95 76 75 104 81 77 85 71 74
19 92 192 19 92 192 19 92 192 19 92 192
19 92 192 19 92 192 19 92 192 19 92 192
19 92 192 19 92 192 19 92 192 19 92 192
19 92 192 19 92 192 19 92 192 19 92 192
19 92 192 19 92 192 19 92 192 19 92 192
19 92 192 19 92 192 19 92 192 19 92 192
19 92 192 19 92 192 19 92 192 19 92 192
19 92 192 19 92 192 19 92 192 19 92 192
19 92 192 19 92 192 19 92 192 19 92 192
19 92 192 19 92 192 19 92 192 19 92 192
19 92 192 19 92 192 19 92 192 19 92 192
19 92 192 19 92 192 19 92 192 19 92 192
19 92 192 19 92 192 19 92 192 19 92 192
19 92 192 19 92 192 19 92 192 19 92 192
19 92 192 19 92 192 19 92 192 19 92 192
19 92 192 19 92 192 19 92 192 19 92 192
19 92 192 19 92 192 19 92 192 19 92 192
19 92 192 19 92 192 19 92 192 19 92 192
19 92 192 19 92 192 19 92 192 19 92 192
19 92 192 19 92 192 32 40 54 66 70 80
62 61 68 75 72 77 113 106 107 128 116 114
119 102 96 126 107 99 132 110 100 138 113 101
141 115 101 144 116 101 175 142 123 157 119 96
161 118 91 127 92 78 134 95 79 141 99 80
147 102 80 152 105 81 156 106 82 159 108 83
163 111 84 166 113 86 165 113 86 163 111 84
158 108 82 153 105 81 186 94 21 135 96 79
143 81 37 104 80 76 19 92 192 19 92 192
19 92 192 19 92 192 19 92 192 19 92 192
19 92 192 19 92 192 19 92 192 19 92 192
19 92 192 19 92 192 19 92 192 19 92 192
19 92 192 19 92 192 19 92 192 19 92 192
19 92 192 19 92 192 19 92 192 81 69 74
90 73 75 95 76 75 99 78 76 102 79 76
105 81 76 107 82 76 109 83 77 111 84 77
112 85 77 114 85 77 117 87 77 120 88 78
123 90 78 126 91 78 128 93 79 131 94 79
133 95 79 136 96 79 138 97 80 140 99 80
142 100 80 145 101 80 147 102 80 148 103 81
150 104 81 152 105 81 154 106 82 156 107 82
158 108 83 161 110 84 163 112 85 166 114 87
170 117 90 174 121 93 179 125 97 185 130 101
191 136 107 198 142 112 204 148 118 211 154 123
217 159 128 222 164 133 226 168 136 229 170 138
230 171 139 230 171 138 229 169 136 226 166 133
223 163 129 219 158 125 214 154 120 209 149 114
205 144 109 200 139 105 196 135 100 193 131 97
190 128 93 188 126 91 186 124 89 185 122 87
184 121 86 183 121 85 182 120 85 182 120 85
182 119 84 182 119 84 182 119 84 182 119 84
182 119 84 182 120 85 182 120 85 182 120 85
182 120 85 182 120 86 182 121 86 182 121 87
182 122 88 183 122 88 183 122 89 182 122 89
182 123 89 182 123 90 182 123 90 181 122 90
180 122 90 179 121 89 178 120 89 176 119 88
175 118 88 173 117 87 171 116 86 170 115 85
168 114 85 166 112 84 165 111 83 163 110 83
161 109 83 160 109 82 158 108 82 157 107 82
155 106 81 153 105 81 152 104 81 150 103 81
148 102 81 145 101 80 143 100 80 141 99 80
139 98 80 136 96 79 133 95 79 130 93 79
127 92 79 124 90 78 120 88 78 116 86 77
111 84 77 109 83 77 108 82 77 106 81 76
103 80 76 98 77 76 91 74 75 19 92 192
19 92 192 19 92 192 19 92 192 19 92 192
19 92 192 19 92 192 19 92 192 19 92 192
19 92 192 19 92 192 19 92 192 19 92 192
19 92 192 19 92 192 19 92 192 19 92 192
19 92 192 19 92 192 19 92 192 19 92 192
19 92 192 19 92 192 19 92 192 19 92 192
19 92 192 19 92 192 19 92 192 19 92 192
19 92 192 19 92 192 19 92 192 19 92 192
19 92 192 19 92 192 19 92 192 19 92 192
19 92 192 19 92 192 19 92 192 19 92 192
19 92 192 19 92 192 19 92 192 19 92 192
19 92 192 19 92 192 19 92 192 19 92 192
19 92 192 19 92 192 19 92 192 19 92 192
19 92 192 19 92 192 19 92 192 19 92 192
19 92 192 19 92 192 19 92 192 19 92 192
19 92 192 19 92 192 19 92 192 19 92 192
19 92 192 19 92 192 19 92 192 19 92 192
19 92 192 19 92 192 19 92 192 19 92 192
19 92 192 19 92 192 19 92 192 19 92 192
19 92 192 19 92 192 19 92 192 19 92 192
19 92 192 19 92 192 16 8 1 26 37 53
32 40 54 31 36 47 55 57 67 69 69 75
106 103 107 114 99 95 155 133 123 145 117 102
177 143 123 159 119 95 186 141 113 129 93 79
136 96 79 142 99 80 148 102 81 152 104 81
155 106 82 158 108 82 161 110 84 162 111 84
161 110 84 157 107 82 152 104 81 142 100 80
166 93 39 142 81 37 19 92 192 19 92 192
19 92 192 19 92 192 19 92 192 19 92 192
19 92 192 19 92 192 19 92 192 19 92 192
19 92 192 19 92 192 19 92 192 19 92 192
19 92 192 19 92 192 19 92 192 19 92 192
19 92 192 19 92 192 19 92 192 85 71 74
91 74 75 96 77 75 100 78 76 103 80 76
105 81 76 107 82 77 109 83 77 111 84 77
113 85 77 114 85 77 117 87 78 120 88 78
123 90 78 126 91 78 129 93 79 131 94 79
134 95 79 136 96 79 138 98 80 141 99 80
143 100 80 163 91 39 181 100 41 149 103 81
151 104 81 152 105 81 154 106 82 156 107 82
158 108 83 161 110 84 163 112 85 167 114 87
170 118 90 175 121 93 180 126 97 186 131 102
192 136 107 198 142 112 204 148 118 211 154 123
216 159 128 221 164 132 225 167 135 228 169 137
229 170 138 229 170 137 228 168 135 225 165 132
222 161 128 218 157 124 213 152 119 208 148 114
204 143 109 200 138 104 196 134 100 192 131 96
190 128 93 187 125 91 186 124 89 184 122 87
183 121 86 183 120 85 182 120 85 182 120 85
182 119 84 181 119 84 181 119 84 181 119 84
181 119 84 181 119 85 181 119 85 181 120 85
181 120 85 181 120 86 182 120 86 182 121 87
182 121 87 182 121 88 182 122 88 182 122 89
182 122 89 181 122 89 181 122 89 180 122 89
180 121 89 178 121 89 177 120 89 176 119 88
174 118 87 173 117 87 171 116 86 170 115 85
168 113 85 166 112 84 165 111 83 163 110 83
162 109 83 160 109 82 158 108 82 157 107 82
155 106 81 153 105 81 152 104 81 150 103 81
148 102 81 146 101 80 144 100 80 141 99 80
139 98 80 136 97 79 134 95 79 131 94 79
128 92 79 124 91 78 120 89 78 116 87 77
112 85 77 109 83 77 108 82 77 106 81 76
103 80 76 99 78 76 65 59 61 19 92 192
19 92 192 19 92 192 19 92 192 19 92 192
19 92 192 19 92 192 19 92 192 19 92 192
19 92 192 19 92 192 19 92 192 19 92 192
19 92 192 19 92 192 19 92 192 19 92 192
19 92 192 19 92 192 19 92 192 19 92 192
19 92 192 19 92 192 19 92 192 19 92 192
19 92 192 19 92 192 19 92 192 19 92 192
19 92 192 19 92 192 19 92 192 19 92 192
19 92 192 19 92 192 19 92 192 19 92 192
19 92 192 19 92 192 19 92 192 19 92 192
19 92 192 19 92 192 19 92 192 19 92 192
19 92 192 19 92 192 19 92 192 19 92 192
19 92 192 19 92 192 19 92 192 19 92 192
19 92 192 19 92 192 19 92 192 19 92 192
19 92 192 19 92 192 19 92 192 19 92 192
19 92 192 19 92 192 19 92 192 19 92 192
19 92 192 19 92 192 19 92 192 19 92 192
19 92 192 19 92 192 19 92 192 19 92 192
19 92 192 19 92 192 19 92 192 19 92 192
19 92 192 19 92 192 19 92 192 19 92 192
19 92 192 19 92 192 19 92 192 19 92 192
19 92 192 19 92 192 35 42 54 43 46 56
59 58 65 72 69 74 109 103 106 100 92 93
135 112 101 171 141 125 156 120 99 160 119 94
187 141 112 131 94 79 138 97 80 145 101 80
150 103 81 154 105 81 158 108 82 160 109 83
162 110 84 160 109 83 155 106 82 149 103 81
187 104 42 156 88 38 136 77 36 19 92 192
19 92 192 19 92 192 19 92 192 19 92 192
19 92 192 19 92 192 19 92 192 19 92 192
19 92 192 19 92 192 19 92 192 19 92 192
19 92 192 19 92 192 19 92 192 19 92 192
19 92 192 19 92 192 67 43 29 87 72 74
93 75 75 97 77 76 100 79 76 103 80 76
106 81 76 108 82 77 110 83 77 111 84 77
113 85 77 114 86 77 118 87 78 121 89 78
124 90 78 127 92 78 129 93 79 132 94 79
134 95 79 136 97 79 139 98 80 141 99 80
158 89 38 171 95 40 179 99 40 149 103 81
151 104 81 153 105 81 154 106 82 156 107 82
159 108 83 161 110 84 164 112 86 167 115 88
171 118 90 175 122 94 180 126 98 186 131 102
192 137 107 198 142 112 204 148 118 210 154 123
216 159 128 221 163 132 224 166 135 227 169 137
228 169 137 228 169 136 226 167 134 224 164 131
220 160 127 216 156 123 212 151 118 207 147 113
203 142 108 199 137 103 195 134 99 192 130 96
189 127 93 187 125 90 185 123 89 184 122 87
183 121 86 182 120 85 182 120 85 182 119 85
181 119 84 181 119 84 181 119 84 181 119 84
181 119 84 181 119 84 181 119 85 181 119 85
181 120 85 181 120 86 181 120 86 181 120 86
181 121 87 181 121 87 181 121 88 181 121 88
181 121 89 181 122 89 180 121 89 180 121 89
179 121 89 178 120 89 177 119 88 176 119 88
174 118 87 173 117 86 171 116 86 170 114 85
168 113 85 166 112 84 165 111 83 163 110 83
162 109 83 160 109 82 158 108 82 157 107 82
155 106 81 153 105 81 152 104 81 150 103 81
148 102 81 146 101 80 144 100 80 142 99 80
139 98 80 137 97 79 134 95 79 131 94 79
128 92 79 125 91 78 121 89 78 117 87 78
113 85 77 109 83 77 108 82 77 106 81 76
104 80 76 100 78 76 92 49 15 19 92 192
19 92 192 19 92 192 19 92 192 19 92 192
19 92 192 19 92 192 19 92 192 19 92 192
19 92 192 19 92 192 19 92 192 19 92 192
19 92 192 19 92 192 19 92 192 19 92 192
19 92 192 19 92 192 19 92 192 19 92 192
19 92 192 19 92 192 19 92 192 19 92 192
19 92 192 19 92 192 19 92 192 19 92 192
19 92 192 19 92 192 19 92 192 19 92 192
19 92 192 19 92 192 19 92 192 19 92 192
19 92 192 19 92 192 19 92 192 19 92 192
19 92 192 19 92 192 19 92 192 19 92 192
19 92 192 19 92 192 19 92 192 19 92 192
19 92 192 19 92 192 19 92 192 19 92 192
19 92 192 19 92 192 19 92 192 19 92 192
19 92 192 19 92 192 19 92 192 19 92 192
19 92 192 19 92 192 19 92 192 19 92 192
19 92 192 19 92 192 19 92 192 19 92 192
19 92 192 19 92 192 19 92 192 19 92 192
19 92 192 19 92 192 19 92 192 19 92 192
19 92 192 19 92 192 19 92 192 19 92 192
19 92 192 19 92 192 19 92 192 19 92 192
19 92 192 19 92 192 19 92 192 19 92 192
19 92 192 43 46 55 55 53 59 73 67 70
112 104 104 138 122 116 138 114 101 175 143 125
159 121 97 162 118 90 129 93 79 138 97 80
145 101 80 150 103 81 154 105 81 157 107 82
159 108 83 161 110 84 158 108 83 153 105 81
204 113 46 175 98 42 147 83 37 122 71 35
19 92 192 19 92 192 19 92 192 19 92 192
19 92 192 19 92 192 19 92 192 19 92 192
19 92 192 19 92 192 19 92 192 19 92 192
19 92 192 19 92 192 19 92 192 19 92 192
19 92 192 19 92 192 77 67 74 88 72 75
94 75 75 98 77 76 101 79 76 104 80 76
106 82 76 108 83 77 110 83 77 112 84 77
113 85 77 115 86 77 118 87 78 121 89 78
124 90 78 127 92 78 130 93 79 132 94 79
134 96 79 137 97 79 139 98 80 151 85 38
165 92 39 175 97 40 187 103 41 204 114 47
151 104 81 153 105 81 155 106 82 157 107 82
159 109 83 161 110 84 164 112 86 167 115 88
171 118 91 175 122 94 180 126 98 186 131 102
192 137 107 198 142 112 204 148 118 210 153 123
215 158 127 220 163 131 224 166 134 226 168 136
227 168 136 227 168 135 225 166 133 222 163 130
219 159 126 215 155 121 211 150 117 206 146 112
202 141 107 198 137 103 194 133 99 191 130 95
189 127 93 187 125 90 185 123 88 184 122 87
183 121 86 182 120 85 182 120 85 181 119 84
181 119 84 181 119 84 181 119 84 181 119 84
181 119 84 181 119 84 181 119 85 181 119 85
181 119 85 181 120 85 181 120 86 181 120 86
181 120 87 181 121 87 181 121 87 181 121 88
181 121 88 180 121 88 180 121 89 179 121 89
179 120 88 178 120 88 176 119 88 175 118 87
174 117 87 172 116 86 171 115 86 169 114 85
168 113 84 166 112 84 165 111 83 163 110 83
161 109 82 160 109 82 158 108 82 157 107 82
155 106 81 154 105 81 152 104 81 150 103 81
148 102 81 146 101 80 144 100 80 142 99 80
140 98 80 137 97 79 134 96 79 131 94 79
128 93 79 125 91 78 122 89 78 118 87 78
114 85 77 109 83 77 108 82 77 106 81 76
104 81 76 101 79 76 95 76 75 19 92 192
19 92 192 19 92 192 19 92 192 19 92 192
19 92 192 19 92 192 19 92 192 19 92 192
19 92 192 19 92 192 19 92 192 19 92 192
19 92 192 19 92 192 19 92 192 19 92 192
19 92 192 19 92 192 19 92 192 19 92 192
19 92 192 19 92 192 19 92 192 19 92 192
19 92 192 19 92 192 19 92 192 19 92 192
19 92 192 19 92 192 19 92 192 19 92 192
19 92 192 19 92 192 19 92 192 19 92 192
19 92 192 19 92 192 19 92 192 19 92 192
19 92 192 19 92 192 19 92 192 19 92 192
19 92 192 19 92 192 19 92 192 19 92 192
19 92 192 19 92 192 19 92 192 19 92 192
19 92 192 19 92 192 19 92 192 19 92 192
19 92 192 19 92 192 19 92 192 19 92 192
19 92 192 19 92 192 19 92 192 19 92 192
19 92 192 19 92 192 19 92 192 19 92 192
19 92 192 19 92 192 19 92 192 19 92 192
19 92 192 19 92 192 19 92 192 19 92 192
19 92 192 19 92 192 19 92 192 19 92 192
19 92 192 19 92 192 19 92 192 19 92 192
19 92 192 19 92 192 19 92 192 19 92 192
19 92 192 19 92 192 19 92 192 44 41 47
90 84 86 88 79 78 132 117 113 135 111 100
174 143 125 159 121 98 187 143 115 129 93 79
138 97 80 144 101 80 149 103 81 154 105 81
157 107 82 158 108 82 159 108 83 156 107 82
150 104 81 187 103 42 164 92 40 142 81 37
96 76 75 19 92 192 19 92 192 19 92 192
19 92 192 19 92 192 19 92 192 19 92 192
19 92 192 19 92 192 19 92 192 19 92 192
19 92 192 19 92 192 19 92 192 19 92 192
19 92 192 19 92 192 6 32 66 6 32 66
95 76 75 99 78 76 102 79 76 105 81 76
107 82 76 109 83 77 111 84 77 112 84 77
114 85 77 116 86 77 119 88 78 122 89 78
125 91 78 127 92 79 130 93 79 132 95 79
135 96 79 137 97 79 143 81 37 159 89 38
169 94 39 177 98 40 190 105 42 213 123 56
151 104 81 153 105 81 155 106 82 157 107 82
159 109 83 161 110 84 164 113 86 167 115 88
171 118 91 176 122 94 181 126 98 186 131 102
192 137 107 198 142 112 204 148 118 210 153 123
215 158 127 219 162 131 223 165 133 225 167 135
226 167 135 225 166 134 224 164 132 221 162 129
218 158 125 214 154 120 210 149 116 205 145 111
201 140 106 197 136 102 194 133 98 191 129 95
188 127 92 186 125 90 185 123 88 183 122 87
183 121 86 182 120 85 182 120 85 181 119 84
181 119 84 181 119 84 181 119 84 181 119 84
181 119 84 181 119 84 181 119 84 180 119 85
180 119 85 180 119 85 180 120 86 181 120 86
181 120 86 181 120 87 180 120 87 180 121 87
180 121 88 180 121 88 179 120 88 179 120 88
178 120 88 177 119 88 176 119 87 175 118 87
173 117 87 172 116 86 171 115 85 169 114 85
167 113 84 166 112 84 164 111 83 163 110 83
161 109 82 160 109 82 158 108 82 157 107 82
155 106 81 154 105 81 152 104 81 150 103 81
148 103 81 146 102 80 144 100 80 142 99 80
140 98 80 137 97 80 135 96 79 132 94 79
129 93 79 126 91 78 123 90 78 118 88 78
114 86 77 110 83 77 108 82 77 106 82 76
104 81 76 101 79 76 97 77 76 43 79 129
43 79 129 19 92 192 19 92 192 19 92 192
19 92 192 19 92 192 19 92 192 19 92 192
19 92 192 19 92 192 19 92 192 19 92 192
19 92 192 19 92 192 19 92 192 19 92 192
19 92 192 19 92 192 19 92 192 19 92 192
19 92 192 19 92 192 19 92 192 19 92 192
19 92 192 19 92 192 19 92 192 19 92 192
19 92 192 19 92 192 19 92 192 19 92 192
19 92 192 19 92 192 19 92 192 19 92 192
19 92 192 19 92 192 19 92 192 19 92 192
19 92 192 19 92 192 19 92 192 19 92 192
19 92 192 19 92 192 19 92 192 19 92 192
19 92 192 19 92 192 19 92 192 19 92 192
19 92 192 19 92 192 19 92 192 19 92 192
19 92 192 19 92 192 19 92 192 19 92 192
19 92 192 19 92 192 19 92 192 19 92 192
19 92 192 19 92 192 19 92 192 19 92 192
19 92 192 19 92 192 19 92 192 19 92 192
19 92 192 19 92 192 19 92 192 19 92 192
19 92 192 19 92 192 19 92 192 19 92 192
19 92 192 19 92 192 19 92 192 19 92 192
19 92 192 19 92 192 19 92 192 19 92 192
19 92 192 19 92 192 19 92 192 19 92 192
72 70 76 88 81 82 84 74 72 126 112 109
130 108 97 172 142 125 159 122 99 187 144 116
164 116 84 137 97 80 144 100 80 149 103 81
154 105 81 156 106 82 158 108 82 158 108 83
155 106 82 214 124 58 180 101 42 152 86 38
136 78 36 19 92 192 19 92 192 19 92 192
19 92 192 19 92 192 19 92 192 19 92 192
19 92 192 19 92 192 19 92 192 19 92 192
19 92 192 19 92 192 19 92 192 19 92 192
19 92 192 19 92 192 6 32 66 6 32 66
96 76 75 100 78 76 103 80 76 105 81 76
107 82 77 109 83 77 111 84 77 112 85 77
114 85 77 116 86 77 119 88 78 122 89 78
125 91 78 128 92 79 130 93 79 133 95 79
135 96 79 137 97 80 154 87 38 163 91 39
171 95 40 180 100 41 194 108 44 221 131 64
210 116 46 153 105 81 155 106 82 157 107 82
159 109 83 161 111 85 164 113 86 168 115 88
171 119 91 176 122 94 181 127 98 186 131 103
192 137 107 198 142 112 204 148 117 209 153 122
214 157 126 218 161 130 222 164 132 224 165 134
224 166 134 224 165 133 222 163 130 220 160 127
216 157 123 213 153 119 209 148 115 204 144 110
200 140 106 197 136 102 193 132 98 190 129 95
188 126 92 186 124 90 184 123 88 183 121 87
182 121 86 182 120 85 181 119 85 181 119 84
181 119 84 181 119 84 181 119 84 180 119 84
180 119 84 180 119 84 180 119 84 180 119 85
180 119 85 180 119 85 180 119 85 180 119 86
180 120 86 180 120 86 180 120 87 180 120 87
179 120 87 179 120 87 179 120 88 178 120 88
177 119 88 176 119 87 175 118 87 174 117 87
173 117 86 172 116 86 170 115 85 169 114 85
167 113 84 166 112 84 164 111 83 163 110 83
161 109 82 160 108 82 158 108 82 157 107 82
155 106 81 154 105 81 152 104 81 150 104 81
148 103 81 146 102 80 144 100 80 142 99 80
140 98 80 138 97 80 135 96 79 132 94 79
129 93 79 126 91 78 123 90 78 119 88 78
115 86 77 111 84 77 108 82 77 106 82 76
105 81 76 102 79 76 98 77 76 43 79 129
43 79 130 43 79 130 43 79 130 19 92 192
19 92 192 19 92 192 19 92 192 19 92 192
19 92 192 19 92 192 19 92 192 19 92 192
19 92 192 19 92 192 19 92 192 19 92 192
19 92 192 19 92 192 19 92 192 19 92 192
19 92 192 19 92 192 19 92 192 19 92 192
19 92 192 19 92 192 19 92 192 19 92 192
19 92 192 19 92 192 19 92 192 19 92 192
19 92 192 19 92 192 19 92 192 19 92 192
19 92 192 19 92 192 19 92 192 19 92 192
19 92 192 19 92 192 19 92 192 19 92 192
19 92 192 19 92 192 19 92 192 19 92 192
19 92 192 19 92 192 19 92 192 19 92 192
19 92 192 19 92 192 19 92 192 19 92 192
19 92 192 19 92 192 19 92 192 19 92 192
19 92 192 19 92 192 19 92 192 19 92 192
19 92 192 19 92 192 19 92 192 19 92 192
19 92 192 19 92 192 19 92 192 19 92 192
19 92 192 19 92 192 19 92 192 19 92 192
19 92 192 19 92 192 19 92 192 19 92 192
19 92 192 19 92 192 19 92 192 19 92 192
19 92 192 19 92 192 19 92 192 19 92 192
19 92 192 19 92 192 19 92 192 19 92 192
19 92 192 19 92 192 54 46 47 102 90 88
101 86 82 72 65 73 90 73 75 105 81 76
117 87 77 164 116 85 137 97 79 144 100 80
150 103 81 154 106 81 157 107 82 158 108 82
157 107 82 152 105 81 196 110 47 172 98 44
145 82 37 114 67 34 19 92 192 19 92 192
19 92 192 19 92 192 19 92 192 19 92 192
19 92 192 19 92 192 19 92 192 19 92 192
19 92 192 19 92 192 34 70 120 34 70 120
33 70 120 33 70 120 6 32 66 6 32 66
6 32 66 100 78 76 103 80 76 106 81 76
108 82 77 109 83 77 111 84 77 113 85 77
114 85 77 116 87 77 119 88 78 122 90 78
125 91 78 128 92 79 130 94 79 133 95 79
135 96 79 147 83 37 157 88 38 165 92 39
174 97 40 183 103 43 202 115 50 211 123 57
192 106 42 153 105 81 155 106 82 157 107 83
159 109 83 162 111 85 164 113 86 168 115 88
171 119 91 176 122 94 181 127 98 186 132 103
192 137 107 198 142 112 203 147 117 208 152 121
213 156 125 217 160 129 220 162 131 222 164 132
223 164 132 222 163 131 221 161 129 218 159 126
215 155 122 211 151 118 207 147 114 203 143 109
199 139 105 196 135 101 192 131 97 190 128 94
187 126 92 185 124 90 184 122 88 183 121 87
182 120 86 181 120 85 181 119 85 181 119 84
181 119 84 180 119 84 180 119 84 180 119 84
180 119 84 180 119 84 180 119 84 180 119 84
180 119 85 180 119 85 180 119 85 180 119 85
180 119 86 179 119 86 179 120 86 179 120 87
179 120 87 178 119 87 178 119 87 177 119 87
177 119 87 176 118 87 175 118 87 174 117 86
172 116 86 171 115 85 170 115 85 168 114 84
167 113 84 166 112 84 164 111 83 163 110 83
161 109 82 160 108 82 158 108 82 157 107 82
155 106 81 154 105 81 152 104 81 150 103 81
148 103 81 146 102 80 144 101 80 142 99 80
140 98 80 138 97 80 135 96 79 132 95 79
129 93 79 126 92 78 123 90 78 120 88 78
115 86 77 111 84 77 108 82 77 106 82 76
105 81 76 102 80 76 98 78 76 5 9 15
43 79 130 43 79 130 43 80 130 43 80 130
43 80 130 19 92 192 19 92 192 19 92 192
19 92 192 19 92 192 19 92 192 19 92 192
19 92 192 19 92 192 19 92 192 19 92 192
19 92 192 19 92 192 19 92 192 19 92 192
19 92 192 19 92 192 19 92 192 19 92 192
19 92 192 19 92 192 19 92 192 19 92 192
19 92 192 19 92 192 19 92 192 19 92 192
19 92 192 19 92 192 19 92 192 19 92 192
19 92 192 19 92 192 19 92 192 19 92 192
19 92 192 19 92 192 19 92 192 19 92 192
19 92 192 19 92 192 19 92 192 19 92 192
19 92 192 19 92 192 19 92 192 19 92 192
19 92 192 19 92 192 19 92 192 19 92 192
19 92 192 19 92 192 19 92 192 19 92 192
19 92 192 19 92 192 19 92 192 19 92 192
19 92 192 19 92 192 19 92 192 19 92 192
19 92 192 19 92 192 19 92 192 19 92 192
19 92 192 19 92 192 19 92 192 19 92 192
19 92 192 19 92 192 19 92 192 19 92 192
19 92 192 19 92 192 19 92 192 19 92 192
19 92 192 19 92 192 19 92 192 19 92 192
19 92 192 19 92 192 19 92 192 19 92 192
19 92 192 19 92 192 19 92 192 64 56 57
100 87 84 64 60 72 69 63 73 88 72 75
105 81 76 118 87 78 130 93 79 139 98 80
146 101 80 152 104 81 156 106 81 158 108 82
158 108 82 156 107 82 205 112 43 183 102 42
160 91 41 138 79 36 19 92 192 19 92 192
19 92 192 19 92 192 19 92 192 19 92 192
19 92 192 19 92 192 58 94 144 58 94 144
58 94 144 58 94 144 34 70 120 34 70 120
34 70 120 6 32 66 6 32 66 6 32 66
6 32 66 101 79 76 104 80 76 106 81 76
108 82 77 110 83 77 111 84 77 113 85 77
114 85 77 117 87 77 120 88 78 123 90 78
126 91 78 128 92 79 131 94 79 133 95 79
139 79 36 152 86 38 160 90 39 167 93 39
178 100 43 186 103 43 213 125 60 188 104 42
151 104 81 153 105 81 155 106 82 157 107 83
159 109 83 162 111 85 164 113 86 168 116 89
172 119 91 176 122 95 181 127 98 186 131 103
191 136 107 197 141 112 202 146 116 208 151 121
212 155 125 216 159 128 219 161 130 221 163 131
221 163 131 220 162 130 219 160 127 216 157 124
213 154 121 210 150 117 206 146 112 202 142 108
198 138 104 195 134 100 192 131 97 189 128 94
187 126 91 185 124 89 184 122 88 182 121 87
182 120 86 181 120 85 181 119 85 180 119 84
180 119 84 180 119 84 180 118 84 180 118 84
180 118 84 180 118 84 180 118 84 180 118 84
179 118 84 179 119 85 179 119 85 179 119 85
179 119 85 179 119 86 179 119 86 179 119 86
178 119 86 178 119 87 177 119 87 177 119 87
176 118 87 175 118 87 174 117 86 173 117 86
172 116 86 171 115 85 170 114 85 168 113 84
167 113 84 165 112 83 164 111 83 163 110 83
161 109 82 160 108 82 158 108 82 157 107 82
155 106 81 153 105 81 152 104 81 150 103 81
148 103 81 146 102 80 144 101 80 142 100 80
140 98 80 138 97 80 135 96 79 133 95 79
130 93 79 127 92 78 124 90 78 120 88 78
116 86 77 112 84 77 108 82 77 106 82 76
105 81 76 103 80 76 99 78 76 92 74 75
43 80 130 43 80 130 43 80 130 43 80 130
43 80 130 43 80 130 44 80 130 19 92 192
19 92 192 19 92 192 19 92 192 19 92 192
19 92 192 19 92 192 19 92 192 19 92 192
19 92 192 19 92 192 19 92 192 19 92 192
19 92 192 19 92 192 19 92 192 19 92 192
19 92 192 19 92 192 19 92 192 19 92 192
19 92 192 19 92 192 19 92 192 19 92 192
19 92 192 19 92 192 19 92 192 19 92 192
19 92 192 19 92 192 19 92 192 19 92 192
19 92 192 19 92 192 19 92 192 19 92 192
19 92 192 19 92 192 19 92 192 19 92 192
19 92 192 19 92 192 19 92 192 19 92 192
19 92 192 19 92 192 19 92 192 19 92 192
19 92 192 19 92 192 19 92 192 19 92 192
19 92 192 19 92 192 19 92 192 19 92 192
19 92 192 19 92 192 19 92 192 19 92 192
19 92 192 19 92 192 19 92 192 19 92 192
19 92 192 19 92 192 19 92 192 19 92 192
19 92 192 19 92 192 19 92 192 19 92 192
19 92 192 19 92 192 19 92 192 19 92 192
19 92 192 19 92 192 19 92 192 19 92 192
19 92 192 19 92 192 19 92 192 19 92 192
19 92 192 19 92 192 19 92 192 19 92 192
68 58 58 104 90 85 67 62 73 73 65 73
92 74 75 108 82 77 121 89 78 132 94 79
141 99 80 148 103 81 153 105 81 157 107 82
158 108 82 158 107 82 153 105 82 205 116 51
177 100 45 146 83 37 127 73 35 19 92 192
19 92 192 19 92 192 58 94 145 58 94 145
58 94 145 58 94 145 58 94 144 58 94 144
58 94 144 58 94 144 58 94 144 34 70 120
34 70 120 6 32 66 6 32 66 6 32 66
6 32 66 101 79 76 104 80 76 106 82 76
108 83 77 110 83 77 112 84 77 113 85 77
114 86 77 117 87 77 120 88 78 123 90 78
126 91 78 128 93 79 131 94 79 133 95 79
147 83 37 155 87 38 162 91 39 169 94 40
185 107 50 189 105 43 211 123 58 149 103 81
151 104 81 153 105 81 155 106 82 157 107 83
159 109 84 162 111 85 164 113 86 168 116 89
172 119 91 176 123 95 181 127 98 186 131 102
191 136 107 196 141 111 202 146 116 207 150 120
211 154 124 215 157 126 217 160 128 219 161 129
219 161 129 219 160 128 217 158 126 215 155 123
212 152 119 208 148 115 204 144 111 201 140 107
197 137 103 194 133 99 191 130 96 188 127 93
186 125 91 184 123 89 183 122 88 182 121 86
181 120 86 181 119 85 180 119 85 180 119 84
180 119 84 180 118 84 180 118 84 180 118 84
180 118 84 179 118 84 179 118 84 179 118 84
179 118 84 179 118 85 179 118 85 179 118 85
179 119 85 178 119 85 178 119 86 178 119 86
178 119 86 177 119 86 177 118 86 176 118 86
176 118 86 175 117 86 174 117 86 173 116 86
172 116 85 170 115 85 169 114 85 168 113 84
167 112 84 165 112 83 164 111 83 162 110 83
161 109 82 160 108 82 158 108 82 157 107 82
155 106 81 153 105 81 152 104 81 150 103 81
148 103 81 146 102 80 144 101 80 142 100 80
140 98 80 138 97 80 136 96 79 133 95 79
130 93 79 127 92 78 124 90 78 120 89 78
116 87 77 112 84 77 108 82 77 106 82 76
105 81 76 103 80 76 99 78 76 95 76 75
43 80 130 43 80 130 43 80 130 44 80 130
44 80 130 44 80 130 44 80 130 44 80 130
78 114 164 19 92 192 19 92 192 19 92 192
19 92 192 19 92 192 19 92 192 19 92 192
19 92 192 19 92 192 19 92 192 19 92 192
19 92 192 19 92 192 19 92 192 19 92 192
19 92 192 19 92 192 19 92 192 19 92 192
19 92 192 19 92 192 19 92 192 19 92 192
19 92 192 19 92 192 19 92 192 19 92 192
19 92 192 19 92 192 19 92 192 19 92 192
19 92 192 19 92 192 19 92 192 19 92 192
19 92 192 19 92 192 19 92 192 19 92 192
19 92 192 19 92 192 19 92 192 19 92 192
19 92 192 19 92 192 19 92 192 19 92 192
19 92 192 19 92 192 19 92 192 19 92 192
19 92 192 19 92 192 19 92 192 19 92 192
19 92 192 19 92 192 19 92 192 19 92 192
19 92 192 19 92 192 19 92 192 19 92 192
19 92 192 19 92 192 19 92 192 19 92 192
19 92 192 19 92 192 19 92 192 19 92 192
19 92 192 19 92 192 19 92 192 19 92 192
19 92 192 19 92 192 19 92 192 19 92 192
19 92 192 19 92 192 19 92 192 19 92 192
19 92 192 19 92 192 19 92 192 19 92 192
19 92 192 93 81 78 108 92 86 71 64 73
77 67 73 95 76 75 111 84 77 124 90 78
134 96 79 143 100 80 150 103 81 154 106 81
157 107 82 158 108 82 156 107 82 151 104 81
186 104 42 164 94 44 140 80 37 88 51 25
58 95 145 58 95 145 58 95 145 58 95 145
58 95 145 58 95 145 58 95 145 58 95 145
58 94 145 58 94 145 58 94 145 58 94 145
34 70 120 6 32 66 6 32 66 6 32 66
6 32 66 102 79 76 105 81 76 107 82 76
109 83 77 110 84 77 112 84 77 113 85 77
114 86 77 117 87 78 120 89 78 123 90 78
126 91 78 128 93 79 131 94 79 142 80 37
151 85 38 157 88 38 163 91 39 172 96 41
189 110 52 195 110 47 192 106 42 149 103 81
151 104 81 153 105 81 155 106 82 157 107 83
159 109 84 162 111 85 164 113 87 168 116 89
171 119 91 176 122 94 180 126 98 185 131 102
191 136 106 196 140 111 201 145 115 206 149 119
210 153 123 213 156 125 216 158 127 217 159 128
218 159 128 217 158 126 215 156 124 213 154 121
210 151 118 207 147 114 203 143 110 199 139 106
196 136 102 193 132 99 190 129 96 188 127 93
185 125 91 184 123 89 183 122 87 182 120 86
181 120 85 180 119 85 180 119 84 180 119 84
180 118 84 180 118 84 179 118 84 179 118 84
179 118 84 179 118 84 179 118 84 179 118 84
179 118 84 179 118 84 178 118 85 178 118 85
178 118 85 178 118 85 178 118 85 177 118 86
177 118 86 177 118 86 176 118 86 176 118 86
175 117 86 174 117 86 173 117 86 172 116 85
171 115 85 170 114 85 169 114 84 168 113 84
166 112 84 165 111 83 163 111 83 162 110 83
161 109 82 159 108 82 158 107 82 156 107 82
155 106 81 153 105 81 152 104 81 150 103 81
148 103 81 147 102 80 144 101 80 142 100 80
140 98 80 138 97 80 136 96 79 133 95 79
130 93 79 127 92 78 124 90 78 121 89 78
117 87 77 112 85 77 108 82 77 106 81 76
105 81 76 103 80 76 100 78 76 95 76 75
44 80 130 44 80 130 44 80 130 44 80 130
44 80 130 78 114 164 78 114 164 78 114 164
78 114 164 78 114 165 78 114 165 19 92 192
19 92 192 19 92 192 19 92 192 19 92 192
19 92 192 19 92 192 19 92 192 19 92 192
19 92 192 19 92 192 19 92 192 19 92 192
19 92 192 19 92 192 19 92 192 19 92 192
19 92 192 19 92 192 19 92 192 19 92 192
19 92 192 19 92 192 19 92 192 19 92 192
19 92 192 19 92 192 19 92 192 19 92 192
19 92 192 19 92 192 19 92 192 19 92 192
19 92 192 19 92 192 19 92 192 19 92 192
19 92 192 19 92 192 19 92 192 19 92 192
19 92 192 19 92 192 19 92 192 19 92 192
19 92 192 19 92 192 19 92 192 19 92 192
19 92 192 19 92 192 19 92 192 19 92 192
19 92 192 19 92 192 19 92 192 19 92 192
19 92 192 19 92 192 19 92 192 19 92 192
19 92 192 19 92 192 19 92 192 19 92 192
19 92 192 19 92 192 19 92 192 19 92 192
19 92 192 19 92 192 19 92 192 19 92 192
19 92 192 19 92 192 19 92 192 19 92 192
19 92 192 19 92 192 19 92 192 19 92 192
19 92 192 19 92 192 19 92 192 19 92 192
19 92 192 19 92 192 97 83 79 68 62 73
74 65 73 81 69 74 98 78 76 114 85 77
126 91 78 136 97 79 145 101 80 151 104 81
156 106 81 158 107 82 159 108 82 155 106 82
204 115 48 178 101 44 147 84 38 131 75 36
59 95 145 59 95 145 59 95 145 59 95 145
59 95 145 59 95 145 59 95 145 58 95 145
58 95 145 58 95 145 58 95 145 58 95 145
58 95 145 6 32 66 6 32 66 6 32 66
6 32 66 103 80 76 105 81 76 107 82 76
109 83 77 111 84 77 112 84 77 113 85 77
115 86 77 117 87 78 120 89 78 123 90 78
126 91 78 129 93 79 135 77 36 147 83 37
153 86 38 159 89 38 165 92 39 177 101 45
185 106 47 209 122 58 148 102 81 149 103 81
151 104 81 153 105 82 155 106 82 157 107 83
159 109 84 162 111 85 164 113 87 168 116 89
171 119 91 175 122 94 180 126 98 185 131 102
190 135 106 195 140 110 200 144 114 205 148 118
209 152 121 212 155 124 214 157 126 215 158 126
216 158 126 215 157 125 213 155 123 211 152 120
208 149 116 205 146 113 202 142 109 198 138 105
195 135 101 192 132 98 189 129 95 187 126 92
185 124 90 183 123 89 182 121 87 181 120 86
181 120 85 180 119 85 180 119 84 180 118 84
179 118 84 179 118 84 179 118 84 179 118 84
179 118 84 179 118 84 179 118 84 179 118 84
178 118 84 178 118 84 178 118 84 178 118 85
178 118 85 178 118 85 177 118 85 177 118 85
177 118 85 176 118 86 176 118 86 175 117 86
174 117 86 174 117 86 173 116 85 172 115 85
171 115 85 170 114 85 168 113 84 167 113 84
166 112 83 165 111 83 163 110 83 162 110 82
161 109 82 159 108 82 158 107 82 156 107 82
155 106 81 153 105 81 152 104 81 150 103 81
148 103 81 146 102 80 144 101 80 142 100 80
140 98 80 138 97 80 136 96 79 133 95 79
130 93 79 127 92 79 124 90 78 121 89 78
117 87 77 113 85 77 108 83 77 106 81 76
104 81 76 102 80 76 100 78 76 95 76 75
44 80 130 44 80 130 78 114 164 78 114 164
78 114 164 78 114 164 78 114 165 78 114 165
78 114 165 78 115 165 78 115 165 78 115 165
78 115 165 19 92 192 19 92 192 19 92 192
19 92 192 19 92 192 19 92 192 19 92 192
19 92 192 19 92 192 19 92 192 19 92 192
19 92 192 19 92 192 19 92 192 19 92 192
19 92 192 19 92 192 19 92 192 19 92 192
19 92 192 19 92 192 19 92 192 19 92 192
19 92 192 19 92 192 19 92 192 19 92 192
19 92 192 19 92 192 19 92 192 19 92 192
19 92 192 19 92 192 19 92 192 19 92 192
19 92 192 19 92 192 19 92 192 19 92 192
19 92 192 19 92 192 19 92 192 19 92 192
19 92 192 19 92 192 19 92 192 19 92 192
19 92 192 19 92 192 19 92 192 19 92 192
19 92 192 19 92 192 19 92 192 19 92 192
19 92 192 19 92 192 19 92 192 19 92 192
19 92 192 19 92 192 19 92 192 19 92 192
19 92 192 19 92 192 19 92 192 19 92 192
19 92 192 19 92 192 19 92 192 19 92 192
19 92 192 19 92 192 19 92 192 19 92 192
19 92 192 19 92 192 19 92 192 19 92 192
19 92 192 19 92 192 19 92 192 19 92 192
19 92 192 19 92 192 19 92 192 100 85 79
71 64 73 77 67 73 84 70 74 101 79 76
116 87 77 128 93 79 139 98 80 147 102 80
153 105 81 157 107 82 159 108 82 157 107 82
153 105 81 190 106 44 169 99 47 141 80 37
91 74 75 59 95 145 59 95 145 59 95 145
59 95 145 59 95 145 59 95 145 59 95 145
59 95 145 59 95 145 59 95 145 59 95 145
59 95 145 6 32 66 6 32 66 6 32 66
6 32 66 103 80 76 105 81 76 107 82 77
109 83 77 111 84 77 112 84 77 113 85 77
115 86 77 118 87 78 121 89 78 123 90 78
126 91 78 124 72 35 142 81 37 149 84 37
155 87 38 160 90 39 166 93 39 186 109 53
184 102 42 205 118 53 148 102 81 149 103 81
151 104 81 153 105 82 155 106 82 157 107 83
159 109 84 161 111 85 164 113 87 167 115 89
171 118 91 175 122 94 179 126 98 184 130 101
189 135 105 194 139 110 199 143 113 203 147 117
207 150 120 210 153 122 212 155 124 214 156 125
214 156 124 213 155 123 212 153 121 209 150 118
207 147 115 204 144 111 200 141 108 197 137 104
194 134 101 191 131 97 188 128 95 186 126 92
184 124 90 183 122 88 182 121 87 181 120 86
180 119 85 180 119 85 179 118 84 179 118 84
179 118 84 179 118 84 179 118 84 179 118 84
179 118 84 178 118 84 178 118 84 178 118 84
178 118 84 178 118 84 178 118 84 177 118 84
177 118 85 177 118 85 177 118 85 176 117 85
176 117 85 176 117 85 175 117 85 174 117 85
174 116 85 173 116 85 172 116 85 171 115 85
170 114 85 169 114 84 168 113 84 167 112 84
165 112 83 164 111 83 163 110 83 162 109 82
160 109 82 159 108 82 158 107 82 156 106 82
155 106 81 153 105 81 151 104 81 150 103 81
148 102 81 146 102 80 144 101 80 142 99 80
140 98 80 138 97 80 136 96 79 133 95 79
130 94 79 127 92 79 124 90 78 121 89 78
117 87 78 113 85 77 109 83 77 106 81 76
104 81 76 102 80 76 100 78 76 96 76 75
78 114 164 78 114 164 78 114 165 78 114 165
78 114 165 78 115 165 78 115 165 78 115 165
78 115 165 79 115 165 79 115 165 79 115 165
79 115 165 79 115 165 79 115 165 19 92 192
19 92 192 19 92 192 19 92 192 19 92 192
19 92 192 19 92 192 19 92 192 19 92 192
19 92 192 19 92 192 19 92 192 19 92 192
19 92 192 19 92 192 19 92 192 19 92 192
19 92 192 19 92 192 19 92 192 19 92 192
19 92 192 19 92 192 19 92 192 19 92 192
19 92 192 19 92 192 19 92 192 19 92 192
19 92 192 19 92 192 19 92 192 19 92 192
19 92 192 19 92 192 19 92 192 19 92 192
19 92 192 19 92 192 19 92 192 19 92 192
19 92 192 19 92 192 19 92 192 19 92 192
19 92 192 19 92 192 19 92 192 19 92 192
19 92 192 19 92 192 19 92 192 19 92 192
19 92 192 19 92 192 19 92 192 19 92 192
19 92 192 19 92 192 19 92 192 19 92 192
19 92 192 19 92 192 19 92 192 19 92 192
19 92 192 19 92 192 19 92 192 19 92 192
19 92 192 19 92 192 19 92 192 19 92 192
19 92 192 19 92 192 19 92 192 19 92 192
19 92 192 19 92 192 19 92 192 19 92 192
19 92 192 19 92 192 19 92 192 50 35 28
84 66 60 74 66 73 79 68 74 88 72 75
105 81 76 120 88 78 132 94 79 142 99 80
150 103 81 155 106 81 158 108 82 159 108 82
156 107 82 203 111 44 179 100 43 149 85 39
133 76 36 59 95 145 59 95 145 59 95 145
59 95 145 59 95 145 59 95 145 59 95 145
59 95 145 59 95 145 59 95 145 59 95 145
7 11 17 6 32 66 6 32 66 6 32 66
6 32 66 103 80 76 105 81 76 107 82 77
109 83 77 111 84 77 112 85 77 114 85 77
115 86 77 116 86 77 121 89 78 124 90 78
126 91 78 139 79 36 146 83 37 151 85 38
156 88 38 162 91 39 169 95 40 192 115 59
187 104 43 186 96 26 147 102 81 149 103 81
151 104 81 153 105 82 155 106 82 157 107 83
159 109 84 161 111 85 164 113 87 167 115 89
171 118 91 175 122 94 179 125 97 184 130 101
188 134 105 193 138 109 197 142 112 202 146 116
205 149 119 208 151 121 210 153 122 211 154 123
212 154 122 211 153 121 209 151 119 207 148 116
205 146 113 202 143 110 199 139 106 196 136 103
193 133 100 190 130 97 187 127 94 185 125 92
184 123 90 182 122 88 181 121 87 180 120 86
180 119 85 179 119 85 179 118 84 179 118 84
179 118 84 179 118 84 178 118 84 178 118 84
178 118 84 178 118 84 178 117 84 178 117 84
178 117 84 177 117 84 177 117 84 177 117 84
177 117 84 176 117 85 176 117 85 176 117 85
175 117 85 175 117 85 174 117 85 174 116 85
173 116 85 172 116 85 172 115 85 171 115 85
170 114 84 169 113 84 167 113 84 166 112 83
165 111 83 164 111 83 163 110 83 161 109 82
160 109 82 159 108 82 157 107 82 156 106 81
154 106 81 153 105 81 151 104 81 150 103 81
148 102 81 146 101 80 144 100 80 142 99 80
140 98 80 138 97 80 136 96 79 133 95 79
130 93 79 127 92 79 124 90 78 121 89 78
117 87 78 113 85 77 109 83 77 105 81 76
104 80 76 102 79 76 100 78 76 96 76 75
107 80 65 78 114 165 78 115 165 78 115 165
78 115 165 78 115 165 79 115 165 79 115 165
79 115 165 79 115 165 79 115 165 79 115 165
79 115 165 79 115 165 79 115 165 79 115 165
79 115 165 19 92 192 19 92 192 19 92 192
19 92 192 19 92 192 19 92 192 19 92 192
19 92 192 19 92 192 19 92 192 19 92 192
19 92 192 19 92 192 19 92 192 19 92 192
19 92 192 19 92 192 19 92 192 19 92 192
19 92 192 19 92 192 19 92 192 19 92 192
19 92 192 19 92 192 19 92 192 19 92 192
19 92 192 19 92 192 19 92 192 19 92 192
19 92 192 19 92 192 19 92 192 19 92 192
19 92 192 19 92 192 19 92 192 19 92 192
19 92 192 19 92 192 19 92 192 19 92 192
19 92 192 19 92 192 19 92 192 19 92 192
19 92 192 19 92 192 19 92 192 19 92 192
19 92 192 19 92 192 19 92 192 19 92 192
19 92 192 19 92 192 19 92 192 19 92 192
19 92 192 19 92 192 19 92 192 19 92 192
19 92 192 19 92 192 19 92 192 19 92 192
19 92 192 19 92 192 19 92 192 19 92 192
19 92 192 19 92 192 19 92 192 19 92 192
19 92 192 19 92 192 19 92 192 19 92 192
19 92 192 19 92 192 35 71 121 35 71 121
98 83 78 80 60 51 78 67 74 82 70 74
94 76 75 111 84 77 125 91 78 137 97 79
145 101 80 153 105 81 157 107 81 159 108 82
158 108 82 153 105 81 194 109 45 175 103 50
143 81 37 93 56 32 59 95 146 59 95 146
59 95 146 59 95 146 59 95 146 59 95 146
59 95 146 59 95 145 59 95 145 59 95 145
20 33 50 6 32 66 6 32 66 6 32 66
6 32 66 103 80 76 106 81 76 108 82 77
109 83 77 111 84 77 112 85 77 114 85 77
115 86 77 116 86 77 121 89 78 124 90 78
135 77 36 143 81 37 148 84 37 153 86 38
158 89 38 163 91 39 173 98 43 190 113 56
199 114 51 146 101 80 147 102 81 149 103 81
151 104 81 153 105 82 154 106 82 156 107 83
159 109 84 161 111 85 164 113 86 167 115 89
170 118 91 174 121 94 178 125 97 183 129 100
187 133 104 192 137 108 196 141 111 200 144 114
203 147 117 206 150 119 208 151 120 209 152 121
209 152 120 209 151 119 207 149 117 205 146 114
203 144 112 200 141 108 197 138 105 194 135 102
191 132 99 189 129 96 186 126 93 185 124 91
183 123 89 182 121 88 181 120 87 180 119 86
179 119 85 179 118 85 179 118 84 178 118 84
178 118 84 178 118 84 178 117 84 178 117 84
178 117 84 178 117 84 178 117 84 177 117 84
177 117 84 177 117 84 177 117 84 177 117 84
176 117 84 176 117 84 176 117 84 175 117 85
175 117 85 174 116 85 174 116 85 173 116 85
173 116 85 172 115 85 171 115 84 170 114 84
169 114 84 168 113 84 167 113 84 166 112 83
165 111 83 164 111 83 162 110 83 161 109 82
160 108 82 158 108 82 157 107 82 156 106 81
154 105 81 153 105 81 151 104 81 149 103 81
148 102 81 146 101 80 144 100 80 142 99 80
140 98 80 138 97 80 135 96 79 133 95 79
130 93 79 127 92 78 124 90 78 121 89 78
118 87 78 113 85 77 109 83 77 105 81 76
104 80 76 102 79 76 100 78 76 96 76 75
90 73 75 78 115 165 78 115 165 79 115 165
79 115 165 79 115 165 79 115 165 79 115 165
79 115 165 79 115 165 79 115 165 79 115 165
79 115 165 79 115 166 79 115 166 79 115 166
79 116 166 79 116 166 79 116 166 19 92 192
19 92 192 19 92 192 19 92 192 19 92 192
19 92 192 19 92 192 19 92 192 19 92 192
19 92 192 19 92 192 19 92 192 19 92 192
19 92 192 19 92 192 19 92 192 19 92 192
19 92 192 19 92 192 19 92 192 19 92 192
19 92 192 19 92 192 19 92 192 19 92 192
19 92 192 19 92 192 19 92 192 19 92 192
19 92 192 19 92 192 19 92 192 19 92 192
19 92 192 19 92 192 19 92 192 19 92 192
19 92 192 19 92 192 19 92 192 19 92 192
19 92 192 19 92 192 19 92 192 19 92 192
19 92 192 19 92 192 19 92 192 19 92 192
19 92 192 19 92 192 19 92 192 19 92 192
19 92 192 19 92 192 19 92 192 19 92 192
19 92 192 19 92 192 19 92 192 19 92 192
19 92 192 19 92 192 19 92 192 19 92 192
19 92 192 19 92 192 19 92 192 19 92 192
19 92 192 19 92 192 19 92 192 19 92 192
19 92 192 19 92 192 64 100 150 64 100 150
35 71 121 35 71 121 35 71 121 35 71 121
35 71 121 104 86 80 75 66 73 81 69 74
85 71 74 101 79 76 116 86 77 129 93 79
140 98 80 148 103 81 155 106 81 159 108 82
159 108 82 157 107 82 150 103 81 180 100 42
153 88 41 136 78 36 59 96 146 59 96 146
59 96 146 59 96 146 59 96 146 59 96 146
59 96 146 34 71 121 34 71 121 34 71 121
20 33 50 6 32 66 6 32 66 6 32 66
6 32 66 6 32 66 106 81 76 108 82 77
110 83 77 111 84 77 112 85 77 114 85 77
115 86 77 116 86 77 121 89 78 130 75 36
140 80 37 146 83 37 150 85 38 155 87 38
159 89 38 165 92 39 181 105 50 183 104 46
206 120 56 145 101 80 147 102 81 149 103 81
151 104 81 152 105 81 154 106 82 156 107 83
158 109 84 161 110 85 164 113 86 167 115 88
170 118 91 174 121 93 178 124 96 182 128 100
186 132 103 191 136 107 195 139 110 198 143 113
202 146 115 204 148 117 206 149 118 207 150 119
207 150 118 206 149 117 205 147 115 203 145 113
201 142 110 198 139 107 195 136 104 193 133 101
190 131 98 188 128 95 186 126 93 184 124 91
182 122 89 181 121 87 180 120 86 179 119 86
179 119 85 179 118 84 178 118 84 178 118 84
178 117 84 178 117 84 178 117 84 178 117 84
177 117 84 177 117 84 177 117 84 177 117 84
177 117 84 176 117 84 176 117 84 176 117 84
176 117 84 175 117 84 175 116 84 175 116 84
174 116 84 174 116 84 173 116 84 173 116 84
172 115 84 171 115 84 171 114 84 170 114 84
169 113 84 168 113 84 167 112 83 166 112 83
164 111 83 163 110 83 162 110 82 161 109 82
159 108 82 158 107 82 157 107 82 155 106 81
154 105 81 152 105 81 151 104 81 149 103 81
147 102 81 146 101 80 144 100 80 142 99 80
140 98 80 137 97 80 135 96 79 133 95 79
130 93 79 127 92 78 124 90 78 121 89 78
117 87 78 113 85 77 109 83 77 105 81 76
103 80 76 102 79 76 99 78 76 96 77 75
90 73 75 79 115 165 79 115 165 79 115 165
79 115 165 79 115 165 79 115 165 79 115 165
79 115 165 79 115 165 79 115 166 79 115 166
79 115 166 79 116 166 79 116 166 79 116 166
79 116 166 80 116 166 80 116 166 80 116 166
80 116 166 19 92 192 19 92 192 19 92 192
19 92 192 19 92 192 19 92 192 19 92 192
19 92 192 19 92 192 19 92 192 19 92 192
19 92 192 19 92 192 19 92 192 19 92 192
19 92 192 19 92 192 19 92 192 19 92 192
19 92 192 19 92 192 19 92 192 19 92 192
19 92 192 19 92 192 19 92 192 19 92 192
19 92 192 19 92 192 19 92 192 19 92 192
19 92 192 19 92 192 19 92 192 19 92 192
19 92 192 19 92 192 19 92 192 19 92 192
19 92 192 19 92 192 19 92 192 19 92 192
19 92 192 19 92 192 19 92 192 19 92 192
19 92 192 19 92 192 19 92 192 19 92 192
19 92 192 19 92 192 19 92 192 19 92 192
19 92 192 19 92 192 19 92 192 19 92 192
19 92 192 19 92 192 19 92 192 19 92 192
19 92 192 19 92 192 19 92 192 19 92 192
19 92 192 19 92 192 118 154 204 118 154 204
118 154 204 118 154 204 35 71 121 35 71 121
35 71 121 35 71 121 35 71 121 35 71 121
35 71 121 35 71 121 89 69 60 78 68 74
84 70 74 89 73 75 107 82 76 121 89 78
133 95 79 143 100 80 151 104 81 157 107 81
159 108 82 159 108 82 155 106 82 198 111 46
178 104 50 145 82 37 99 59 32 60 96 146
60 96 146 35 71 121 35 71 121 35 71 121
35 71 121 34 71 121 34 71 121 34 71 121
12 24 42 6 32 66 6 32 66 6 32 66
6 32 66 6 32 66 106 81 76 108 82 77
110 83 77 111 84 77 113 85 77 114 85 77
115 86 77 116 86 77 126 73 35 137 78 36
144 82 37 148 84 37 152 86 38 156 88 38
161 90 39 167 94 40 188 113 57 182 101 42
192 106 43 145 101 80 147 102 81 149 103 81
150 104 81 152 105 81 154 106 82 156 107 83
158 109 84 161 110 85 163 112 86 166 115 88
169 117 90 173 120 93 177 124 96 181 127 99
185 131 102 189 135 106 193 138 109 197 141 112
200 144 114 202 146 116 204 147 117 205 148 117
205 147 116 204 146 115 203 145 113 201 143 111
199 140 108 196 138 105 194 135 102 191 132 100
189 130 97 187 127 94 185 125 92 183 123 90
182 122 88 180 120 87 180 119 86 179 119 85
178 118 85 178 118 84 178 118 84 178 117 84
178 117 84 177 117 84 177 117 84 177 117 84
177 117 84 177 117 84 177 117 84 177 117 84
176 117 84 176 117 84 176 116 84 176 116 84
175 116 84 175 116 84 175 116 84 174 116 84
174 116 84 173 116 84 173 115 84 172 115 84
172 115 84 171 114 84 170 114 84 169 114 84
168 113 84 167 112 83 166 112 83 165 111 83
164 111 83 163 110 83 162 109 82 160 109 82
159 108 82 158 107 82 156 107 82 155 106 81
154 105 81 152 104 81 150 104 81 149 103 81
147 102 81 145 101 80 144 100 80 142 99 80
139 98 80 137 97 79 135 96 79 132 95 79
130 93 79 127 92 78 124 90 78 121 89 78
117 87 78 113 85 77 109 83 77 104 81 76
103 80 76 101 79 76 99 78 76 96 76 75
90 73 75 44 80 131 44 80 131 79 115 165
79 115 165 79 115 165 79 115 165 79 115 166
79 115 166 79 115 166 79 116 166 79 116 166
79 116 166 79 116 166 80 116 166 80 116 166
80 116 166 80 116 166 45 81 131 45 81 131
45 81 131 45 81 131 45 81 131 19 92 192
19 92 192 19 92 192 19 92 192 19 92 192
19 92 192 19 92 192 19 92 192 19 92 192
19 92 192 19 92 192 19 92 192 19 92 192
19 92 192 19 92 192 19 92 192 19 92 192
19 92 192 19 92 192 19 92 192 19 92 192
19 92 192 19 92 192 19 92 192 19 92 192
19 92 192 19 92 192 19 92 192 19 92 192
19 92 192 19 92 192 19 92 192 19 92 192
19 92 192 19 92 192 19 92 192 19 92 192
19 92 192 19 92 192 19 92 192 19 92 192
19 92 192 19 92 192 19 92 192 19 92 192
19 92 192 19 92 192 19 92 192 19 92 192
19 92 192 19 92 192 19 92 192 19 92 192
19 92 192 19 92 192 19 92 192 19 92 192
19 92 192 19 92 192 19 92 192 19 92 192
19 92 192 19 92 192 19 92 192 118 154 204
118 154 204 118 154 205 118 154 205 118 154 205
118 154 205 61 97 147 35 71 121 35 71 121
35 71 121 35 71 121 35 71 121 35 71 121
35 71 121 35 71 121 103 85 79 84 62 51
82 69 74 86 71 74 96 76 75 112 84 77
125 91 78 137 97 79 146 101 80 154 105 81
158 107 82 160 108 82 158 108 82 152 104 81
183 101 41 162 94 46 141 80 37 94 56 32
35 71 121 35 71 121 35 71 121 35 71 121
35 71 121 35 71 121 35 71 121 35 71 121
12 24 42 6 32 66 6 32 66 6 32 66
6 32 66 6 32 66 106 81 76 108 82 77
110 83 77 111 84 77 112 85 77 114 85 77
115 86 77 120 70 35 135 77 36 142 81 37
146 83 37 150 85 38 154 87 38 158 89 38
162 91 39 170 97 43 191 115 59 185 103 43
143 100 80 145 101 80 147 102 81 148 103 81
150 104 81 152 105 81 154 106 82 156 107 83
158 108 83 160 110 85 163 112 86 166 114 88
169 117 90 172 120 93 176 123 95 180 126 98
184 130 101 188 133 105 192 137 107 195 140 110
198 142 112 200 144 114 202 145 115 203 146 115
203 145 114 202 144 113 201 143 111 199 141 109
197 139 107 195 136 104 192 133 101 190 131 98
188 128 96 186 126 94 184 124 91 182 123 90
181 121 88 180 120 87 179 119 86 178 118 85
178 118 85 178 118 84 177 117 84 177 117 84
177 117 84 177 117 84 177 117 84 177 117 84
177 117 84 177 117 84 176 117 84 176 117 84
176 116 84 176 116 84 175 116 84 175 116 84
175 116 84 175 116 84 174 116 84 174 116 84
173 115 84 173 115 84 172 115 84 172 115 84
171 114 84 170 114 84 169 114 84 169 113 84
168 113 83 167 112 83 166 112 83 165 111 83
163 110 83 162 110 82 161 109 82 160 108 82
159 108 82 157 107 82 156 106 81 155 106 81
153 105 81 152 104 81 150 103 81 149 103 81
147 102 80 145 101 80 143 100 80 141 99 80
139 98 80 137 97 79 135 96 79 132 94 79
130 93 79 127 92 78 124 90 78 120 88 78
117 87 77 113 85 77 109 83 77 104 80 76
103 80 76 101 79 76 99 78 76 96 76 75
90 73 75 44 80 131 44 80 131 44 81 131
79 115 166 79 115 166 79 116 166 79 116 166
79 116 166 79 116 166 80 116 166 80 116 166
80 116 166 80 116 166 80 116 166 45 81 131
45 81 131 45 81 131 45 81 131 45 81 131
45 81 131 45 81 131 45 81 131 45 81 131
45 81 131 19 92 192 19 92 192 19 92 192
19 92 192 19 92 192 19 92 192 19 92 192
19 92 192 19 92 192 19 92 192 19 92 192
19 92 192 19 92 192 19 92 192 19 92 192
19 92 192 19 92 192 19 92 192 19 92 192
19 92 192 19 92 192 19 92 192 19 92 192
19 92 192 19 92 192 19 92 192 19 92 192
19 92 192 19 92 192 19 92 192 19 92 192
19 92 192 19 92 192 19 92 192 19 92 192
19 92 192 19 92 192 19 92 192 19 92 192
19 92 192 19 92 192 19 92 192 19 92 192
19 92 192 19 92 192 19 92 192 19 92 192
19 92 192 19 92 192 19 92 192 19 92 192
19 92 192 19 92 192 19 92 192 19 92 192
19 92 192 19 92 192 19 92 192 118 154 205
118 154 205 118 155 205 118 155 205 118 155 205
118 155 205 118 155 205 119 155 205 119 155 205
61 97 147 61 97 147 61 97 147 35 71 121
35 71 121 35 71 121 35 71 121 35 71 121
35 71 121 35 71 121 35 71 121 109 89 80
79 68 74 85 71 74 88 73 75 101 79 76
116 87 77 130 93 79 141 99 80 149 103 81
156 106 81 160 108 82 160 109 82 157 107 82
200 112 46 180 103 48 148 84 38 136 78 36
93 56 32 35 71 121 35 71 121 35 71 121
35 71 121 35 71 121 35 71 121 35 71 121
12 24 42 6 32 66 6 32 66 6 32 66
6 32 66 6 32 66 106 81 76 108 82 77
110 83 77 111 84 77 112 85 77 114 85 77
118 62 19 132 76 36 140 80 37 145 82 37
149 84 37 152 86 38 156 88 38 160 90 39
164 92 39 176 102 48 185 109 53 196 113 51
143 100 80 145 101 80 147 102 81 148 103 81
150 103 81 152 104 81 153 106 82 155 107 83
157 108 83 160 110 84 162 112 86 165 114 88
168 116 90 171 119 92 175 122 95 179 125 97
183 129 100 186 132 103 190 135 106 193 138 108
196 140 110 198 142 112 199 143 113 200 143 113
200 143 112 199 142 111 198 141 109 197 139 107
195 137 105 193 135 103 191 132 100 189 130 97
186 127 95 184 125 93 183 124 91 181 122 89
180 121 88 179 120 87 179 119 86 178 118 85
178 118 85 177 117 84 177 117 84 177 117 84
177 117 84 177 117 84 177 117 84 176 117 83
176 117 83 176 116 83 176 116 83 176 116 83
175 116 83 175 116 84 175 116 84 175 116 84
174 116 84 174 116 84 174 115 84 173 115 84
173 115 84 172 115 84 172 115 84 171 114 84
170 114 84 170 114 84 169 113 84 168 113 83
167 112 83 166 112 83 165 111 83 164 111 83
163 110 83 162 109 82 161 109 82 159 108 82
158 108 82 157 107 82 156 106 81 154 106 81
153 105 81 151 104 81 150 103 81 148 102 81
146 102 80 145 101 80 143 100 80 141 99 80
139 98 80 137 97 79 134 96 79 132 94 79
129 93 79 126 92 78 123 90 78 120 88 78
117 87 77 113 85 77 105 81 76 103 80 76
102 79 76 101 79 76 98 78 76 95 76 75
90 73 75 44 81 131 44 81 131 44 81 131
44 81 131 44 81 131 79 116 166 80 116 166
80 116 166 80 116 166 80 116 166 80 116 166
45 81 131 45 81 131 45 81 131 45 81 131
45 81 131 45 81 131 45 81 131 45 81 131
45 81 131 45 81 131 45 81 131 45 81 131
45 81 131 45 81 131 45 81 131 19 92 192
19 92 192 19 92 192 19 92 192 19 92 192
19 92 192 19 92 192 19 92 192 19 92 192
19 92 192 19 92 192 19 92 192 19 92 192
19 92 192 19 92 192 19 92 192 19 92 192
19 92 192 19 92 192 19 92 192 19 92 192
19 92 192 19 92 192 19 92 192 19 92 192
19 92 192 19 92 192 19 92 192 19 92 192
19 92 192 19 92 192 19 92 192 19 92 192
19 92 192 19 92 192 19 92 192 19 92 192
19 92 192 19 92 192 19 92 192 19 92 192
19 92 192 19 92 192 19 92 192 19 92 192
19 92 192 19 92 192 19 92 192 19 92 192
19 92 192 19 92 192 19 92 192 118 155 205
118 155 205 118 155 205 118 155 205 119 155 205
119 155 205 119 155 205 119 155 205 119 155 205
119 155 205 119 155 205 119 155 205 61 97 147
61 97 147 61 97 147 61 97 147 61 97 147
35 71 122 35 71 122 35 71 122 35 71 122
35 71 122 35 71 122 35 71 122 103 85 79
83 61 50 82 70 74 87 72 74 91 74 75
108 82 77 122 89 78 134 96 79 144 101 80
152 105 81 158 107 82 160 109 82 159 108 82
153 105 81 188 104 42 176 104 52 145 82 37
136 78 36 94 57 32 91 74 75 35 71 121
35 71 121 35 71 121 35 71 121 35 71 121
12 24 42 6 32 66 6 32 66 6 32 66
6 32 66 6 32 66 106 81 76 108 82 77
110 83 77 111 84 77 112 85 77 127 73 35
134 76 36 139 79 36 143 81 37 147 83 37
151 85 38 154 87 38 157 88 38 161 90 39
166 93 40 183 108 53 180 102 44 200 116 53
143 100 80 144 101 80 146 102 80 148 102 81
150 103 81 151 104 81 153 105 82 155 107 82
157 108 83 159 109 84 162 111 86 164 113 87
167 116 89 171 118 91 174 121 94 177 124 97
181 127 99 184 130 102 188 133 104 191 136 107
193 138 108 195 140 110 197 141 110 197 141 111
197 141 110 197 140 109 196 139 107 194 137 105
193 135 103 191 133 101 189 131 99 187 128 96
185 126 94 183 124 92 182 123 90 180 121 89
179 120 87 178 119 86 178 118 85 177 118 85
177 117 84 177 117 84 177 117 84 176 117 84
176 117 84 176 116 83 176 116 83 176 116 83
176 116 83 176 116 83 175 116 83 175 116 83
175 116 83 175 116 83 174 116 83 174 116 83
174 115 83 173 115 84 173 115 84 173 115 84
172 115 84 172 114 84 171 114 84 170 114 84
170 114 83 169 113 83 168 113 83 167 112 83
166 112 83 166 111 83 165 111 83 164 110 83
162 110 82 161 109 82 160 109 82 159 108 82
158 107 82 157 107 82 155 106 81 154 105 81
152 105 81 151 104 81 149 103 81 148 102 81
146 101 80 144 101 80 143 100 80 141 99 80
138 98 80 136 96 79 134 95 79 131 94 79
129 93 79 126 91 78 123 90 78 120 88 78
116 86 77 113 85 77 104 80 76 103 80 76
102 79 76 100 78 76 98 77 76 95 76 75
98 69 54 44 81 131 44 81 131 44 81 131
44 81 131 45 81 131 45 81 131 45 81 131
80 116 166 45 81 131 45 81 131 45 81 131
45 81 131 45 81 131 45 81 131 45 81 131
45 81 131 45 81 131 45 81 131 45 81 131
45 81 131 45 81 131 45 81 131 45 81 131
45 81 131 45 81 131 45 81 132 45 81 132
45 81 132 19 92 192 19 92 192 19 92 192
19 92 192 19 92 192 19 92 192 19 92 192
19 92 192 19 92 192 19 92 192 19 92 192
19 92 192 19 92 192 19 92 192 19 92 192
19 92 192 19 92 192 19 92 192 19 92 192
19 92 192 19 92 192 19 92 192 19 92 192
19 92 192 19 92 192 19 92 192 19 92 192
19 92 192 19 92 192 19 92 192 19 92 192
19 92 192 19 92 192 19 92 192 19 92 192
19 92 192 19 92 192 19 92 192 19 92 192
19 92 192 19 92 192 19 92 192 19 92 192
19 92 192 19 92 192 19 92 192 64 100 150
119 155 205 119 155 205 119 155 205 119 155 205
119 155 205 119 155 205 119 155 205 119 155 205
119 155 205 119 155 205 119 155 205 119 155 206
119 155 206 119 155 206 61 97 148 61 97 148
61 97 148 61 97 148 61 97 148 61 97 148
61 97 147 35 72 122 35 71 122 35 71 122
35 71 122 35 71 122 35 71 122 35 71 122
109 89 80 80 68 74 85 71 74 89 73 75
98 77 76 113 85 77 127 92 78 138 98 80
148 102 81 155 106 81 159 108 82 161 109 82
158 108 82 203 112 44 181 101 43 160 92 43
144 82 37 136 78 36 98 59 32 93 56 32
91 55 32 88 72 75 79 43 15 78 49 30
76 47 30 76 47 30 76 47 30 75 47 30
75 47 30 2 11 23 101 60 33 128 74 35
123 61 12 130 74 36 133 76 36 136 78 36
138 79 36 142 80 37 146 83 37 149 84 37
152 86 38 156 88 38 159 89 38 163 91 39
170 96 43 184 109 55 180 100 41 189 104 42
142 100 80 144 100 80 146 101 80 148 102 81
149 103 81 151 104 81 153 105 82 155 106 82
157 108 83 159 109 84 161 111 85 164 113 87
167 115 89 170 118 91 173 120 93 176 123 96
180 126 98 183 129 101 186 132 103 189 134 105
191 136 106 193 137 108 194 138 108 195 139 108
195 138 108 194 138 107 193 136 105 192 135 104
191 133 102 189 131 99 187 129 97 185 127 95
184 125 93 182 123 91 181 122 89 179 120 88
178 119 87 178 119 86 177 118 85 177 117 85
176 117 84 176 117 84 176 117 84 176 116 84
176 116 84 176 116 83 176 116 83 175 116 83
175 116 83 175 116 83 175 116 83 175 116 83
174 116 83 174 116 83 174 115 83 174 115 83
173 115 83 173 115 83 172 115 83 172 115 83
171 114 83 171 114 83 170 114 83 170 114 83
169 113 83 168 113 83 168 113 83 167 112 83
166 112 83 165 111 83 164 111 83 163 110 82
162 110 82 161 109 82 160 108 82 159 108 82
157 107 82 156 106 81 155 106 81 153 105 81
152 104 81 150 104 81 149 103 81 147 102 81
146 101 80 144 100 80 142 99 80 140 98 80
138 97 80 136 96 79 133 95 79 131 94 79
128 93 79 126 91 78 122 90 78 119 88 78
116 86 77 112 84 77 103 80 76 102 79 76
101 79 76 99 78 76 97 77 75 94 75 75
98 69 54 44 81 131 45 81 131 45 81 131
45 81 131 45 81 131 45 81 131 80 116 166
80 116 166 80 116 166 45 81 131 45 81 131
45 81 131 45 81 131 45 81 131 45 81 131
45 81 131 45 81 131 45 81 131 45 81 131
45 81 131 45 81 131 45 81 132 45 81 132
45 81 132 45 81 132 45 81 132 45 81 132
45 81 132 45 82 132 45 82 132 19 92 192
19 92 192 19 92 192 19 92 192 19 92 192
19 92 192 19 92 192 19 92 192 19 92 192
19 92 192 19 92 192 19 92 192 19 92 192
19 92 192 19 92 192 19 92 192 19 92 192
19 92 192 19 92 192 19 92 192 19 92 192
19 92 192 19 92 192 19 92 192 19 92 192
19 92 192 19 92 192 19 92 192 19 92 192
19 92 192 19 92 192 19 92 192 19 92 192
19 92 192 19 92 192 19 92 192 19 92 192
19 92 192 19 92 192 19 92 192 64 100 150
64 100 150 64 100 151 64 100 151 64 100 151
64 100 151 119 155 205 119 155 205 119 155 205
119 155 206 119 155 206 119 155 206 119 156 206
119 156 206 119 156 206 119 156 206 119 156 206
120 156 206 120 156 206 61 98 148 61 98 148
61 98 148 61 98 148 61 98 148 61 98 148
61 98 148 61 98 148 35 72 122 35 72 122
35 72 122 35 72 122 61 97 148 61 97 148
103 85 79 83 61 50 82 70 74 87 72 75
90 74 75 105 81 76 118 88 78 132 94 79
142 99 80 151 104 81 157 107 82 160 109 82
160 109 82 156 107 82 196 109 45 182 106 51
153 87 40 144 82 37 138 79 36 101 60 33
99 59 32 97 58 32 94 57 32 93 56 32
91 55 32 88 54 31 88 54 31 88 54 31
130 75 36 134 77 36 172 95 40 121 70 35
151 85 38 136 78 36 137 78 36 139 79 36
141 80 37 144 82 37 147 83 37 151 85 38
154 87 38 157 88 38 161 90 39 164 92 40
173 100 46 182 106 50 183 102 42 140 98 80
142 99 80 144 100 80 145 101 80 147 102 81
149 103 81 151 104 81 152 105 82 154 106 82
156 107 83 158 109 84 161 110 85 163 112 87
166 115 88 169 117 90 172 119 92 175 122 95
178 125 97 181 127 99 184 130 101 187 132 103
189 134 105 191 135 106 192 136 106 192 136 106
192 136 106 192 135 105 191 134 103 190 133 102
189 131 100 187 129 98 185 128 96 184 126 94
182 124 92 181 122 90 180 121 89 178 120 88
178 119 87 177 118 86 177 117 85 176 117 85
176 117 84 176 116 84 175 116 84 175 116 84
175 116 83 175 116 83 175 116 83 175 116 83
175 116 83 175 116 83 174 116 83 174 115 83
174 115 83 174 115 83 173 115 83 173 115 83
173 115 83 172 115 83 172 114 83 171 114 83
171 114 83 170 114 83 170 114 83 169 113 83
169 113 83 168 113 83 167 112 83 166 112 83
165 111 83 164 111 83 163 110 82 162 110 82
161 109 82 160 109 82 159 108 82 158 107 82
157 107 82 155 106 81 154 105 81 153 105 81
151 104 81 150 103 81 148 103 81 147 102 80
145 101 80 143 100 80 142 99 80 140 98 80
137 97 80 135 96 79 133 95 79 130 94 79
128 92 79 125 91 78 122 89 78 119 88 78
115 86 77 111 84 77 103 80 76 102 79 76
100 79 76 99 78 76 96 77 75 93 75 75
97 69 54 45 81 131 45 81 131 45 81 131
80 116 166 80 116 166 80 116 166 80 116 166
80 116 166 80 116 167 80 116 167 80 116 167
45 81 131 45 81 131 45 81 131 45 81 131
45 81 131 45 81 131 45 81 131 45 81 132
45 81 132 45 81 132 45 81 132 45 81 132
45 81 132 45 81 132 45 82 132 45 82 132
45 82 132 45 82 132 45 82 132 45 82 132
45 82 132 19 92 192 19 92 192 19 92 192
19 92 192 19 92 192 19 92 192 19 92 192
19 92 192 19 92 192 19 92 192 19 92 192
19 92 192 19 92 192 19 92 192 19 92 192
19 92 192 19 92 192 19 92 192 19 92 192
19 92 192 19 92 192 19 92 192 19 92 192
19 92 192 19 92 192 19 92 192 19 92 192
19 92 192 19 92 192 19 92 192 19 92 192
19 92 192 19 92 192 19 92 192 64 100 151
64 100 151 64 100 151 64 100 151 64 100 151
64 100 151 64 101 151 64 101 151 64 101 151
64 101 151 64 101 151 119 156 206 119 156 206
119 156 206 120 156 206 120 156 206 120 156 206
120 156 206 120 156 206 120 156 206 120 156 206
120 156 206 62 98 148 62 98 148 62 98 148
62 98 148 62 98 148 62 98 148 62 98 148
62 98 148 61 98 148 61 98 148 61 98 148
61 98 148 61 98 148 61 98 148 61 98 148
61 98 148 89 69 60 98 74 62 85 71 74
89 73 75 95 76 75 110 83 77 124 90 78
136 96 79 146 101 80 154 105 81 159 108 82
161 109 82 160 109 82 153 105 81 186 103 42
180 106 52 154 87 39 145 82 37 142 81 37
104 62 33 103 61 33 102 61 33 100 60 33
99 59 32 98 59 32 96 58 32 136 78 36
173 96 40 177 98 40 180 100 41 184 102 41
124 72 35 156 88 38 156 88 38 155 87 38
143 81 37 145 82 37 149 84 37 152 86 38
155 87 38 158 89 38 162 91 39 166 93 40
174 100 46 179 101 44 192 110 49 140 98 80
142 99 80 143 100 80 145 101 80 147 102 81
148 103 81 150 104 81 152 105 82 154 106 82
155 107 83 158 108 84 160 110 85 162 112 86
165 114 88 167 116 90 170 118 92 173 121 94
176 123 96 179 126 98 182 128 100 185 130 101
187 132 103 188 133 104 189 134 104 190 134 104
190 134 104 190 133 103 189 132 102 188 131 100
187 129 98 185 128 97 184 126 95 182 124 93
181 123 91 180 121 90 179 120 88 178 119 87
177 118 86 176 118 85 176 117 85 176 117 84
175 116 84 175 116 84 175 116 84 175 116 83
175 116 83 175 116 83 175 116 83 174 116 83
174 116 83 174 115 83 174 115 83 174 115 83
173 115 83 173 115 83 173 115 83 172 115 83
172 115 83 172 114 83 171 114 83 171 114 83
170 114 83 170 113 83 169 113 83 169 113 83
168 113 83 167 112 83 166 112 83 166 111 83
165 111 83 164 110 82 163 110 82 162 109 82
161 109 82 160 108 82 159 108 82 157 107 82
156 107 81 155 106 81 154 105 81 152 105 81
151 104 81 149 103 81 148 102 81 146 102 80
145 101 80 143 100 80 141 99 80 139 98 80
137 97 79 135 96 79 132 94 79 130 93 79
127 92 79 125 91 78 121 89 78 118 87 78
114 86 77 111 84 77 102 79 76 101 79 76
100 78 76 98 77 76 96 76 75 92 75 75
97 69 54 80 116 166 80 116 166 80 116 166
80 116 166 80 116 166 80 116 167 80 116 167
80 116 167 80 117 167 80 117 167 80 117 167
81 117 167 81 117 167 45 81 131 45 81 131
45 81 132 45 81 132 45 81 132 45 81 132
45 81 132 45 81 132 45 82 132 45 82 132
45 82 132 45 82 132 45 82 132 45 82 132
45 82 132 45 82 132 45 82 132 46 82 132
46 82 132 126 162 212 126 162 212 19 92 192
19 92 192 19 92 192 19 92 192 19 92 192
19 92 192 19 92 192 19 92 192 19 92 192
19 92 192 19 92 192 19 92 192 19 92 192
19 92 192 19 92 192 19 92 192 19 92 192
19 92 192 19 92 192 19 92 192 19 92 192
19 92 192 19 92 192 19 92 192 19 92 192
19 92 192 19 92 192 19 92 192 19 92 192
64 100 151 64 100 151 64 100 151 64 101 151
64 101 151 64 101 151 64 101 151 64 101 151
64 101 151 64 101 151 64 101 151 65 101 151
65 101 151 65 101 151 120 156 206 120 156 206
120 156 206 120 156 206 120 156 206 120 156 206
120 156 206 120 156 207 120 156 207 120 156 207
62 98 148 62 98 148 62 98 148 62 98 148
62 98 148 62 98 148 62 98 148 36 72 122
36 72 122 36 72 122 36 72 122 36 72 122
62 98 148 62 98 148 62 98 148 62 98 148
62 98 148 103 86 79 83 61 50 82 70 74
87 72 75 91 74 75 101 79 76 115 86 77
128 93 79 140 98 80 149 103 81 156 106 81
160 108 82 161 109 82 158 108 82 204 114 47
185 103 42 178 104 50 150 85 38 147 83 37
145 82 37 143 81 37 142 81 37 140 80 37
163 91 39 168 93 39 172 96 40 176 98 40
180 100 41 184 102 41 187 103 41 190 105 42
193 106 42 127 73 35 161 90 39 161 90 39
160 90 39 160 90 39 161 90 39 163 91 39
164 91 39 165 92 39 166 93 39 170 95 41
177 100 44 179 100 41 196 113 51 139 98 80
141 99 80 143 100 80 145 101 80 146 102 81
148 102 81 150 103 81 151 104 81 153 105 82
155 107 83 157 108 83 159 109 85 161 111 86
164 113 87 166 115 89 169 117 91 172 120 93
175 122 94 177 124 96 180 126 98 182 128 100
184 130 101 186 131 102 187 132 102 187 132 102
188 132 102 187 131 101 187 130 100 186 129 98
185 128 97 183 126 95 182 125 94 181 123 92
180 122 90 179 121 89 178 119 88 177 119 87
176 118 86 176 117 85 175 117 85 175 116 84
175 116 84 175 116 84 174 116 83 174 116 83
174 116 83 174 115 83 174 115 83 174 115 83
174 115 83 174 115 83 173 115 83 173 115 83
173 115 83 173 115 83 172 115 83 172 114 83
172 114 83 171 114 83 171 114 83 170 114 83
170 113 83 169 113 83 169 113 83 168 112 83
167 112 83 166 112 83 166 111 83 165 111 83
164 111 82 163 110 82 162 110 82 161 109 82
160 109 82 159 108 82 158 107 82 157 107 82
156 106 81 154 106 81 153 105 81 152 104 81
150 104 81 149 103 81 147 102 81 146 101 80
144 100 80 142 99 80 140 99 80 138 98 80
136 96 79 134 95 79 132 94 79 129 93 79
127 92 78 124 90 78 121 89 78 117 87 78
114 85 77 110 83 77 106 81 76 100 78 76
99 78 76 97 77 75 95 76 75 91 74 75
96 68 54 80 116 166 80 116 166 80 116 167
80 116 167 80 116 167 80 117 167 80 117 167
80 117 167 80 117 167 81 117 167 81 117 167
81 117 167 81 117 167 81 117 167 81 117 167
45 81 132 45 81 132 45 81 132 45 82 132
45 82 132 45 82 132 45 82 132 45 82 132
45 82 132 45 82 132 45 82 132 45 82 132
46 82 132 46 82 132 82 118 168 82 118 168
82 118 168 126 162 212 126 162 212 126 162 212
126 162 212 19 92 192 19 92 192 19 92 192
19 92 192 19 92 192 19 92 192 19 92 192
19 92 192 19 92 192 19 92 192 19 92 192
19 92 192 19 92 192 19 92 192 19 92 192
19 92 192 19 92 192 19 92 192 19 92 192
19 92 192 19 92 192 19 92 192 19 92 192
19 92 192 19 92 192 19 92 192 19 92 192
64 101 151 64 101 151 64 101 151 64 101 151
65 101 151 65 101 151 65 101 151 65 101 151
65 101 151 65 101 151 65 101 151 65 101 151
65 101 151 65 101 151 65 101 151 120 156 207
120 156 207 120 156 207 120 157 207 120 157 207
120 157 207 120 157 207 121 157 207 121 157 207
62 98 149 62 98 148 62 98 148 36 72 122
36 72 122 36 72 122 36 72 122 36 72 122
36 72 122 36 72 122 36 72 122 36 72 122
36 72 122 62 98 148 62 98 148 62 98 148
62 98 148 62 98 148 89 68 60 87 63 51
85 71 74 89 73 75 92 74 75 106 82 76
120 88 78 132 95 79 143 100 80 151 104 81
157 107 82 160 109 82 161 109 82 157 107 82
200 112 46 185 104 44 176 102 47 162 91 40
158 88 38 157 88 38 161 90 39 165 92 39
169 94 39 173 96 40 178 99 40 182 101 41
186 103 41 190 105 42 193 106 42 196 108 42
199 109 42 202 111 43 164 92 39 164 92 39
164 92 39 164 92 39 165 92 39 166 93 39
167 93 39 169 94 39 170 95 40 173 97 41
177 99 42 181 101 42 188 105 43 139 98 80
141 99 80 142 100 80 144 100 80 146 101 80
147 102 81 149 103 81 151 104 81 152 105 82
154 106 82 156 107 83 158 109 84 160 110 85
163 112 87 165 114 88 168 116 90 170 118 91
173 120 93 175 122 95 178 124 96 180 126 98
182 128 99 183 129 100 184 129 100 185 130 100
185 129 100 185 129 99 184 128 98 184 127 97
183 126 95 182 125 94 180 123 92 179 122 91
178 121 90 177 120 88 176 119 87 176 118 86
175 117 85 175 117 85 174 116 84 174 116 84
174 116 84 174 116 84 174 115 83 174 115 83
174 115 83 174 115 83 173 115 83 173 115 83
173 115 83 173 115 83 173 115 83 173 115 83
172 115 83 172 114 83 172 114 83 171 114 83
171 114 83 170 114 83 170 113 83 170 113 83
169 113 83 168 113 83 168 112 83 167 112 83
167 112 83 166 111 83 165 111 83 164 111 82
163 110 82 162 110 82 162 109 82 161 109 82
160 108 82 158 108 82 157 107 82 156 107 81
155 106 81 154 105 81 152 105 81 151 104 81
150 103 81 148 102 81 147 102 80 145 101 80
143 100 80 141 99 80 140 98 80 138 97 80
136 96 79 133 95 79 131 94 79 128 93 79
126 91 78 123 90 78 120 88 78 116 87 77
113 85 77 109 83 77 105 81 76 99 78 76
98 77 76 96 76 75 94 75 75 127 98 82
95 68 53 80 116 167 80 116 167 80 117 167
80 117 167 80 117 167 80 117 167 81 117 167
81 117 167 81 117 167 81 117 167 81 117 167
81 117 167 81 117 167 81 117 167 81 117 167
81 117 167 81 117 168 45 82 132 45 82 132
45 82 132 45 82 132 45 82 132 45 82 132
45 82 132 46 82 132 46 82 132 82 118 168
82 118 168 82 118 168 82 118 168 82 118 168
126 162 213 126 162 213 126 162 213 126 162 213
126 162 213 126 162 213 126 162 213 126 162 213
19 92 192 19 92 192 19 92 192 19 92 192
19 92 192 19 92 192 19 92 192 19 92 192
19 92 192 19 92 192 19 92 192 19 92 192
19 92 192 19 92 192 19 92 192 19 92 192
19 92 192 19 92 192 19 92 192 19 92 192
19 92 192 19 92 192 19 92 192 19 92 192
65 101 151 65 101 151 65 101 151 65 101 151
65 101 151 65 101 151 65 101 151 65 101 151
65 101 151 65 101 151 65 101 151 65 101 151
65 101 151 65 101 151 65 101 151 65 101 151
121 157 207 121 157 207 121 157 207 121 157 207
121 157 207 121 157 207 121 157 207 65 101 152
36 72 122 36 72 122 36 72 122 36 72 122
36 72 122 36 72 122 36 72 122 36 72 122
36 72 122 36 72 122 36 72 122 36 72 122
36 72 122 36 72 122 62 98 148 62 98 148
62 98 148 62 98 148 81 64 58 82 60 50
102 76 64 87 72 74 90 74 75 97 77 75
111 84 77 124 90 78 136 96 79 145 101 80
153 105 81 159 108 82 161 109 82 161 109 82
156 106 82 199 111 45 187 105 45 180 104 48
171 96 41 167 93 39 168 93 39 172 96 40
176 98 40 180 100 41 184 102 41 188 104 41
192 106 42 195 107 42 198 109 42 201 110 43
204 112 43 207 113 43 210 114 44 167 93 39
167 93 39 167 93 39 168 94 39 170 95 40
171 95 40 172 96 40 173 96 40 175 98 41
178 99 41 186 105 46 136 96 79 138 97 80
140 98 80 142 99 80 143 100 80 145 101 80
147 102 81 148 103 81 150 104 81 152 105 82
154 106 82 155 107 83 157 108 84 159 110 85
162 111 86 164 113 87 166 115 89 169 117 90
171 119 92 173 121 93 176 123 95 178 124 96
179 125 97 181 126 98 182 127 98 182 127 98
182 127 98 182 127 97 182 126 96 181 125 95
181 124 94 180 123 93 179 122 91 178 121 90
177 120 89 176 119 88 175 118 87 175 117 86
174 117 85 174 116 85 174 116 84 173 116 84
173 115 84 173 115 83 173 115 83 173 115 83
173 115 83 173 115 83 173 115 83 173 115 83
173 115 83 172 115 83 172 114 83 172 114 83
172 114 83 171 114 83 171 114 83 171 114 83
170 114 83 170 113 83 169 113 83 169 113 83
168 113 83 168 112 83 167 112 83 166 112 83
166 111 83 165 111 82 164 111 82 164 110 82
163 110 82 162 109 82 161 109 82 160 108 82
159 108 82 158 107 82 157 107 82 156 106 81
154 106 81 153 105 81 152 104 81 150 104 81
149 103 81 147 102 81 146 101 80 144 100 80
143 100 80 141 99 80 139 98 80 137 97 79
135 96 79 133 95 79 130 93 79 127 92 79
125 91 78 122 89 78 119 88 78 116 86 77
112 84 77 108 82 77 104 80 76 99 78 76
97 77 75 95 76 75 93 75 75 127 98 82
93 67 53 80 117 167 80 117 167 80 117 167
81 117 167 81 117 167 81 117 167 81 117 167
81 117 167 81 117 167 81 117 167 81 117 167
81 117 167 81 117 167 81 117 168 81 117 168
81 117 168 81 118 168 81 118 168 81 118 168
45 82 132 45 82 132 46 82 132 46 82 132
46 82 132 82 118 168 82 118 168 82 118 168
82 118 168 82 118 168 82 118 168 82 118 168
127 163 213 127 163 213 127 163 213 127 163 213
127 163 213 127 163 213 127 163 213 127 163 213
127 163 213 127 163 213 19 92 192 19 92 192
19 92 192 19 92 192 19 92 192 19 92 192
19 92 192 19 92 192 19 92 192 19 92 192
19 92 192 19 92 192 19 92 192 19 92 192
19 92 192 19 92 192 19 92 192 19 92 192
19 92 192 19 92 192 19 92 192 19 92 192
65 101 151 65 101 151 65 101 151 65 101 151
65 101 151 65 101 151 65 101 151 65 101 151
65 101 151 65 101 151 65 101 151 65 101 151
65 101 151 65 101 152 65 101 152 65 101 152
65 101 152 121 157 207 121 157 207 121 157 207
65 102 152 65 102 152 65 102 152 36 72 122
36 72 122 36 72 122 36 72 122 36 72 122
36 72 122 36 72 122 36 72 122 36 72 122
36 72 122 36 72 122 36 72 122 36 72 122
36 72 122 36 72 122 36 72 122 62 98 149
62 98 149 62 98 148 62 98 148 87 68 60
86 62 51 84 70 74 88 72 75 91 74 75
102 79 76 115 86 77 128 93 79 139 98 80
148 103 81 156 106 81 160 108 82 161 109 82
160 109 82 156 107 82 197 109 44 189 105 44
186 106 47 178 100 43 177 99 41 178 99 40
182 101 41 186 102 41 190 104 42 193 106 42
197 108 42 201 110 43 203 111 43 206 113 43
209 114 43 211 115 44 213 116 44 131 75 36
170 94 40 170 95 40 171 95 40 172 96 40
174 97 40 175 97 41 176 98 41 179 100 42
182 102 43 190 109 49 135 96 79 137 97 80
139 98 80 141 99 80 143 100 80 144 101 80
146 102 81 148 102 81 149 103 81 151 104 82
153 105 82 155 107 83 157 108 84 159 109 84
161 111 86 163 112 87 165 114 88 167 116 89
169 118 91 172 119 92 174 121 93 175 122 94
177 123 95 178 124 96 179 125 96 180 125 96
180 125 96 180 125 95 180 124 94 179 123 94
179 123 92 178 122 91 177 121 90 176 120 89
176 119 88 175 118 87 174 117 86 174 116 85
173 116 85 173 116 84 173 115 84 173 115 84
173 115 83 173 115 83 172 115 83 172 115 83
172 115 83 172 114 83 172 114 83 172 114 83
172 114 83 172 114 83 171 114 83 171 114 83
171 114 83 171 114 83 170 114 83 170 113 83
170 113 83 169 113 83 169 113 83 168 113 83
168 112 83 167 112 83 166 112 83 166 111 83
165 111 82 164 111 82 164 110 82 163 110 82
162 109 82 161 109 82 160 109 82 159 108 82
158 108 82 157 107 82 156 106 81 155 106 81
154 105 81 152 105 81 151 104 81 150 103 81
148 102 81 147 102 80 145 101 80 143 100 80
142 99 80 140 98 80 138 97 80 136 96 79
134 95 79 132 94 79 129 93 79 127 92 78
124 90 78 121 89 78 118 87 78 115 86 77
111 84 77 107 82 76 103 80 76 98 77 76
96 76 75 94 75 75 92 74 75 126 97 82
91 66 53 80 117 167 81 117 167 81 117 167
81 117 167 81 117 167 81 117 167 81 117 167
81 117 167 81 117 167 81 117 167 81 117 167
81 117 168 81 117 168 81 117 168 81 118 168
81 118 168 81 118 168 82 118 168 82 118 168
82 118 168 82 118 168 82 118 168 82 118 168
82 118 168 82 118 168 82 118 168 82 118 168
82 118 168 82 118 169 82 118 169 127 163 213
127 163 213 127 163 213 127 163 213 127 163 213
127 163 213 127 163 213 127 163 213 127 163 213
127 163 213 127 163 213 127 163 213 127 163 213
19 92 192 19 92 192 19 92 192 19 92 192
19 92 192 19 92 192 19 92 192 19 92 192
19 92 192 19 92 192 19 92 192 19 92 192
19 92 192 19 92 192 19 92 192 19 92 192
19 92 192 19 92 192 19 92 192 19 92 192
65 101 151 65 101 151 65 101 151 65 101 151
65 101 151 65 101 151 65 101 152 65 101 152
65 101 152 65 101 152 65 101 152 65 101 152
65 101 152 65 102 152 65 102 152 65 102 152
121 157 208 65 102 152 65 102 152 65 102 152
65 102 152 65 102 152 66 102 152 36 72 123
36 72 122 36 72 122 36 72 122 36 72 122
36 72 122 36 72 122 36 72 122 36 72 122
36 72 122 36 72 122 36 72 122 36 72 122
36 72 122 36 72 122 36 72 122 62 99 149
62 99 149 62 98 149 62 98 149 79 63 58
91 69 60 100 75 63 85 71 74 89 73 75
92 75 75 106 82 76 120 88 78 132 94 79
142 99 80 151 104 81 157 107 81 160 108 82
161 109 82 160 109 82 210 116 46 202 113 46
192 106 43 191 107 45 188 105 44 188 104 42
188 104 42 192 106 42 194 107 42 197 108 42
201 110 43 205 112 43 208 113 43 210 115 44
212 116 44 215 117 44 217 118 44 219 119 44
172 96 40 172 96 40 173 97 41 175 98 41
177 99 42 178 100 43 181 102 43 183 103 44
187 107 48 190 109 49 135 96 79 137 97 79
139 98 80 140 99 80 142 99 80 144 100 80
145 101 80 147 102 81 149 103 81 150 104 81
152 105 82 154 106 82 156 107 83 157 108 84
159 110 85 161 111 86 164 113 87 166 115 88
168 116 90 170 118 91 172 119 92 173 121 93
175 122 94 176 122 94 177 123 94 178 123 94
178 123 94 178 123 94 178 122 93 177 122 92
177 121 91 176 120 90 175 119 89 175 118 88
174 118 87 174 117 86 173 116 86 173 116 85
172 115 84 172 115 84 172 115 84 172 115 84
172 115 83 172 114 83 172 114 83 172 114 83
172 114 83 172 114 83 171 114 83 171 114 83
171 114 83 171 114 83 171 114 83 171 114 83
170 114 83 170 113 83 170 113 83 169 113 83
169 113 83 168 113 83 168 112 83 168 112 83
167 112 83 166 112 83 166 111 82 165 111 82
164 111 82 164 110 82 163 110 82 162 109 82
161 109 82 160 109 82 159 108 82 158 108 82
157 107 82 156 107 81 155 106 81 154 105 81
153 105 81 152 104 81 150 103 81 149 103 81
147 102 81 146 101 80 144 101 80 143 100 80
141 99 80 139 98 80 137 97 80 135 96 79
133 95 79 131 94 79 128 92 79 126 91 78
123 90 78 120 89 78 117 87 78 113 85 77
109 83 77 105 81 76 101 79 76 97 77 75
95 76 75 93 75 75 108 78 62 124 97 82
90 65 53 45 81 131 81 117 167 81 117 167
81 117 167 81 117 167 81 117 167 81 117 167
81 117 167 81 117 168 81 117 168 81 117 168
81 118 168 81 118 168 81 118 168 81 118 168
82 118 168 82 118 168 82 118 168 82 118 168
46 82 132 46 82 132 46 82 132 46 82 132
82 118 168 82 118 168 82 118 169 82 118 169
82 118 169 82 119 169 127 163 214 127 163 214
127 163 214 127 163 214 127 163 214 127 163 214
127 163 214 127 163 214 127 163 214 127 163 214
127 163 214 127 163 214 127 163 214 127 163 214
127 163 214 127 163 214 19 92 192 19 92 192
19 92 192 19 92 192 19 92 192 19 92 192
19 92 192 19 92 192 19 92 192 19 92 192
19 92 192 19 92 192 19 92 192 19 92 192
19 92 192 19 92 192 19 92 192 19 92 192
65 101 152 65 101 152 65 101 152 65 101 152
65 101 152 65 101 152 65 101 152 65 102 152
65 102 152 65 102 152 65 102 152 65 102 152
121 158 208 121 158 208 121 158 208 122 158 208
122 158 208 122 158 208 66 102 152 66 102 152
66 102 152 66 102 152 66 102 152 36 72 123
36 72 123 36 72 123 36 72 123 36 72 123
36 72 123 36 72 123 36 72 123 36 72 123
36 72 122 36 72 122 36 72 122 36 72 122
36 72 122 36 72 122 36 72 122 36 72 122
62 99 149 62 99 149 62 99 149 62 99 149
86 67 60 84 61 51 125 99 86 87 72 74
90 73 75 97 77 76 111 84 77 124 90 78
135 96 79 144 101 80 152 104 81 157 107 81
160 108 82 162 110 82 162 110 83 211 116 46
210 118 50 197 109 43 196 108 43 195 108 43
197 108 43 198 109 43 201 110 43 203 111 43
205 112 43 208 114 43 211 115 44 214 117 44
215 117 44 217 118 44 219 119 45 221 120 45
223 121 45 175 98 42 175 99 43 178 101 44
181 103 45 184 105 47 186 107 48 189 109 50
192 112 52 186 105 45 134 95 79 136 96 79
138 97 80 140 98 80 141 99 80 143 100 80
145 101 80 146 102 81 148 102 81 149 103 81
151 104 82 153 105 82 154 106 83 156 108 84
158 109 84 160 110 85 162 112 86 164 113 87
166 115 89 168 116 90 170 118 91 171 119 91
173 120 92 174 121 93 175 121 93 175 121 93
176 121 93 176 121 92 176 121 92 175 120 91
175 120 90 174 119 89 174 118 88 173 117 87
173 117 87 173 116 86 172 116 85 172 115 85
172 115 84 171 115 84 171 114 84 171 114 83
171 114 83 171 114 83 171 114 83 171 114 83
171 114 83 171 114 83 171 114 83 171 114 83
171 114 83 170 114 83 170 113 83 170 113 83
170 113 83 169 113 83 169 113 83 169 113 83
168 112 83 168 112 83 167 112 83 167 112 83
166 112 82 166 111 82 165 111 82 164 111 82
164 110 82 163 110 82 162 109 82 161 109 82
160 109 82 160 108 82 159 108 82 158 107 82
157 107 81 155 106 81 154 106 81 153 105 81
152 104 81 151 104 81 149 103 81 148 102 81
147 102 80 145 101 80 143 100 80 142 99 80
140 98 80 138 97 80 136 96 79 134 95 79
132 94 79 130 93 79 127 92 79 125 91 78
122 89 78 119 88 78 116 86 77 112 84 77
108 82 77 104 80 76 100 78 76 96 76 75
94 75 75 109 79 63 107 78 62 94 67 54
87 64 53 45 81 132 45 81 132 81 117 167
81 117 167 81 117 167 81 117 167 81 117 168
81 117 168 81 118 168 81 118 168 81 118 168
81 118 168 82 118 168 82 118 168 82 118 168
82 118 168 46 82 132 46 82 132 46 82 132
46 82 132 46 82 132 46 82 132 46 82 132
46 82 132 46 82 132 82 118 169 82 119 169
82 119 169 82 119 169 127 164 214 127 164 214
127 164 214 127 164 214 128 164 214 128 164 214
128 164 214 128 164 214 128 164 214 128 164 214
128 164 214 128 164 214 128 164 214 128 164 214
128 164 214 127 164 214 127 164 214 127 164 214
19 92 192 19 92 192 19 92 192 19 92 192
19 92 192 19 92 192 19 92 192 19 92 192
19 92 192 19 92 192 19 92 192 19 92 192
19 92 192 19 92 192 19 92 192 19 92 192
65 102 152 65 102 152 65 102 152 65 102 152
65 102 152 65 102 152 65 102 152 65 102 152
122 158 208 122 158 208 122 158 208 122 158 208
122 158 208 122 158 208 122 158 208 122 158 208
122 158 208 122 158 208 122 158 208 66 102 152
66 102 152 66 102 152 66 102 152 36 73 123
36 73 123 36 73 123 36 72 123 36 72 123
36 72 123 36 72 123 36 72 123 36 72 123
36 72 123 36 72 123 36 72 123 36 72 123
36 72 123 36 72 123 36 72 123 36 72 122
36 72 122 36 72 122 36 72 122 36 72 122
7 11 17 89 69 60 87 63 52 129 103 89
88 72 75 90 74 75 102 79 76 115 86 77
127 92 78 137 97 79 145 101 80 153 105 81
157 107 82 161 109 82 163 110 83 162 110 83
161 109 83 218 124 55 207 115 47 202 111 44
202 111 44 205 112 43 207 113 43 209 114 44
211 115 44 213 116 44 216 118 44 218 119 45
220 120 45 221 121 45 223 122 46 224 123 47
226 124 47 178 101 45 180 103 47 183 106 49
187 109 51 191 111 53 191 111 53 195 114 55
191 110 51 179 99 41 133 95 79 135 96 79
137 97 80 139 98 80 141 99 80 142 100 80
144 100 80 146 101 81 147 102 81 149 103 81
150 104 81 152 105 82 153 106 82 155 107 83
157 108 84 159 109 85 161 111 86 162 112 86
164 113 87 166 115 88 168 116 89 169 117 90
170 118 91 171 119 91 172 119 91 173 119 91
173 119 91 174 119 91 174 119 90 173 119 90
173 118 89 173 118 88 172 117 87 172 116 87
172 116 86 171 115 85 171 115 85 171 115 84
171 114 84 171 114 84 171 114 83 170 114 83
170 114 83 170 114 83 170 114 83 170 114 83
170 114 83 170 113 83 170 113 83 170 113 83
170 113 83 170 113 83 169 113 83 169 113 83
169 113 83 169 113 83 168 112 83 168 112 83
167 112 83 167 112 83 166 112 82 166 111 82
165 111 82 165 111 82 164 110 82 163 110 82
163 110 82 162 109 82 161 109 82 160 109 82
160 108 82 159 108 82 158 107 82 157 107 81
156 106 81 155 106 81 154 105 81 152 105 81
151 104 81 150 103 81 149 103 81 147 102 81
146 101 80 144 100 80 142 100 80 141 99 80
139 98 80 137 97 79 135 96 79 133 95 79
131 94 79 129 93 79 126 91 78 123 90 78
121 89 78 118 87 78 115 86 77 111 84 77
107 82 76 103 80 76 98 77 76 94 76 75
110 80 63 108 79 63 105 77 62 92 67 54
84 62 52 45 81 132 45 81 132 45 81 132
45 82 132 81 117 168 81 117 168 81 118 168
81 118 168 81 118 168 81 118 168 82 118 168
82 118 168 82 118 168 46 82 132 46 82 132
46 82 132 46 82 132 46 82 132 46 82 132
46 82 132 46 82 132 46 82 132 46 82 132
46 82 132 46 82 132 46 82 132 82 119 169
83 119 169 128 164 214 128 164 214 128 164 214
128 164 214 128 164 214 128 164 214 128 164 214
128 164 214 128 164 214 128 164 214 128 164 214
128 164 214 128 164 214 128 164 214 128 164 214
128 164 214 128 164 214 128 164 214 69 105 155
69 105 155 69 105 155 19 92 192 19 92 192
19 92 192 19 92 192 19 92 192 19 92 192
19 92 192 19 92 192 19 92 192 19 92 192
19 92 192 19 92 192 19 92 192 19 92 192
65 102 152 65 102 152 66 102 152 66 102 152
66 102 152 122 158 208 122 158 208 122 158 208
122 158 208 122 158 208 122 158 208 122 158 208
122 158 208 122 158 209 122 158 209 122 158 209
122 159 209 122 159 209 122 159 209 122 159 209
66 102 152 66 102 152 66 102 152 36 73 123
36 73 123 36 73 123 36 73 123 36 73 123
36 73 123 36 73 123 36 73 123 36 73 123
36 73 123 36 73 123 36 72 123 36 72 123
36 72 123 36 72 123 63 99 149 63 99 149
63 99 149 63 99 149 36 72 123 36 72 123
36 72 123 83 66 59 82 60 50 122 98 86
85 71 74 88 73 75 91 74 75 91 74 75
117 87 78 128 92 79 138 97 80 146 102 80
153 105 81 159 108 82 161 109 82 163 110 83
163 110 83 165 112 84 224 128 57 222 127 57
213 119 50 214 119 48 214 118 47 214 118 46
217 120 47 220 122 48 222 122 48 225 124 49
227 126 50 230 128 51 232 129 53 233 131 54
235 133 56 235 133 56 186 109 52 188 111 55
190 113 56 196 117 59 195 115 57 195 115 56
186 106 48 130 93 79 132 94 79 134 95 79
136 96 79 138 97 80 140 98 80 141 99 80
143 100 80 145 101 80 146 102 81 148 102 81
149 103 81 151 104 82 153 105 82 154 106 83
156 107 83 157 108 84 159 110 85 161 111 86
162 112 86 164 113 87 166 114 88 167 115 89
168 116 89 169 117 89 170 117 90 171 117 90
171 118 90 171 118 89 171 117 89 171 117 88
171 117 88 171 116 87 171 116 86 171 115 86
170 115 85 170 115 85 170 114 84 170 114 84
170 114 84 170 114 83 170 113 83 170 113 83
170 113 83 170 113 83 170 113 83 169 113 83
169 113 83 169 113 83 169 113 83 169 113 83
169 113 83 169 113 83 169 113 83 168 113 83
168 112 83 168 112 83 167 112 83 167 112 82
167 112 82 166 111 82 166 111 82 165 111 82
165 111 82 164 110 82 163 110 82 163 110 82
162 109 82 161 109 82 160 109 82 160 108 82
159 108 82 158 107 82 157 107 82 156 106 81
155 106 81 154 105 81 153 105 81 151 104 81
150 103 81 149 103 81 148 102 81 146 101 80
145 101 80 143 100 80 141 99 80 140 98 80
138 97 80 136 96 79 134 95 79 132 94 79
130 93 79 127 92 79 125 91 78 122 89 78
119 88 78 116 86 77 113 85 77 110 83 77
105 81 76 101 79 76 96 76 75 93 75 75
109 80 63 107 78 63 124 97 83 90 65 53
80 60 52 45 82 132 45 82 132 45 82 132
45 82 132 45 82 132 45 82 132 81 118 168
82 118 168 82 118 168 82 118 168 82 118 168
46 82 132 46 82 132 46 82 132 46 82 132
46 82 132 46 82 132 46 82 132 46 82 132
46 82 132 46 82 132 46 82 132 46 82 132
46 82 132 46 82 132 46 82 132 46 82 132
46 82 132 128 164 215 128 164 215 128 164 215
128 164 215 128 164 215 128 164 215 128 164 215
128 164 215 128 164 215 128 164 215 128 164 215
128 164 215 128 164 215 128 164 215 128 164 215
128 164 215 69 105 155 69 105 155 69 105 155
69 105 155 69 105 155 69 105 155 69 105 155
19 92 192 19 92 192 19 92 192 19 92 192
19 92 192 19 92 192 19 92 192 19 92 192
19 92 192 19 92 192 19 92 192 19 92 192
66 102 152 122 158 208 122 158 208 122 158 208
122 158 208 122 158 208 122 158 208 122 158 209
122 158 209 122 158 209 122 159 209 122 159 209
122 159 209 122 159 209 123 159 209 123 159 209
123 159 209 123 159 209 123 159 209 123 159 209
66 102 153 66 102 153 66 102 153 37 73 123
36 73 123 36 73 123 36 73 123 36 73 123
36 73 123 36 73 123 36 73 123 36 73 123
36 73 123 36 73 123 63 99 150 63 99 150
63 99 150 63 99 150 63 99 150 63 99 149
63 99 149 63 99 149 63 99 149 36 72 123
36 72 123 36 72 123 106 88 80 94 72 61
125 100 88 85 71 74 88 72 75 90 73 75
107 82 76 119 88 78 130 93 79 139 98 80
148 102 81 154 105 81 158 107 82 160 109 82
163 110 83 165 112 84 168 113 85 168 114 85
231 133 59 231 134 62 236 137 63 232 134 60
229 130 57 234 134 59 238 137 61 240 138 61
240 138 62 244 142 65 248 145 68 252 149 72
255 152 75 249 146 69 191 114 58 192 116 59
192 116 59 193 116 60 195 116 58 189 110 52
180 102 44 129 93 79 131 94 79 133 95 79
135 96 79 137 97 79 139 98 80 140 99 80
142 99 80 144 100 80 145 101 80 147 102 81
148 103 81 150 104 81 152 105 82 153 106 82
155 107 83 156 108 83 158 109 84 159 110 85
161 111 86 162 112 86 164 113 87 165 114 87
166 114 88 167 115 88 168 116 88 169 116 88
169 116 88 169 116 88 169 116 88 170 116 87
170 115 87 169 115 86 169 115 86 169 114 85
169 114 85 169 114 84 169 113 84 169 113 84
169 113 83 169 113 83 169 113 83 169 113 83
169 113 83 169 113 83 169 113 83 169 113 83
169 113 83 168 113 83 168 113 83 168 112 83
168 112 83 168 112 83 168 112 83 167 112 83
167 112 83 167 112 82 166 112 82 166 111 82
166 111 82 165 111 82 165 111 82 164 110 82
164 110 82 163 110 82 162 110 82 162 109 82
161 109 82 160 109 82 160 108 82 159 108 82
158 107 82 157 107 82 156 106 81 155 106 81
154 105 81 153 105 81 152 104 81 150 104 81
149 103 81 148 102 81 146 102 80 145 101 80
144 100 80 142 99 80 140 99 80 139 98 80
137 97 79 135 96 79 133 95 79 131 94 79
129 93 79 126 91 78 123 90 78 121 89 78
118 87 78 115 86 77 112 84 77 108 82 77
103 80 76 99 78 76 134 103 85 131 101 85
108 79 63 126 98 84 123 96 83 87 64 53
45 82 132 45 82 132 45 82 132 45 82 132
45 82 132 45 82 132 46 82 132 46 82 132
46 82 132 46 82 132 46 82 132 46 82 132
46 82 132 46 82 132 46 82 132 46 82 132
46 82 132 46 82 132 46 82 132 46 82 132
46 82 132 46 82 132 46 82 132 46 82 132
46 82 132 46 82 132 46 82 133 46 82 133
69 105 155 69 105 155 69 105 155 128 165 215
128 165 215 128 165 215 128 165 215 128 165 215
128 165 215 128 165 215 128 165 215 128 165 215
128 165 215 128 165 215 128 165 215 69 105 155
69 105 155 69 105 155 69 105 155 69 105 155
69 105 155 69 105 155 69 105 155 69 105 155
69 105 155 69 105 155 19 92 192 19 92 192
19 92 192 19 92 192 19 92 192 19 92 192
19 92 192 19 92 192 19 92 192 19 92 192
122 158 209 122 158 209 122 158 209 122 158 209
122 159 209 122 159 209 122 159 209 122 159 209
123 159 209 123 159 209 123 159 209 123 159 209
123 159 209 123 159 209 123 159 209 123 159 209
123 159 209 123 159 209 123 159 209 123 159 209
123 159 210 66 103 153 66 103 153 66 103 153
37 73 123 37 73 123 37 73 123 37 73 123
37 73 123 37 73 123 37 73 123 64 100 150
63 100 150 63 100 150 63 100 150 63 100 150
63 100 150 63 100 150 63 100 150 63 100 150
63 99 150 63 99 150 63 99 150 63 99 150
36 73 123 36 73 123 76 61 58 87 68 60
118 95 84 128 103 90 117 90 76 87 72 75
89 73 75 109 83 77 121 89 78 131 94 79
141 99 80 148 102 81 153 105 81 156 107 81
160 109 82 164 110 83 167 112 84 168 113 84
171 115 86 176 119 88 235 133 56 245 143 67
250 149 73 250 149 74 255 155 78 255 160 82
255 161 84 255 162 85 255 163 86 255 167 90
255 171 95 255 159 83 193 117 61 193 116 61
191 115 59 189 113 57 189 111 54 182 104 46
175 97 41 128 92 79 130 93 79 132 95 79
134 95 79 136 96 79 138 97 80 139 98 80
141 99 80 143 100 80 144 101 80 146 101 81
147 102 81 149 103 81 150 104 82 152 105 82
153 106 82 155 107 83 156 108 84 158 109 84
159 110 85 161 111 85 162 112 86 163 112 86
164 113 87 165 114 87 166 114 87 167 114 87
167 114 87 167 114 87 168 114 87 168 114 86
168 114 86 168 114 85 168 114 85 168 113 85
168 113 84 168 113 84 168 113 84 168 113 83
168 113 83 168 112 83 168 112 83 168 112 83
168 112 83 168 112 83 168 112 83 168 112 83
168 112 83 168 112 83 167 112 83 167 112 83
167 112 83 167 112 82 167 112 82 167 112 82
166 111 82 166 111 82 166 111 82 165 111 82
165 111 82 164 111 82 164 110 82 163 110 82
163 110 82 162 109 82 162 109 82 161 109 82
160 108 82 159 108 82 159 108 82 158 107 82
157 107 81 156 106 81 155 106 81 154 105 81
153 105 81 152 104 81 151 104 81 149 103 81
148 102 81 147 102 80 145 101 80 144 100 80
142 100 80 141 99 80 139 98 80 138 97 80
136 96 79 134 95 79 132 94 79 129 93 79
127 92 79 125 91 78 122 89 78 119 88 78
116 87 77 113 85 77 110 83 77 106 81 76
101 79 76 137 105 86 132 102 85 130 101 85
127 99 84 124 98 84 99 75 62 96 75 65
45 82 132 45 82 132 45 82 132 46 82 132
46 82 132 46 82 132 46 82 132 82 118 168
82 118 168 82 118 168 82 118 168 46 82 132
46 82 132 46 82 132 46 82 132 46 82 132
46 82 132 46 82 132 46 82 132 46 82 132
46 82 132 46 82 132 46 82 132 46 82 133
46 82 133 46 82 133 46 82 133 69 105 156
69 105 156 69 105 156 69 105 156 69 105 156
69 105 156 129 165 215 129 165 215 129 165 215
129 165 215 129 165 215 129 165 215 129 165 215
69 105 156 69 105 156 69 105 156 69 105 156
69 105 156 69 105 156 69 105 156 69 105 156
69 105 156 69 105 156 69 105 156 69 105 156
69 105 156 69 105 156 69 105 156 69 105 156
19 92 192 19 92 192 19 92 192 19 92 192
19 92 192 19 92 192 19 92 192 19 92 192
122 159 209 122 159 209 123 159 209 123 159 209
123 159 209 123 159 209 123 159 209 123 159 209
123 159 209 123 159 209 123 159 209 123 159 209
123 159 209 123 159 210 123 159 210 123 159 210
123 159 210 123 160 210 123 160 210 123 160 210
123 160 210 124 160 210 67 103 153 67 103 153
37 73 123 37 73 123 37 73 123 64 100 150
64 100 150 64 100 150 64 100 150 64 100 150
64 100 150 64 100 150 64 100 150 64 100 150
64 100 150 64 100 150 64 100 150 63 100 150
63 100 150 63 100 150 63 100 150 63 100 150
63 100 150 36 73 123 36 73 123 100 85 80
89 69 60 120 97 86 108 83 71 119 93 79
86 72 74 98 77 76 111 84 77 122 89 78
132 94 79 172 118 82 146 101 80 152 104 81
156 106 81 161 109 82 163 110 82 166 112 83
167 113 84 173 117 86 179 121 90 181 123 91
186 127 94 190 130 97 193 133 99 202 140 105
206 143 108 209 146 110 255 167 88 255 172 95
255 173 97 255 158 83 255 159 85 189 113 58
186 110 55 184 107 51 181 104 48 175 99 42
169 94 40 127 92 78 129 93 79 131 94 79
133 95 79 135 96 79 137 97 79 138 98 80
140 98 80 142 99 80 143 100 80 145 101 80
146 102 81 148 102 81 149 103 81 151 104 82
152 105 82 153 106 82 155 107 83 156 108 83
158 109 84 159 109 84 160 110 85 161 111 85
163 112 86 163 112 86 164 113 86 165 113 86
165 113 86 166 113 86 166 113 86 166 113 85
166 113 85 166 113 85 166 113 84 167 113 84
167 112 84 167 112 84 167 112 83 167 112 83
167 112 83 167 112 83 167 112 83 167 112 83
167 112 83 167 112 83 167 112 83 167 112 82
167 112 82 167 112 82 167 112 82 166 112 82
166 112 82 166 111 82 166 111 82 166 111 82
165 111 82 165 111 82 165 111 82 164 111 82
164 110 82 163 110 82 163 110 82 162 110 82
162 109 82 161 109 82 161 109 82 160 108 82
159 108 82 158 108 82 158 107 82 157 107 81
156 106 81 155 106 81 154 105 81 153 105 81
152 104 81 151 104 81 149 103 81 148 102 81
147 102 80 146 101 80 144 100 80 143 100 80
141 99 80 140 98 80 138 97 80 136 96 79
134 95 79 132 94 79 130 93 79 128 92 79
126 91 78 123 90 78 121 89 78 118 87 78
114 86 77 111 84 77 108 82 77 124 87 66
119 85 65 136 104 86 131 102 86 108 79 64
126 99 84 122 97 84 97 73 62 88 71 64
45 82 132 46 82 132 46 82 132 46 82 132
82 118 168 82 118 168 82 118 168 82 118 168
82 118 168 82 118 168 82 118 168 82 118 169
46 82 132 46 82 132 46 82 132 46 82 132
46 82 132 46 82 132 46 82 132 46 82 132
46 82 133 46 82 133 46 82 133 46 82 133
46 82 133 46 82 133 46 83 133 69 105 156
69 105 156 69 105 156 69 106 156 69 106 156
69 106 156 69 106 156 69 106 156 129 165 215
129 165 215 129 165 215 69 106 156 69 106 156
69 106 156 69 106 156 69 106 156 69 106 156
69 106 156 69 106 156 69 106 156 69 106 156
69 106 156 69 106 156 69 106 156 69 106 156
69 106 156 69 106 156 69 106 156 69 105 156
69 105 156 69 105 156 19 92 192 19 92 192
19 92 192 19 92 192 19 92 192 19 92 192
123 159 209 123 159 209 123 159 209 123 159 209
123 159 209 123 159 209 123 159 209 123 159 210
123 159 210 123 159 210 123 160 210 123 160 210
123 160 210 123 160 210 124 160 210 124 160 210
124 160 210 124 160 210 124 160 210 124 160 210
124 160 210 124 160 210 124 160 210 67 103 153
64 100 150 64 100 150 64 100 150 64 100 150
64 100 150 64 100 150 64 100 150 64 100 150
64 100 150 64 100 150 64 100 150 64 100 150
64 100 150 64 100 150 64 100 150 64 100 150
64 100 150 64 100 150 64 100 150 64 100 150
64 100 150 63 100 150 36 73 123 36 73 123
82 65 59 80 60 51 122 99 88 110 86 73
143 117 104 153 126 112 100 78 76 112 85 77
193 148 119 172 122 90 171 118 83 145 101 80
150 103 81 156 106 81 158 108 82 161 109 82
164 111 83 167 112 84 173 117 86 175 118 87
177 120 89 182 124 92 188 128 95 195 134 100
198 137 103 200 138 104 202 140 105 204 142 107
206 143 108 255 157 82 241 143 70 182 107 52
178 103 49 175 100 45 173 98 43 170 95 40
162 90 39 125 91 78 128 92 79 130 93 79
132 94 79 134 95 79 136 96 79 137 97 80
139 98 80 141 99 80 142 99 80 144 100 80
145 101 81 146 102 81 148 103 81 149 103 81
151 104 82 152 105 82 153 106 82 155 107 83
156 107 83 157 108 84 158 109 84 160 110 84
161 110 85 161 111 85 162 111 85 163 112 85
164 112 85 164 112 85 164 112 85 165 112 85
165 112 84 165 112 84 165 112 84 165 112 84
165 112 83 165 112 83 165 111 83 166 111 83
166 111 83 166 111 83 166 111 83 166 111 83
166 111 82 166 111 82 166 111 82 166 111 82
166 111 82 166 111 82 166 111 82 166 111 82
165 111 82 165 111 82 165 111 82 165 111 82
164 111 82 164 110 82 164 110 82 163 110 82
163 110 82 162 110 82 162 109 82 161 109 82
161 109 82 160 108 82 159 108 82 159 108 82
158 107 82 157 107 82 156 107 81 156 106 81
155 106 81 154 105 81 153 105 81 152 104 81
151 104 81 149 103 81 148 103 81 147 102 80
146 101 80 144 101 80 143 100 80 141 99 80
140 98 80 138 98 80 137 97 79 135 96 79
133 95 79 131 94 79 129 93 79 126 92 78
124 91 78 122 89 78 119 88 78 116 86 77
112 85 77 151 112 89 148 111 88 122 87 66
117 85 66 133 103 86 108 80 64 106 79 64
124 98 85 120 96 84 99 77 66 51 33 20
46 82 132 82 118 168 82 118 168 82 118 168
82 118 168 82 118 168 82 118 168 82 118 168
82 118 169 82 118 169 82 118 169 82 119 169
82 119 169 82 119 169 46 82 132 46 82 132
46 82 132 46 82 132 46 82 133 46 82 133
46 82 133 46 82 133 46 82 133 46 83 133
46 83 133 46 83 133 69 106 156 69 106 156
69 106 156 69 106 156 69 106 156 69 106 156
69 106 156 69 106 156 69 106 156 129 166 216
129 166 216 69 106 156 69 106 156 69 106 156
69 106 156 69 106 156 69 106 156 69 106 156
69 106 156 69 106 156 69 106 156 69 106 156
69 106 156 69 106 156 69 106 156 69 106 156
69 106 156 69 106 156 69 106 156 69 106 156
69 106 156 69 106 156 69 106 156 69 106 156
19 92 192 19 92 192 19 92 192 19 92 192
66 103 153 123 159 210 123 159 210 123 159 210
123 160 210 123 160 210 123 160 210 123 160 210
124 160 210 124 160 210 124 160 210 124 160 210
124 160 210 124 160 210 124 160 210 124 160 210
124 160 210 124 160 210 124 160 210 124 160 210
67 103 153 67 103 153 67 103 153 67 103 153
124 161 211 64 100 151 64 100 151 64 100 151
64 100 151 64 100 151 64 100 151 64 100 150
64 100 150 64 100 150 64 100 150 64 100 150
64 100 150 64 100 150 64 100 150 64 100 150
64 100 150 64 100 150 64 100 150 64 100 150
64 100 150 64 100 150 64 100 150 37 73 123
59 48 47 83 66 59 82 61 52 102 79 68
112 88 76 145 120 107 154 128 114 152 118 98
186 147 122 192 148 120 171 123 91 195 143 108
143 100 80 149 103 81 153 105 81 155 106 81
159 108 82 163 110 82 166 112 83 168 113 84
170 114 84 172 116 85 176 119 87 181 123 90
184 125 92 184 124 92 184 125 92 185 126 93
187 127 93 229 125 43 221 126 54 173 100 46
170 97 43 168 95 41 167 94 40 164 92 39
122 89 78 124 90 78 126 92 78 128 93 79
131 94 79 132 95 79 134 95 79 136 96 79
138 97 80 139 98 80 141 99 80 142 100 80
144 100 80 145 101 81 147 102 81 148 103 81
149 103 81 151 104 82 152 105 82 153 106 82
154 106 83 156 107 83 157 108 83 158 108 84
159 109 84 160 109 84 160 110 84 161 110 84
162 110 84 162 111 84 163 111 84 163 111 84
163 111 84 163 111 84 164 111 83 164 111 83
164 111 83 164 111 83 164 111 83 164 111 83
164 111 83 165 111 82 165 111 82 165 111 82
165 111 82 165 111 82 165 111 82 165 111 82
165 111 82 165 111 82 165 111 82 164 111 82
164 111 82 164 110 82 164 110 82 164 110 82
163 110 82 163 110 82 163 110 82 162 109 82
162 109 82 161 109 82 161 109 82 160 108 82
160 108 82 159 108 82 158 108 82 158 107 82
157 107 81 156 106 81 155 106 81 154 106 81
153 105 81 153 105 81 152 104 81 151 104 81
149 103 81 148 103 81 147 102 81 146 101 80
144 101 80 143 100 80 142 99 80 140 98 80
138 98 80 137 97 79 135 96 79 133 95 79
131 94 79 129 93 79 127 92 78 125 91 78
122 90 78 120 88 78 117 87 77 114 85 77
153 114 90 150 112 89 124 88 67 120 86 67
115 84 66 109 81 65 107 79 65 126 99 86
122 97 85 96 73 62 92 73 65 82 118 168
82 118 168 82 118 168 82 118 168 82 118 168
82 118 168 82 118 168 82 118 169 82 118 169
82 118 169 82 119 169 82 119 169 82 119 169
83 119 169 83 119 169 83 119 169 83 119 169
46 82 133 46 82 133 46 82 133 46 82 133
46 82 133 46 83 133 46 83 133 46 83 133
46 83 133 70 106 156 70 106 156 70 106 156
70 106 156 70 106 156 70 106 156 70 106 156
70 106 156 130 166 216 130 166 216 130 166 216
130 166 216 130 166 216 130 166 216 70 106 156
70 106 156 70 106 156 70 106 156 70 106 156
70 106 156 70 106 156 70 106 156 70 106 156
70 106 156 70 106 156 70 106 156 70 106 156
70 106 156 70 106 156 70 106 156 70 106 156
70 106 156 70 106 156 70 106 156 70 106 156
70 106 156 70 106 156 19 92 192 19 92 192
66 103 153 123 160 210 124 160 210 124 160 210
124 160 210 124 160 210 124 160 210 124 160 210
124 160 210 124 160 210 124 160 210 124 160 210
124 160 210 124 160 210 124 160 211 124 160 211
67 103 153 67 103 153 67 103 153 67 103 153
67 103 153 67 103 153 67 103 153 67 103 153
125 161 211 64 101 151 64 101 151 64 101 151
64 101 151 64 101 151 64 101 151 64 100 151
64 100 151 64 100 151 64 100 151 64 100 151
64 100 151 64 100 150 64 100 150 64 100 150
64 100 150 64 100 150 64 100 150 64 100 150
64 100 150 64 100 150 64 100 150 64 100 150
37 73 123 60 49 47 74 56 50 94 73 64
103 81 70 113 89 78 145 120 108 153 128 115
151 118 99 162 123 100 191 148 121 170 123 92
171 119 85 196 141 105 145 101 80 149 103 81
152 104 81 157 107 81 160 109 82 162 109 82
164 110 82 165 111 83 167 112 83 170 114 84
172 116 85 172 116 85 172 116 85 172 116 85
173 116 85 174 116 85 210 116 46 131 76 38
164 93 40 162 91 39 161 90 39 158 89 38
120 89 78 123 90 78 125 91 78 127 92 78
129 93 79 131 94 79 133 95 79 135 96 79
136 97 79 138 97 80 140 98 80 141 99 80
143 100 80 144 101 80 145 101 81 147 102 81
148 103 81 149 103 81 151 104 82 152 105 82
153 105 82 154 106 82 155 107 83 156 107 83
157 108 83 158 108 83 159 109 83 159 109 83
160 109 83 160 110 83 161 110 83 161 110 83
162 110 83 162 110 83 162 110 83 162 110 83
163 110 83 163 110 83 163 110 82 163 110 82
163 110 82 163 110 82 164 110 82 164 110 82
164 110 82 164 110 82 164 110 82 164 110 82
164 110 82 164 110 82 163 110 82 163 110 82
163 110 82 163 110 82 163 110 82 162 110 82
162 109 82 162 109 82 161 109 82 161 109 82
161 109 82 160 108 82 160 108 82 159 108 82
158 108 82 158 107 82 157 107 82 156 107 81
156 106 81 155 106 81 154 105 81 153 105 81
152 105 81 151 104 81 150 104 81 149 103 81
148 102 81 147 102 80 146 101 80 144 101 80
143 100 80 142 99 80 140 98 80 139 98 80
137 97 79 135 96 79 134 95 79 132 94 79
130 93 79 127 92 79 125 91 78 123 90 78
120 89 78 118 87 78 115 86 77 155 115 91
152 114 90 126 90 68 144 110 89 140 107 89
113 83 66 107 80 65 105 79 65 124 99 86
98 75 63 92 71 62 78 66 63 82 118 168
82 118 168 82 118 168 82 118 168 82 118 168
82 118 169 82 118 169 82 118 169 82 119 169
82 119 169 82 119 169 83 119 169 83 119 169
83 119 169 83 119 169 83 119 169 83 119 169
83 119 169 83 119 169 46 83 133 46 83 133
46 83 133 46 83 133 46 83 133 46 83 133
70 106 156 70 106 156 70 106 156 70 106 156
70 106 156 70 106 156 130 166 216 130 166 216
130 166 216 130 166 216 130 166 216 130 166 216
130 166 216 130 166 216 130 166 216 130 166 216
130 166 216 70 106 156 70 106 156 70 106 156
70 106 156 70 106 156 70 106 156 70 106 156
70 106 156 70 106 156 70 106 156 70 106 156
70 106 156 70 106 156 70 106 156 70 106 156
70 106 156 70 106 156 70 106 156 70 106 156
70 106 156 70 106 156 70 106 156 70 106 156
67 103 153 67 103 153 124 160 210 124 160 210
124 160 210 124 160 210 124 160 210 124 160 211
124 160 211 124 160 211 124 160 211 124 161 211
124 161 211 67 103 153 67 103 153 67 103 153
67 103 153 67 103 153 67 103 153 67 103 153
67 103 154 67 103 154 67 103 154 67 103 154
67 103 154 125 161 211 65 101 151 65 101 151
65 101 151 64 101 151 64 101 151 64 101 151
64 101 151 64 101 151 64 101 151 64 101 151
64 101 151 64 100 151 64 100 151 64 100 151
64 100 151 64 100 151 64 100 151 64 100 150
64 100 150 64 100 150 64 100 150 37 73 123
64 100 150 64 100 150 60 49 47 72 55 50
92 73 64 101 80 71 112 89 78 143 120 109
152 128 116 150 118 99 161 123 101 190 148 122
193 147 117 194 145 112 171 119 85 172 117 81
145 101 80 149 103 81 153 105 81 154 106 81
156 106 81 158 108 82 161 109 82 163 110 82
164 110 82 164 111 82 164 111 82 164 111 82
164 111 82 164 111 82 199 103 28 98 59 32
160 90 39 158 89 38 155 87 38 147 83 37
118 88 78 121 89 78 123 90 78 126 91 78
128 92 79 130 93 79 131 94 79 133 95 79
135 96 79 137 97 79 138 97 80 140 98 80
141 99 80 143 100 80 144 100 80 145 101 81
147 102 81 148 103 81 149 103 81 150 104 81
152 105 82 153 105 82 154 106 82 155 106 82
155 107 83 156 107 83 157 108 83 158 108 83
158 108 83 159 108 83 159 109 83 160 109 83
160 109 83 161 109 83 161 109 83 161 109 82
161 109 82 162 109 82 162 109 82 162 109 82
162 109 82 162 110 82 162 110 82 162 110 82
163 110 82 163 110 82 163 110 82 163 110 82
163 110 82 162 110 82 162 110 82 162 109 82
162 109 82 162 109 82 162 109 82 161 109 82
161 109 82 161 109 82 160 109 82 160 108 82
159 108 82 159 108 82 158 108 82 158 107 82
157 107 82 157 107 81 156 106 81 155 106 81
155 106 81 154 105 81 153 105 81 152 104 81
151 104 81 150 103 81 149 103 81 148 102 81
147 102 80 145 101 80 144 100 80 143 100 80
141 99 80 140 98 80 139 98 80 137 97 79
135 96 79 134 95 79 132 94 79 130 93 79
128 92 79 125 91 78 123 90 78 121 89 78
118 88 78 116 86 77 157 117 92 132 93 69
128 91 69 146 111 90 142 109 90 138 107 89
110 82 66 106 79 66 125 99 86 100 76 64
96 73 63 88 71 65 82 118 168 82 118 168
82 118 168 82 118 168 82 118 169 82 118 169
82 119 169 82 119 169 82 119 169 82 119 169
83 119 169 83 119 169 83 119 169 83 119 169
83 119 169 83 119 169 83 119 169 83 119 169
83 119 169 83 119 170 83 119 170 46 83 133
46 83 133 46 83 133 46 83 133 47 83 133
70 106 156 70 106 156 70 106 156 70 106 156
130 166 217 130 166 217 130 166 217 130 166 217
130 166 217 130 166 217 130 166 217 130 166 217
130 166 217 130 166 217 130 166 217 130 166 217
130 166 217 130 166 217 130 166 217 70 106 156
70 106 156 70 106 156 70 106 156 70 106 156
70 106 156 70 106 156 70 106 156 70 106 156
70 106 156 70 106 156 70 106 156 70 106 156
70 106 156 70 106 156 70 106 156 70 106 156
70 106 156 70 106 156 130 166 217 130 166 217
67 103 153 67 103 153 124 160 211 124 160 211
124 161 211 124 161 211 124 161 211 124 161 211
124 161 211 67 103 153 67 103 153 67 103 153
67 103 153 67 103 154 67 103 154 67 103 154
67 103 154 67 103 154 67 103 154 67 103 154
67 103 154 67 104 154 67 104 154 67 104 154
67 104 154 67 104 154 125 162 212 65 101 151
65 101 151 65 101 151 65 101 151 65 101 151
65 101 151 65 101 151 65 101 151 65 101 151
64 101 151 64 101 151 64 101 151 64 101 151
64 101 151 64 101 151 64 101 151 64 100 151
37 73 123 37 73 123 37 73 123 37 73 123
37 73 123 64 100 150 64 100 150 60 49 48
70 54 49 111 93 86 121 101 93 132 111 101
142 120 109 156 130 117 148 117 100 159 123 101
165 125 100 168 124 97 192 146 116 193 144 112
195 143 108 172 117 81 144 100 80 146 101 80
148 102 81 150 103 81 152 105 81 155 106 81
156 106 81 156 106 81 156 106 81 156 106 81
156 107 81 156 107 81 157 107 81 95 57 32
156 88 38 153 86 38 149 84 37 114 85 77
117 87 77 119 88 78 122 89 78 124 90 78
126 91 78 128 92 79 130 93 79 132 94 79
133 95 79 135 96 79 137 97 79 138 98 80
140 98 80 141 99 80 142 100 80 144 100 80
145 101 81 146 102 81 148 102 81 149 103 81
150 104 81 151 104 82 152 105 82 153 105 82
154 106 82 155 106 82 156 107 82 156 107 82
157 107 82 157 108 82 158 108 82 158 108 82
159 108 82 159 108 82 159 108 82 160 108 82
160 109 82 160 109 82 160 109 82 161 109 82
161 109 82 161 109 82 161 109 82 161 109 82
161 109 82 161 109 82 161 109 82 161 109 82
161 109 82 161 109 82 161 109 82 161 109 82
161 109 82 161 109 82 160 109 82 160 108 82
160 108 82 159 108 82 159 108 82 159 108 82
158 107 82 158 107 82 157 107 82 157 107 81
156 106 81 155 106 81 155 106 81 154 105 81
153 105 81 152 105 81 151 104 81 150 104 81
149 103 81 148 103 81 147 102 81 146 102 80
145 101 80 144 100 80 143 100 80 141 99 80
140 98 80 138 98 80 137 97 79 135 96 79
134 95 79 132 94 79 130 93 79 128 92 79
126 91 78 123 90 78 121 89 78 119 88 78
116 86 77 114 85 77 134 94 70 130 93 70
148 113 92 144 111 91 140 108 90 113 84 68
128 102 88 125 100 87 101 77 65 98 75 64
79 61 54 78 66 64 82 118 168 82 118 169
82 118 169 82 118 169 82 119 169 82 119 169
82 119 169 82 119 169 83 119 169 83 119 169
83 119 169 83 119 169 83 119 169 83 119 169
83 119 169 83 119 169 83 119 169 83 119 170
83 119 170 83 119 170 83 120 170 83 120 170
83 120 170 47 83 133 47 83 133 70 106 156
70 106 156 70 106 156 131 167 217 131 167 217
131 167 217 131 167 217 131 167 217 131 167 217
131 167 217 131 167 217 131 167 217 131 167 217
131 167 217 131 167 217 131 167 217 131 167 217
131 167 217 131 167 217 131 167 217 131 167 217
131 167 217 70 106 156 70 106 156 70 106 156
70 106 156 70 106 156 70 106 156 70 106 156
70 106 156 70 106 156 70 106 156 70 106 156
70 106 156 70 106 156 70 106 156 70 106 156
131 167 217 131 167 217 131 167 217 131 167 217
67 103 153 67 103 153 67 103 153 125 161 211
125 161 211 125 161 211 67 103 153 67 103 154
67 103 154 67 103 154 67 103 154 67 103 154
67 103 154 67 103 154 67 104 154 67 104 154
67 104 154 67 104 154 67 104 154 67 104 154
67 104 154 67 104 154 67 104 154 67 104 154
68 104 154 68 104 154 68 104 154 126 162 212
65 101 151 65 101 151 65 101 151 65 101 151
65 101 151 65 101 151 65 101 151 65 101 151
65 101 151 65 101 151 65 101 151 65 101 151
65 101 151 37 73 123 37 73 123 37 73 123
37 73 123 37 73 123 37 73 123 37 73 123
37 73 123 37 73 123 64 100 151 64 100 151
69 58 57 68 54 49 109 92 86 119 101 93
108 88 79 117 97 88 132 107 95 168 139 122
177 144 124 161 124 101 165 124 99 167 124 96
169 122 93 170 121 88 194 143 110 195 143 108
196 142 107 196 142 105 143 100 80 146 101 80
147 102 80 147 102 80 147 102 80 146 102 80
147 102 80 147 102 80 147 102 80 91 55 32
151 85 38 148 84 37 141 80 37 112 84 77
115 86 77 117 87 77 120 88 78 122 89 78
124 90 78 126 91 78 128 92 79 130 93 79
132 94 79 134 95 79 135 96 79 137 97 79
138 98 80 140 98 80 141 99 80 142 100 80
144 100 80 145 101 80 146 101 81 147 102 81
148 103 81 149 103 81 150 104 81 151 104 81
152 105 82 153 105 82 154 106 82 155 106 82
155 106 82 156 107 82 156 107 82 157 107 82
157 107 82 158 107 82 158 108 82 158 108 82
159 108 82 159 108 82 159 108 82 159 108 82
160 108 82 160 108 82 160 108 82 160 108 82
160 108 82 160 108 82 160 108 82 160 108 82
160 108 82 160 108 82 160 108 82 160 108 82
160 108 82 159 108 82 159 108 82 159 108 82
159 108 82 158 107 82 158 107 82 157 107 82
157 107 81 156 107 81 156 106 81 155 106 81
155 106 81 154 105 81 153 105 81 152 105 81
152 104 81 151 104 81 150 103 81 149 103 81
148 102 81 147 102 80 146 101 80 145 101 80
144 100 80 142 100 80 141 99 80 140 98 80
138 98 80 137 97 79 135 96 79 133 95 79
132 94 79 130 93 79 128 92 79 126 91 78
124 90 78 121 89 78 119 88 78 117 87 77
114 85 77 135 96 71 132 94 71 150 114 93
124 90 70 120 88 70 116 86 69 129 103 89
126 101 89 123 99 88 98 76 65 91 72 63
82 69 65 46 82 132 46 82 132 82 118 169
82 119 169 82 119 169 82 119 169 83 119 169
83 119 169 83 119 169 83 119 169 83 119 169
83 119 169 83 119 169 83 119 169 83 119 169
83 119 169 83 119 170 83 119 170 83 120 170
83 120 170 83 120 170 83 120 170 84 120 170
84 120 170 84 120 170 131 167 217 131 167 217
131 167 217 131 167 217 131 167 217 131 167 217
131 167 217 131 167 217 131 167 217 131 167 217
131 167 217 131 167 217 131 167 217 131 167 217
131 167 217 131 167 217 131 167 217 131 167 217
131 167 217 131 167 217 131 167 217 131 167 217
131 167 217 131 167 217 131 167 217 70 106 157
70 106 157 70 106 157 70 106 157 70 106 157
70 106 157 70 106 157 70 106 157 70 106 157
70 106 157 70 106 157 131 167 217 131 167 217
131 167 217 131 167 217 131 167 217 131 167 217
67 103 153 67 103 154 125 161 211 125 161 211
67 103 154 67 103 154 67 103 154 67 103 154
67 104 154 67 104 154 67 104 154 67 104 154
67 104 154 67 104 154 67 104 154 67 104 154
67 104 154 68 104 154 68 104 154 68 104 154
68 104 154 68 104 154 68 104 154 68 104 154
68 104 154 68 104 154 68 104 154 126 162 212
65 101 151 65 101 151 65 101 151 65 101 151
65 101 151 65 101 151 65 101 151 65 101 151
65 101 151 37 73 124 37 73 124 37 73 124
37 73 123 37 73 123 37 73 123 37 73 123
37 73 123 37 73 123 37 73 123 37 73 123
37 73 123 37 73 123 37 73 123 64 101 151
64 101 151 66 57 57 66 53 49 107 91 86
117 100 93 105 87 80 114 95 87 121 101 93
160 134 121 170 140 124 178 144 125 161 124 101
164 124 99 190 146 119 168 123 94 168 122 92
169 121 90 193 144 112 171 120 87 171 119 85
171 119 85 171 119 85 171 119 85 195 142 108
195 142 108 194 142 108 194 142 108 107 68 40
146 83 37 140 80 37 110 83 77 111 84 77
113 85 77 115 86 77 118 87 78 120 88 78
122 89 78 124 90 78 126 91 78 128 92 79
130 93 79 132 94 79 134 95 79 135 96 79
137 97 79 138 97 80 139 98 80 141 99 80
142 99 80 143 100 80 144 101 80 146 101 81
147 102 81 148 102 81 149 103 81 150 103 81
150 104 81 151 104 81 152 105 81 153 105 82
153 105 82 154 106 82 155 106 82 155 106 82
156 106 82 156 107 82 156 107 82 157 107 82
157 107 82 157 107 82 158 107 82 158 107 82
158 108 82 158 108 82 159 108 82 159 108 82
159 108 82 159 108 82 159 108 82 159 108 82
159 108 82 159 108 82 159 108 82 158 108 82
158 107 82 158 107 82 158 107 82 157 107 82
157 107 81 157 107 81 156 107 81 156 106 81
155 106 81 155 106 81 154 106 81 154 105 81
153 105 81 152 105 81 152 104 81 151 104 81
150 103 81 149 103 81 148 103 81 147 102 81
146 102 80 145 101 80 144 101 80 143 100 80
142 99 80 141 99 80 139 98 80 138 97 80
136 97 79 135 96 79 133 95 79 131 94 79
130 93 79 128 92 79 126 91 78 124 90 78
121 89 78 119 88 78 117 87 77 114 85 77
159 119 95 156 118 95 152 116 94 126 92 71
122 89 71 118 87 70 134 106 91 127 102 90
124 100 89 121 98 88 92 73 64 86 71 66
53 47 50 46 82 132 46 82 132 46 82 132
46 82 132 83 119 169 83 119 169 83 119 169
83 119 169 83 119 169 83 119 169 83 119 169
83 119 169 83 119 169 83 119 170 83 119 170
83 119 170 83 120 170 83 120 170 83 120 170
83 120 170 84 120 170 84 120 170 84 120 170
84 120 170 70 107 157 70 107 157 70 107 157
70 107 157 131 167 218 131 167 218 131 167 218
131 167 218 131 167 218 131 167 218 131 167 218
131 167 218 131 167 218 131 167 218 131 167 218
131 167 218 131 167 218 131 167 218 131 167 218
131 167 218 131 167 218 131 167 218 131 167 218
131 167 218 131 167 218 131 167 218 131 167 218
70 107 157 70 107 157 70 107 157 70 107 157
70 107 157 70 107 157 70 107 157 70 107 157
131 167 218 131 167 218 131 167 218 131 167 218
131 167 218 131 167 218 131 167 218 131 167 218
125 161 211 125 161 211 125 161 212 125 161 212
67 104 154 67 104 154 67 104 154 67 104 154
67 104 154 67 104 154 67 104 154 68 104 154
68 104 154 68 104 154 68 104 154 68 104 154
68 104 154 68 104 154 68 104 154 68 104 154
68 104 154 68 104 154 68 104 154 68 104 154
68 104 154 68 104 154 68 104 154 68 104 154
126 163 213 65 101 152 65 101 152 65 101 152
65 101 152 65 101 152 37 74 124 37 73 124
37 73 124 37 73 124 37 73 124 37 73 124
37 73 124 37 73 124 37 73 124 37 73 124
37 73 124 37 73 124 37 73 123 37 73 123
37 73 123 37 73 123 37 73 123 37 73 123
64 101 151 64 101 151 60 54 56 63 51 49
103 89 86 112 97 92 98 82 77 106 89 84
113 96 90 128 106 96 161 135 122 171 141 125
178 145 125 182 146 124 184 146 123 186 146 122
187 146 120 188 146 119 167 122 94 191 145 116
191 145 115 191 145 115 191 144 115 191 144 114
191 144 114 190 144 114 190 144 114 176 104 50
139 79 36 132 76 36 109 83 77 110 83 77
110 84 77 111 84 77 116 86 77 118 87 78
120 88 78 122 89 78 124 90 78 126 91 78
128 92 79 130 93 79 132 94 79 133 95 79
135 96 79 136 97 79 138 97 80 139 98 80
140 99 80 142 99 80 143 100 80 144 100 80
145 101 80 146 101 81 147 102 81 148 102 81
149 103 81 150 103 81 150 104 81 151 104 81
152 104 81 152 105 81 153 105 81 154 105 81
154 105 81 154 106 81 155 106 81 155 106 81
156 106 81 156 106 81 156 107 81 156 107 81
157 107 81 157 107 82 157 107 82 157 107 82
157 107 82 157 107 82 157 107 82 157 107 82
157 107 82 157 107 82 157 107 81 157 107 81
157 107 81 156 107 81 156 106 81 156 106 81
156 106 81 155 106 81 155 106 81 154 106 81
154 105 81 153 105 81 153 105 81 152 104 81
151 104 81 151 104 81 150 103 81 149 103 81
149 103 81 148 102 81 147 102 80 146 101 80
145 101 80 144 100 80 143 100 80 141 99 80
140 98 80 139 98 80 137 97 80 136 96 79
134 96 79 133 95 79 131 94 79 129 93 79
128 92 79 126 91 78 124 90 78 121 89 78
119 88 78 116 87 77 163 122 96 160 121 96
157 119 96 154 117 95 128 93 73 124 91 72
119 88 71 136 108 92 131 105 91 125 101 90
121 99 89 114 95 87 106 90 85 59 50 51
46 82 132 46 82 132 46 82 132 46 82 132
46 82 133 46 82 133 46 82 133 83 119 169
83 119 169 83 119 169 83 119 169 83 119 169
83 119 170 83 119 170 83 119 170 83 120 170
83 120 170 83 120 170 84 120 170 84 120 170
84 120 170 84 120 170 47 83 133 47 83 133
71 107 157 71 107 157 71 107 157 71 107 157
71 107 157 71 107 157 71 107 157 131 168 218
131 168 218 131 168 218 131 168 218 131 168 218
131 168 218 131 168 218 131 168 218 131 168 218
131 168 218 131 168 218 131 168 218 131 168 218
131 168 218 131 168 218 131 168 218 131 168 218
131 168 218 131 168 218 131 168 218 131 168 218
131 168 218 131 168 218 71 107 157 71 107 157
71 107 157 131 168 218 131 168 218 131 168 218
131 168 218 131 168 218 131 168 218 131 168 218
131 168 218 131 168 218 131 168 218 131 168 218
125 162 212 125 162 212 125 162 212 125 162 212
126 162 212 68 104 154 68 104 154 68 104 154
68 104 154 68 104 154 68 104 154 68 104 154
68 104 154 68 104 154 68 104 154 68 104 154
68 104 154 68 104 154 68 104 154 68 104 154
68 104 154 68 104 154 68 104 154 68 104 154
68 104 154 68 104 154 68 104 154 68 104 154
68 104 154 127 163 213 65 102 152 37 74 124
37 74 124 37 74 124 37 74 124 37 74 124
37 74 124 37 74 124 37 74 124 37 74 124
37 73 124 37 73 124 37 73 124 37 73 124
37 73 124 37 73 124 37 73 124 37 73 124
37 73 124 37 73 124 37 73 124 37 73 123
37 73 123 65 101 151 65 101 151 65 101 151
63 56 57 72 61 60 103 90 88 112 98 95
97 83 80 105 91 86 117 100 93 152 130 120
163 137 123 145 117 102 149 119 102 153 121 102
178 144 124 180 145 124 182 145 123 184 145 121
184 145 121 161 122 98 161 122 98 161 122 97
161 121 97 161 121 97 161 121 97 94 61 37
147 86 41 107 82 76 108 82 77 109 83 77
109 83 77 110 83 77 111 84 77 111 84 77
118 87 78 120 88 78 122 89 78 124 90 78
126 91 78 128 92 79 130 93 79 131 94 79
133 95 79 134 96 79 136 96 79 137 97 80
138 98 80 140 98 80 141 99 80 142 100 80
143 100 80 144 101 80 145 101 80 146 102 81
147 102 81 148 102 81 149 103 81 149 103 81
150 104 81 151 104 81 151 104 81 152 104 81
152 105 81 153 105 81 153 105 81 154 105 81
154 105 81 154 106 81 155 106 81 155 106 81
155 106 81 155 106 81 155 106 81 156 106 81
156 106 81 156 106 81 156 106 81 156 106 81
156 106 81 156 106 81 155 106 81 155 106 81
155 106 81 155 106 81 155 106 81 154 106 81
154 105 81 154 105 81 153 105 81 153 105 81
152 105 81 152 104 81 151 104 81 151 104 81
150 103 81 149 103 81 148 103 81 148 102 81
147 102 80 146 101 80 145 101 80 144 100 80
143 100 80 142 99 80 141 99 80 139 98 80
138 97 80 137 97 79 135 96 79 134 95 79
132 94 79 131 94 79 129 93 79 127 92 79
125 91 78 123 90 78 121 89 78 119 88 78
116 86 77 164 123 98 161 122 97 159 120 97
156 119 97 130 95 74 126 92 73 121 90 73
116 87 72 133 106 93 127 103 91 100 78 68
114 96 88 106 91 86 79 67 66 46 82 132
46 82 132 46 82 132 46 82 133 46 82 133
46 82 133 46 82 133 46 82 133 46 83 133
83 119 169 83 119 169 83 119 170 83 119 170
83 120 170 83 120 170 83 120 170 83 120 170
84 120 170 84 120 170 84 120 170 84 120 170
47 83 133 47 83 133 47 83 133 71 107 157
71 107 157 71 107 157 71 107 157 71 107 157
71 107 157 71 107 157 71 107 157 71 107 157
132 168 218 132 168 218 132 168 218 132 168 218
132 168 218 132 168 218 132 168 218 132 168 218
132 168 218 132 168 218 132 168 218 132 168 218
132 168 218 132 168 218 132 168 218 132 168 218
132 168 218 132 168 218 132 168 218 132 168 218
132 168 218 132 168 218 132 168 218 71 107 157
132 168 218 132 168 218 132 168 218 132 168 218
132 168 218 132 168 218 132 168 218 132 168 218
132 168 218 132 168 218 132 168 218 132 168 218
126 162 212 126 162 212 126 162 212 126 162 212
126 162 212 126 162 212 68 104 154 68 104 154
68 104 154 68 104 154 68 104 154 68 104 154
68 104 154 68 104 154 68 104 154 68 104 154
68 104 154 68 104 154 68 104 154 68 104 154
68 104 154 68 104 154 68 104 154 68 104 155
68 104 155 68 104 155 68 104 155 127 163 213
127 163 213 127 163 213 68 104 155 37 74 124
37 74 124 37 74 124 37 74 124 37 74 124
37 74 124 37 74 124 37 74 124 37 74 124
37 74 124 37 74 124 37 74 124 37 74 124
37 74 124 37 73 124 37 73 124 37 73 124
37 73 124 37 73 124 37 73 124 37 73 124
37 73 124 37 73 124 65 101 151 65 101 151
65 101 151 52 50 56 53 46 48 71 63 63
103 92 91 88 77 75 96 84 82 103 91 89
138 121 116 123 104 96 129 108 98 135 111 100
140 114 101 145 117 102 148 118 102 150 119 102
150 119 101 150 119 101 173 141 123 172 141 123
172 141 123 172 140 122 172 140 122 98 68 46
137 84 43 129 92 69 107 82 76 107 82 77
108 82 77 109 83 77 110 83 77 110 83 77
115 86 77 118 87 78 120 88 78 122 89 78
124 90 78 126 91 78 128 92 79 129 93 79
131 94 79 132 95 79 134 95 79 135 96 79
136 97 79 138 97 80 139 98 80 140 99 80
141 99 80 142 100 80 143 100 80 144 101 80
145 101 80 146 102 81 147 102 81 148 102 81
149 103 81 149 103 81 150 103 81 150 104 81
151 104 81 151 104 81 152 104 81 152 104 81
152 105 81 153 105 81 153 105 81 153 105 81
154 105 81 154 105 81 154 105 81 154 105 81
154 105 81 154 105 81 154 105 81 154 105 81
154 105 81 154 105 81 154 105 81 154 105 81
154 105 81 153 105 81 153 105 81 153 105 81
152 105 81 152 104 81 152 104 81 151 104 81
151 104 81 150 103 81 149 103 81 149 103 81
148 102 81 147 102 81 147 102 80 146 101 80
145 101 80 144 100 80 143 100 80 142 99 80
141 99 80 140 98 80 138 98 80 137 97 80
136 96 79 135 96 79 133 95 79 132 94 79
130 93 79 128 93 79 127 92 78 125 91 78
123 90 78 121 89 78 118 88 78 116 86 77
142 102 76 140 100 76 137 99 76 134 98 76
153 118 98 150 116 97 145 114 96 140 111 95
112 86 72 107 83 71 99 79 69 93 75 68
106 91 87 78 67 66 0 0 0 46 82 133
46 82 133 46 82 133 46 82 133 46 82 133
46 83 133 46 83 133 46 83 133 46 83 133
46 83 133 46 83 133 83 120 170 83 120 170
83 120 170 83 120 170 84 120 170 84 120 170
84 120 170 47 83 133 47 83 133 47 83 133
47 83 133 47 83 133 71 107 157 71 107 157
71 107 157 71 107 157 71 107 157 71 107 157
71 107 157 71 107 157 71 107 157 71 107 157
71 107 157 71 107 157 132 168 218 132 168 218
132 168 218 132 168 218 132 168 218 132 168 218
132 168 218 132 168 218 132 168 218 132 168 218
132 168 218 132 168 218 132 168 218 132 168 218
132 168 218 132 168 218 132 168 218 132 168 218
132 168 218 71 107 157 71 107 157 71 107 157
71 107 157 71 107 157 132 168 218 132 168 218
132 168 218 132 168 218 132 168 218 132 168 218
132 168 218 132 168 218 132 168 218 132 168 218
126 162 212 126 162 212 126 162 212 126 162 212
126 162 213 126 162 213 68 104 154 68 104 154
68 104 154 68 104 154 68 104 154 68 104 154
68 104 154 68 104 154 68 104 154 68 104 154
68 104 154 68 104 155 68 104 155 68 104 155
68 104 155 68 104 155 68 104 155 68 104 155
127 163 213 127 163 214 127 163 214 127 163 214
127 163 214 127 164 214 127 164 214 68 105 155
38 74 124 38 74 124 38 74 124 38 74 124
38 74 124 37 74 124 37 74 124 37 74 124
37 74 124 37 74 124 37 74 124 37 74 124
37 74 124 37 74 124 37 74 124 37 74 124
37 74 124 37 74 124 37 73 124 37 73 124
37 73 124 37 73 124 37 73 124 65 101 151
65 101 151 65 101 151 26 21 20 45 42 46
51 45 48 71 64 65 101 92 93 106 97 98
115 96 83 115 106 107 124 113 111 131 118 114
116 100 95 123 104 97 129 108 99 131 109 99
131 109 99 132 110 99 132 110 99 155 132 121
155 132 121 156 132 121 156 132 121 92 65 46
126 90 69 128 91 70 129 93 71 131 94 71
107 82 76 108 82 77 108 83 77 109 83 77
113 85 77 115 86 77 117 87 78 119 88 78
121 89 78 123 90 78 125 91 78 127 92 79
129 93 79 130 93 79 132 94 79 133 95 79
134 96 79 136 96 79 137 97 80 138 97 80
139 98 80 140 99 80 141 99 80 142 100 80
143 100 80 144 100 80 145 101 80 146 101 80
147 102 81 147 102 81 148 102 81 148 103 81
149 103 81 149 103 81 150 103 81 150 104 81
151 104 81 151 104 81 151 104 81 152 104 81
152 104 81 152 104 81 152 105 81 152 105 81
153 105 81 153 105 81 153 105 81 153 105 81
153 105 81 152 105 81 152 105 81 152 104 81
152 104 81 152 104 81 151 104 81 151 104 81
151 104 81 150 103 81 150 103 81 149 103 81
149 103 81 148 102 81 147 102 81 147 102 80
146 101 80 145 101 80 145 101 80 144 100 80
143 100 80 142 99 80 141 99 80 140 98 80
139 98 80 138 97 80 136 97 79 135 96 79
134 95 79 133 95 79 131 94 79 129 93 79
127 92 79 126 91 78 124 90 78 122 89 78
120 88 78 118 87 78 115 86 77 143 103 78
141 102 77 138 100 77 135 99 77 154 119 99
151 117 98 147 115 98 142 112 97 114 87 73
107 83 72 98 79 70 93 75 69 106 92 88
95 85 84 64 60 63 46 82 133 46 82 133
46 82 133 46 82 133 46 83 133 46 83 133
46 83 133 46 83 133 46 83 133 46 83 133
47 83 133 47 83 133 47 83 133 47 83 133
84 120 170 84 120 170 84 120 170 47 83 133
47 83 133 47 83 133 47 83 133 47 83 133
47 83 133 71 107 157 71 107 157 71 107 157
71 107 157 71 107 157 71 107 157 71 107 157
71 107 157 71 107 157 71 107 157 71 107 157
71 107 157 71 107 157 71 107 157 71 107 157
132 169 219 132 169 219 132 169 219 132 169 219
132 169 219 132 169 219 132 169 219 132 169 219
132 169 219 132 169 219 132 169 219 132 169 219
132 169 219 132 169 219 132 169 219 71 107 158
71 107 158 71 107 158 71 107 158 71 107 158
71 107 158 71 107 158 71 107 158 71 107 158
132 169 219 132 169 219 132 169 219 132 169 219
132 169 219 132 169 219 132 169 219 132 169 219
126 162 213 126 163 213 126 163 213 126 163 213
126 163 213 126 163 213 127 163 213 68 104 154
68 104 154 68 104 154 68 104 154 68 104 155
68 104 155 68 104 155 68 104 155 68 104 155
68 104 155 68 104 155 68 105 155 68 105 155
127 163 214 127 163 214 127 163 214 127 164 214
127 164 214 127 164 214 127 164 214 127 164 214
128 164 214 128 164 214 128 164 214 69 105 155
69 105 155 38 74 124 38 74 124 38 74 124
38 74 124 38 74 124 38 74 124 38 74 124
38 74 124 38 74 124 37 74 124 37 74 124
37 74 124 37 74 124 37 74 124 37 74 124
37 74 124 37 74 124 37 74 124 37 74 124
37 74 124 37 74 124 37 74 124 37 73 124
37 73 124 37 73 124 37 73 124 37 73 124
37 73 124 40 39 46 44 42 47 62 58 63
89 85 89 96 81 71 102 86 76 117 100 88
106 101 105 116 108 109 123 112 111 124 113 112
125 114 112 126 114 112 127 115 113 127 115 113
128 116 113 140 114 95 61 49 43 120 74 41
146 111 91 126 91 70 128 92 71 130 94 72
132 95 73 133 96 73 107 82 76 108 82 77
110 83 77 112 84 77 114 86 77 117 87 77
119 88 78 121 89 78 123 90 78 125 91 78
126 92 78 128 92 79 130 93 79 131 94 79
132 95 79 134 95 79 135 96 79 136 96 79
137 97 80 138 98 80 139 98 80 140 99 80
141 99 80 142 99 80 143 100 80 144 100 80
144 101 80 145 101 80 146 101 80 146 102 80
147 102 81 147 102 81 148 102 81 148 103 81
149 103 81 149 103 81 149 103 81 150 103 81
150 103 81 150 103 81 150 104 81 150 104 81
151 104 81 151 104 81 151 104 81 151 104 81
151 104 81 150 104 81 150 104 81 150 103 81
150 103 81 150 103 81 149 103 81 149 103 81
149 103 81 148 102 81 148 102 81 147 102 81
147 102 80 146 101 80 145 101 80 145 101 80
144 100 80 143 100 80 142 100 80 142 99 80
141 99 80 140 98 80 139 98 80 138 97 80
137 97 79 135 96 79 134 95 79 133 95 79
131 94 79 130 93 79 128 92 79 126 92 78
125 91 78 123 90 78 121 89 78 119 88 78
117 87 77 147 105 79 144 104 79 142 103 79
139 101 79 158 122 101 155 121 100 151 119 100
148 116 99 143 114 98 116 89 75 106 84 73
97 79 71 91 75 70 106 93 89 94 85 85
63 59 64 46 82 133 46 82 133 46 83 133
46 83 133 46 83 133 46 83 133 46 83 133
46 83 133 47 83 133 47 83 133 47 83 133
47 83 133 47 83 133 47 83 133 47 83 133
47 83 133 47 83 133 47 83 133 47 83 133
47 83 133 47 83 133 47 83 133 47 83 133
71 107 158 71 107 158 71 107 158 71 107 158
71 107 158 71 107 158 71 107 158 71 107 158
71 107 158 71 107 158 71 107 158 71 107 158
71 107 158 71 107 158 71 107 158 71 107 158
71 107 158 71 107 158 133 169 219 133 169 219
133 169 219 133 169 219 133 169 219 133 169 219
133 169 219 133 169 219 133 169 219 133 169 219
133 169 219 71 108 158 71 108 158 71 108 158
71 108 158 71 108 158 71 108 158 71 108 158
71 108 158 71 108 158 71 108 158 71 108 158
71 108 158 71 108 158 133 169 219 133 169 219
133 169 219 133 169 219 133 169 219 133 169 219
127 163 213 127 163 213 127 163 213 127 163 213
127 163 213 127 163 213 127 163 213 127 163 213
68 104 155 68 104 155 68 104 155 68 104 155
68 105 155 68 105 155 68 105 155 68 105 155
68 105 155 127 164 214 127 164 214 127 164 214
127 164 214 128 164 214 128 164 214 128 164 214
128 164 214 128 164 214 128 164 214 128 164 214
128 164 214 128 164 214 128 164 214 128 164 214
69 105 155 69 105 155 38 74 124 38 74 124
38 74 124 38 74 124 38 74 124 38 74 124
38 74 124 38 74 124 38 74 124 38 74 124
38 74 124 38 74 124 38 74 124 37 74 124
37 74 124 37 74 124 37 74 124 37 74 124
37 74 124 65 102 152 65 101 152 65 101 152
37 74 124 37 74 124 37 74 124 37 73 124
37 73 124 37 73 124 37 73 124 0 0 0
31 35 45 35 37 46 40 41 49 77 69 65
81 73 69 85 77 73 93 83 76 93 84 77
61 52 46 49 43 40 61 46 35 54 44 38
53 40 32 49 37 30 34 29 27 140 108 89
144 110 91 147 112 92 149 114 93 129 93 72
131 95 73 133 96 74 156 119 97 158 121 98
107 82 76 109 83 77 112 84 77 114 85 77
116 86 77 118 87 78 120 88 78 122 89 78
124 90 78 125 91 78 127 92 78 128 93 79
130 93 79 131 94 79 133 95 79 134 95 79
135 96 79 136 97 79 137 97 80 138 97 80
139 98 80 140 98 80 141 99 80 142 99 80
142 100 80 143 100 80 144 100 80 144 101 80
145 101 80 145 101 80 146 101 80 146 102 80
147 102 80 147 102 81 147 102 81 148 102 81
148 102 81 148 102 81 148 103 81 148 103 81
149 103 81 149 103 81 149 103 81 149 103 81
149 103 81 148 103 81 148 102 81 148 102 81
148 102 81 148 102 81 147 102 81 147 102 80
147 102 80 146 101 80 146 101 80 145 101 80
145 101 80 144 100 80 143 100 80 143 100 80
142 99 80 141 99 80 140 99 80 140 98 80
139 98 80 138 97 80 137 97 79 135 96 79
134 95 79 133 95 79 131 94 79 130 93 79
129 93 79 127 92 79 125 91 78 124 90 78
122 89 78 120 88 78 118 87 78 172 130 103
170 129 103 168 128 103 143 104 80 140 102 80
159 124 102 156 122 102 152 120 101 148 118 100
144 115 99 115 89 76 105 84 75 95 78 72
89 75 70 104 92 90 93 85 86 61 59 64
46 82 133 46 83 133 46 83 133 46 83 133
46 83 133 46 83 133 46 83 133 47 83 133
47 83 133 47 83 133 47 83 133 47 83 133
47 83 133 47 83 133 84 120 170 84 120 170
84 120 170 84 120 170 84 120 170 47 83 133
47 83 133 47 83 133 47 83 133 71 108 158
71 108 158 71 108 158 71 108 158 71 108 158
71 108 158 71 108 158 71 108 158 71 108 158
71 108 158 71 108 158 71 108 158 71 108 158
71 108 158 71 108 158 71 108 158 71 108 158
71 108 158 71 108 158 71 108 158 133 169 219
133 169 219 133 169 219 133 169 219 133 169 219
133 169 219 133 169 219 71 108 158 71 108 158
71 108 158 71 108 158 71 108 158 71 108 158
71 108 158 71 108 158 71 108 158 71 108 158
71 108 158 71 108 158 71 108 158 71 108 158
71 108 158 71 108 158 71 108 158 71 108 158
133 169 219 133 169 219 133 169 219 133 169 219
127 163 213 127 163 213 127 163 213 127 163 213
127 163 213 127 163 213 127 163 214 127 163 214
68 105 155 68 105 155 68 105 155 68 105 155
68 105 155 68 105 155 127 164 214 128 164 214
128 164 214 128 164 214 128 164 214 128 164 214
128 164 214 128 164 214 128 164 214 128 164 214
128 164 214 128 164 214 128 164 214 128 164 214
128 164 214 128 164 215 128 164 215 128 164 215
128 164 215 69 105 155 38 74 124 38 74 124
38 74 124 38 74 124 38 74 124 38 74 124
38 74 124 38 74 124 38 74 124 38 74 124
38 74 124 38 74 124 38 74 124 38 74 124
38 74 124 38 74 124 66 102 152 66 102 152
65 102 152 65 102 152 65 102 152 65 102 152
65 102 152 37 74 124 37 74 124 37 74 124
37 74 124 37 74 124 37 74 124 37 73 124
37 73 124 37 73 124 7 6 5 23 30 44
13 26 43 14 27 44 27 33 46 24 22 24
33 32 34 22 21 24 21 21 24 20 20 23
20 21 24 21 23 25 96 69 54 134 105 89
140 108 90 144 111 92 147 113 93 149 115 94
129 94 74 153 118 97 155 119 98 157 121 99
159 122 100 160 123 101 164 125 102 111 84 77
113 85 77 115 86 77 117 87 78 119 88 78
121 89 78 123 90 78 124 90 78 126 91 78
127 92 79 129 93 79 130 93 79 131 94 79
133 95 79 134 95 79 135 96 79 136 96 79
137 97 79 138 97 80 139 98 80 140 98 80
140 99 80 141 99 80 142 99 80 142 100 80
143 100 80 143 100 80 144 100 80 144 101 80
145 101 80 145 101 80 145 101 80 146 101 80
146 101 80 146 101 80 146 101 80 146 102 80
146 102 80 146 102 80 147 102 80 146 102 80
146 102 80 146 102 80 146 101 80 146 101 80
146 101 80 145 101 80 145 101 80 145 101 80
144 101 80 144 100 80 144 100 80 143 100 80
142 100 80 142 99 80 141 99 80 140 99 80
140 98 80 139 98 80 138 97 80 137 97 79
136 96 79 135 96 79 134 95 79 133 95 79
131 94 79 130 93 79 129 93 79 127 92 79
126 91 78 124 91 78 123 90 78 121 89 78
119 88 78 174 131 105 172 131 105 170 130 105
168 129 105 166 128 104 140 104 82 137 102 81
134 100 81 130 98 80 149 119 102 120 93 79
136 112 100 127 107 98 116 100 95 109 96 93
79 69 68 71 63 65 59 58 64 46 83 133
46 83 133 46 83 133 46 83 133 46 83 133
47 83 133 47 83 133 47 83 133 47 83 133
47 83 133 47 83 133 47 83 133 47 83 133
84 120 170 84 120 170 84 120 170 84 120 170
84 120 170 84 120 171 84 120 171 84 120 171
84 121 171 47 83 134 71 108 158 72 108 158
72 108 158 72 108 158 72 108 158 72 108 158
72 108 158 72 108 158 72 108 158 72 108 158
72 108 158 72 108 158 72 108 158 72 108 158
72 108 158 72 108 158 72 108 158 72 108 158
72 108 158 72 108 158 72 108 158 72 108 158
72 108 158 133 170 220 133 170 220 133 170 220
72 108 158 72 108 158 72 108 158 72 108 158
72 108 158 72 108 158 72 108 158 72 108 158
72 108 158 72 108 158 72 108 158 72 108 158
72 108 158 72 108 158 72 108 158 72 108 158
72 108 158 72 108 158 72 108 158 72 108 158
72 108 158 72 108 158 133 170 220 133 170 220
127 163 214 127 163 214 127 163 214 127 163 214
127 164 214 127 164 214 127 164 214 127 164 214
127 164 214 69 105 155 128 164 214 128 164 214
128 164 214 128 164 214 128 164 214 128 164 214
128 164 214 128 164 214 128 164 214 128 164 214
128 164 214 128 164 214 128 164 215 128 164 215
128 164 215 128 164 215 128 165 215 128 165 215
128 165 215 66 103 153 66 103 153 66 103 153
66 103 153 66 103 153 38 74 124 38 74 124
38 74 124 38 74 124 38 74 124 38 74 124
38 74 124 38 74 124 38 74 124 38 74 124
38 74 124 38 74 124 38 74 124 66 102 152
66 102 152 66 102 152 66 102 152 66 102 152
66 102 152 66 102 152 66 102 152 66 102 152
65 102 152 65 102 152 37 74 124 37 74 124
37 74 124 37 74 124 37 74 124 37 74 124
37 74 124 37 74 124 37 74 124 37 74 124
37 73 124 37 73 124 37 73 124 37 73 124
37 73 124 37 73 124 0 0 0 20 24 30
13 26 43 14 27 44 89 65 53 106 80 66
112 83 68 139 108 91 143 111 93 146 113 94
150 116 96 130 95 75 154 119 98 156 121 99
158 122 101 160 123 102 161 125 103 164 127 104
168 129 105 148 108 83 114 86 77 116 87 77
118 87 78 120 88 78 121 89 78 123 90 78
124 91 78 126 91 78 127 92 79 129 93 79
130 93 79 131 94 79 132 95 79 133 95 79
134 96 79 135 96 79 136 96 79 137 97 80
138 97 80 139 98 80 139 98 80 140 98 80
141 99 80 141 99 80 142 99 80 142 99 80
143 100 80 143 100 80 143 100 80 144 100 80
144 100 80 144 100 80 144 100 80 144 100 80
144 101 80 144 101 80 144 101 80 144 101 80
144 101 80 144 100 80 144 100 80 144 100 80
144 100 80 143 100 80 143 100 80 143 100 80
142 99 80 142 99 80 141 99 80 141 99 80
140 98 80 139 98 80 139 98 80 138 97 80
137 97 79 136 96 79 135 96 79 134 96 79
133 95 79 132 94 79 131 94 79 130 93 79
128 93 79 127 92 79 126 91 78 124 91 78
123 90 78 121 89 78 120 88 78 176 133 106
174 132 106 172 132 106 170 131 106 168 130 106
166 128 106 140 104 83 138 103 83 134 101 82
131 99 82 124 96 81 140 115 102 133 111 101
125 106 99 114 100 96 107 95 93 76 67 68
67 61 64 44 44 51 40 52 70 40 52 70
46 83 133 46 83 133 47 83 133 47 83 133
47 83 133 47 83 133 47 83 133 47 83 133
47 83 133 84 120 170 84 120 170 84 120 170
84 120 170 84 120 170 84 120 170 84 120 171
84 120 171 84 120 171 84 121 171 84 121 171
84 121 171 133 170 220 72 108 158 72 108 158
72 108 158 72 108 158 72 108 158 72 108 158
72 108 158 72 108 158 72 108 158 72 108 158
72 108 158 72 108 158 72 108 158 72 108 158
72 108 158 72 108 158 72 108 158 72 108 158
72 108 158 72 108 158 72 108 158 72 108 158
72 108 158 72 108 158 134 170 220 72 108 158
72 108 158 72 108 158 72 108 158 72 108 158
72 108 158 72 108 158 72 108 158 72 108 158
72 108 158 72 108 158 72 108 158 72 108 158
72 108 158 72 108 158 72 108 158 72 108 158
72 108 158 72 108 158 72 108 158 72 108 158
72 108 158 72 108 158 72 108 158 72 108 158
67 104 154 67 104 154 127 164 214 128 164 214
128 164 214 128 164 214 128 164 214 69 105 155
69 105 155 69 105 155 128 164 214 128 164 214
128 164 214 128 164 214 128 164 214 128 164 214
128 164 215 128 164 215 128 164 215 128 164 215
67 103 153 67 103 153 67 103 153 67 103 153
67 103 153 67 103 153 67 103 153 67 103 153
67 103 153 67 103 153 67 103 153 67 103 153
66 103 153 66 103 153 38 74 124 38 74 124
38 74 124 38 74 124 38 74 124 38 74 124
38 74 124 38 74 124 38 74 124 38 74 124
66 102 152 66 102 152 66 102 152 66 102 152
66 102 152 66 102 152 66 102 152 66 102 152
66 102 152 66 102 152 66 102 152 66 102 152
66 102 152 66 102 152 66 102 152 38 74 124
37 74 124 37 74 124 37 74 124 37 74 124
37 74 124 37 74 124 37 74 124 37 74 124
37 74 124 37 74 124 37 74 124 37 73 124
37 73 124 37 73 124 37 73 124 37 73 124
23 35 53 72 55 49 79 59 51 86 63 52
105 79 66 111 83 68 115 86 70 141 111 93
123 91 73 127 94 75 131 96 76 133 98 78
135 100 79 159 123 102 160 125 103 162 126 104
165 128 106 146 107 84 149 109 85 152 111 86
154 113 87 157 114 87 119 88 78 120 88 78
122 89 78 123 90 78 125 91 78 126 91 78
127 92 79 128 93 79 130 93 79 131 94 79
132 94 79 133 95 79 133 95 79 134 96 79
135 96 79 136 96 79 137 97 79 137 97 80
138 97 80 139 98 80 139 98 80 140 98 80
140 98 80 140 99 80 141 99 80 141 99 80
141 99 80 142 99 80 142 99 80 142 99 80
142 99 80 142 99 80 142 99 80 142 99 80
142 99 80 142 99 80 142 99 80 141 99 80
141 99 80 141 99 80 140 99 80 140 98 80
139 98 80 139 98 80 139 98 80 138 97 80
137 97 80 137 97 79 136 96 79 135 96 79
134 95 79 133 95 79 132 95 79 132 94 79
131 94 79 129 93 79 128 92 79 127 92 78
126 91 78 124 90 78 123 90 78 121 89 78
155 111 84 154 111 84 153 111 84 151 110 84
172 132 108 170 131 108 168 130 108 143 106 85
140 105 84 138 104 84 134 102 84 128 99 83
144 118 105 137 114 103 129 110 102 121 105 100
113 100 97 104 94 94 72 66 68 63 60 64
41 43 51 79 90 107 77 89 107 40 53 70
40 53 70 40 53 70 47 83 133 47 83 133
47 83 133 47 83 133 47 83 133 84 120 170
84 120 170 84 120 170 84 120 170 84 120 170
84 120 170 84 120 171 84 120 171 84 121 171
84 121 171 84 121 171 84 121 171 85 121 171
134 170 220 134 170 220 134 170 220 134 170 220
72 108 158 72 108 158 72 108 158 72 108 158
72 108 158 72 108 158 72 108 158 72 108 158
72 108 158 72 108 158 72 108 158 72 108 158
72 108 158 72 108 158 72 108 158 72 108 158
72 108 158 72 108 158 72 108 158 72 108 158
134 170 220 134 170 220 134 170 220 134 170 220
134 170 220 72 108 158 72 108 158 72 108 158
72 108 158 72 108 158 72 108 158 72 108 158
72 108 158 72 108 158 72 108 158 72 108 158
72 108 158 72 108 158 72 108 158 72 108 158
72 108 158 72 108 158 72 108 158 72 108 158
72 108 158 72 108 158 72 108 158 72 108 158
68 104 154 68 104 154 68 104 154 67 104 154
38 75 125 38 75 125 38 75 125 38 75 125
38 75 125 38 75 125 67 104 154 67 104 154
67 103 154 67 103 154 67 103 154 67 103 154
67 103 154 67 103 154 67 103 153 67 103 153
67 103 153 67 103 153 67 103 153 67 103 153
67 103 153 67 103 153 67 103 153 67 103 153
67 103 153 67 103 153 67 103 153 67 103 153
67 103 153 67 103 153 67 103 153 38 74 124
38 74 124 38 74 124 38 74 124 38 74 124
38 74 124 66 103 153 66 103 153 66 103 153
66 102 153 66 102 153 66 102 153 66 102 153
66 102 153 66 102 152 66 102 152 66 102 152
66 102 152 66 102 152 66 102 152 66 102 152
66 102 152 66 102 152 66 102 152 66 102 152
38 74 124 38 74 124 38 74 124 38 74 124
37 74 124 37 74 124 37 74 124 37 74 124
37 74 124 37 74 124 37 74 124 37 74 124
37 74 124 37 74 124 37 74 124 37 73 124
37 73 124 65 57 57 78 63 59 76 58 50
84 62 52 103 78 66 108 82 68 135 107 92
139 110 94 122 91 74 126 94 76 129 97 78
133 99 79 135 100 80 137 102 81 138 103 82
140 104 84 143 106 85 146 108 86 149 110 87
152 112 88 154 114 88 157 115 89 182 139 113
184 141 113 186 142 114 188 143 114 189 144 114
191 144 115 169 122 91 169 122 91 170 122 91
171 123 91 172 123 91 172 123 90 197 147 114
197 146 113 197 146 113 197 146 112 197 146 112
197 145 111 173 121 86 173 120 86 172 120 85
172 119 84 172 119 84 138 97 80 138 98 80
139 98 80 139 98 80 139 98 80 139 98 80
139 98 80 139 98 80 139 98 80 139 98 80
139 98 80 139 98 80 139 98 80 139 98 80
138 97 80 138 97 80 138 97 80 137 97 80
137 97 79 136 97 79 136 96 79 135 96 79
135 96 79 134 95 79 133 95 79 132 94 79
131 94 79 130 94 79 130 93 79 129 93 79
128 92 79 126 92 78 125 91 78 124 90 78
122 89 78 157 112 84 156 112 85 155 112 85
154 112 85 152 111 86 151 111 86 149 110 86
147 109 86 145 108 86 143 107 86 140 106 86
136 104 86 131 102 85 126 99 85 141 117 106
134 113 104 126 109 102 117 103 100 107 97 97
100 92 94 69 64 68 57 56 63 36 40 50
109 105 110 102 102 109 94 98 108 86 94 108
77 89 107 40 53 70 40 53 70 47 83 133
84 120 170 84 120 170 84 120 170 84 120 170
84 120 170 84 120 170 84 120 170 84 120 171
84 120 171 84 121 171 84 121 171 84 121 171
85 121 171 85 121 171 134 170 220 134 170 220
134 170 220 134 170 220 134 170 220 134 170 220
134 170 220 134 170 220 72 108 158 72 108 158
72 108 158 72 108 158 72 108 159 72 108 159
72 108 159 72 108 159 72 108 159 72 108 159
72 108 159 72 108 159 72 108 159 72 108 159
72 108 159 134 170 221 134 170 221 134 170 221
134 170 221 134 170 221 134 170 221 134 170 221
134 170 221 134 170 221 134 170 221 72 108 159
72 108 159 72 108 159 72 108 159 72 108 159
72 108 159 72 108 159 72 108 159 72 108 159
72 108 159 72 108 159 72 108 159 72 108 159
72 108 159 72 108 159 72 108 159 72 108 159
72 108 159 72 108 159 72 108 159 72 108 159
39 75 125 39 75 125 39 75 125 39 75 125
39 75 125 39 75 125 39 75 125 39 75 125
39 75 125 38 75 125 38 75 125 67 104 154
67 104 154 67 104 154 67 104 154 67 104 154
67 104 154 67 104 154 67 103 154 67 103 154
67 103 154 67 103 154 67 103 154 67 103 154
67 103 153 67 103 153 67 103 153 67 103 153
67 103 153 67 103 153 67 103 153 67 103 153
67 103 153 67 103 153 67 103 153 67 103 153
38 74 124 67 103 153 67 103 153 67 103 153
67 103 153 67 103 153 66 103 153 66 103 153
66 103 153 66 103 153 66 103 153 66 103 153
66 102 153 66 102 153 66 102 153 66 102 153
66 102 153 66 102 152 66 102 152 66 102 152
66 102 152 66 102 152 66 102 152 66 102 152
66 102 152 38 74 124 38 74 124 38 74 124
38 74 124 38 74 124 38 74 124 38 74 124
37 74 124 37 74 124 37 74 124 37 74 124
37 74 124 37 74 124 37 74 124 65 101 152
65 101 152 59 71 89 60 54 56 73 61 58
73 56 50 81 61 52 88 65 54 126 102 90
132 106 92 137 109 94 141 112 96 124 93 76
128 96 78 131 99 80 134 101 81 136 103 83
161 127 106 163 128 108 166 130 109 169 132 110
149 111 88 152 113 89 154 114 90 157 116 91
182 140 114 184 141 115 186 143 115 188 144 116
189 144 116 190 145 116 168 122 93 169 123 93
170 123 93 171 123 92 171 123 92 172 123 92
172 123 91 196 147 115 196 147 114 196 146 114
196 146 113 196 146 112 196 145 112 172 121 87
196 144 111 195 144 110 195 143 109 195 143 108
194 142 108 194 142 107 193 141 107 136 97 79
136 97 79 136 97 79 136 97 79 136 97 79
136 97 79 136 97 79 136 96 79 136 96 79
135 96 79 135 96 79 135 96 79 134 96 79
134 95 79 133 95 79 133 95 79 132 95 79
132 94 79 131 94 79 130 93 79 129 93 79
128 93 79 127 92 79 126 92 78 125 91 78
124 90 78 182 137 108 182 137 108 181 136 109
156 113 86 155 113 86 154 113 86 153 112 87
152 112 87 150 111 87 172 133 110 170 133 110
167 132 110 164 130 110 159 128 110 155 126 110
128 101 87 145 120 108 138 116 107 130 112 105
121 107 102 111 100 99 102 95 96 74 68 71
64 62 67 42 44 53 29 36 49 77 89 107
129 116 114 126 116 115 116 109 111 108 105 110
97 100 109 88 95 108 78 90 107 77 90 107
84 120 170 84 120 170 84 120 170 84 120 170
84 120 171 84 120 171 84 120 171 84 121 171
84 121 171 84 121 171 85 121 171 85 121 171
85 121 171 134 170 221 134 170 221 134 170 221
134 170 221 134 170 221 134 170 221 134 171 221
134 171 221 134 171 221 134 171 221 72 108 159
72 108 159 72 109 159 72 109 159 72 109 159
72 109 159 72 109 159 72 109 159 72 109 159
72 109 159 72 109 159 72 109 159 134 171 221
134 171 221 134 171 221 135 171 221 135 171 221
135 171 221 135 171 221 135 171 221 135 171 221
135 171 221 135 171 221 135 171 221 135 171 221
72 109 159 72 109 159 72 109 159 72 109 159
72 109 159 72 109 159 72 109 159 72 109 159
72 109 159 72 109 159 72 109 159 72 109 159
72 109 159 72 109 159 72 109 159 72 109 159
72 109 159 72 109 159 72 109 159 72 109 159
39 75 125 39 75 125 39 75 125 39 75 125
39 75 125 39 75 125 39 75 125 39 75 125
39 75 125 39 75 125 39 75 125 39 75 125
68 104 154 68 104 154 68 104 154 68 104 154
67 104 154 67 104 154 67 104 154 67 104 154
67 104 154 67 104 154 67 104 154 67 103 154
67 103 154 67 103 154 67 103 154 67 103 154
67 103 154 67 103 153 67 103 153 67 103 153
67 103 153 67 103 153 38 74 125 38 74 125
38 74 125 67 103 153 67 103 153 67 103 153
67 103 153 67 103 153 67 103 153 67 103 153
67 103 153 67 103 153 67 103 153 66 103 153
66 103 153 66 103 153 66 103 153 66 103 153
66 103 153 66 102 153 66 102 153 66 102 153
66 102 153 66 102 152 66 102 152 66 102 152
66 102 152 66 102 152 38 74 124 38 74 124
38 74 124 38 74 124 38 74 124 38 74 124
38 74 124 38 74 124 38 74 124 38 74 124
65 102 152 65 102 152 65 102 152 65 102 152
59 71 89 59 71 89 59 71 89 49 39 33
68 58 57 78 63 59 78 59 51 93 73 63
122 100 89 128 104 91 134 108 94 139 111 97
144 115 99 147 117 101 128 98 81 132 100 82
135 102 84 160 127 108 162 129 109 166 131 110
169 133 111 171 135 112 174 136 113 177 138 114
179 139 115 158 118 93 160 119 93 185 143 117
187 144 117 188 145 117 190 145 117 191 146 118
168 123 94 169 123 94 170 124 94 171 124 93
171 124 93 171 123 92 172 123 92 172 123 91
172 123 91 172 122 90 171 122 90 171 121 89
171 121 88 171 120 88 194 144 111 194 143 110
194 143 110 193 142 109 193 142 109 168 117 84
168 117 83 167 116 83 167 116 83 167 116 82
166 115 82 166 115 81 133 95 79 133 95 79
133 95 79 132 94 79 132 94 79 131 94 79
131 94 79 130 94 79 130 93 79 129 93 79
128 93 79 162 114 83 161 114 83 161 114 83
184 137 107 183 137 108 183 137 108 182 137 109
182 137 109 181 137 109 180 137 110 179 137 110
155 113 87 154 113 88 153 113 88 174 135 111
173 135 111 171 134 112 168 133 112 164 131 112
160 129 112 156 127 112 151 125 111 123 99 88
118 96 86 112 93 85 125 110 105 115 104 102
104 97 98 97 92 95 68 65 70 58 58 66
36 41 52 2 1 0 77 89 107 77 89 107
77 89 107 140 116 99 129 116 113 92 81 80
80 73 75 70 68 73 59 62 72 47 56 71
77 90 107 84 120 170 84 120 171 84 120 171
84 120 171 84 121 171 84 121 171 84 121 171
85 121 171 85 121 171 85 121 171 134 171 221
134 171 221 134 171 221 135 171 221 135 171 221
135 171 221 135 171 221 135 171 221 135 171 221
135 171 221 135 171 221 135 171 221 135 171 221
135 171 221 72 109 159 72 109 159 72 109 159
73 109 159 73 109 159 73 109 159 73 109 159
73 109 159 135 171 221 135 171 221 135 171 221
135 171 221 135 171 221 135 171 221 135 171 221
135 171 221 135 171 221 135 171 221 135 171 221
135 171 221 135 171 221 135 171 221 135 171 221
135 171 221 135 171 221 73 109 159 73 109 159
73 109 159 73 109 159 73 109 159 73 109 159
73 109 159 73 109 159 73 109 159 73 109 159
73 109 159 73 109 159 73 109 159 73 109 159
73 109 159 73 109 159 73 109 159 73 109 159
39 75 125 39 75 125 39 75 125 39 75 125
39 75 125 39 75 125 39 75 125 39 75 125
39 75 125 39 75 125 39 75 125 39 75 125
68 104 154 68 104 154 68 104 154 68 104 154
68 104 154 68 104 154 68 104 154 68 104 154
68 104 154 67 104 154 67 104 154 67 104 154
67 104 154 67 104 154 67 104 154 67 104 154
67 104 154 67 103 154 67 103 154 38 75 125
38 75 125 38 75 125 38 75 125 38 74 125
38 74 125 67 103 153 67 103 153 67 103 153
67 103 153 67 103 153 67 103 153 67 103 153
67 103 153 67 103 153 67 103 153 67 103 153
67 103 153 67 103 153 67 103 153 66 103 153
66 103 153 66 103 153 66 103 153 66 103 153
66 103 153 66 102 153 66 102 153 66 102 153
66 102 153 66 102 152 66 102 152 38 74 124
38 74 124 38 74 124 38 74 124 38 74 124
38 74 124 66 102 152 66 102 152 66 102 152
66 102 152 66 102 152 66 102 152 59 72 89
59 72 89 59 71 89 59 71 89 59 71 89
59 71 89 59 44 35 73 61 58 72 56 50
89 70 63 94 74 65 124 101 91 130 106 93
136 110 96 140 113 99 144 116 101 148 119 103
151 121 105 154 124 107 157 126 108 160 128 110
163 130 111 164 131 112 166 133 113 173 137 115
176 138 115 155 117 93 158 118 94 159 119 94
161 120 95 163 121 95 164 122 95 165 122 95
166 123 95 191 147 119 191 147 119 192 147 118
193 147 118 193 147 118 194 147 117 194 147 117
194 147 116 170 123 92 170 123 92 170 122 91
170 122 90 170 121 90 170 121 89 169 120 88
193 144 112 192 143 111 168 119 87 168 118 86
167 118 86 167 117 85 166 117 85 166 117 84
165 116 84 189 140 108 188 139 107 188 139 107
188 139 107 187 139 107 187 139 107 186 138 107
162 115 84 162 114 84 162 114 84 161 114 84
161 114 84 161 114 85 160 114 85 160 114 86
183 138 110 182 138 110 181 138 110 181 138 111
180 138 111 179 137 111 178 137 112 177 137 112
153 113 89 174 136 113 172 135 113 170 134 114
167 133 114 164 132 114 160 130 114 156 128 113
128 103 90 123 100 89 118 97 88 112 94 87
105 89 85 96 84 82 86 78 79 98 93 97
69 66 72 60 60 68 51 54 64 25 25 28
77 89 107 77 89 107 77 89 107 77 89 107
77 90 107 45 46 49 87 62 43 91 78 76
94 83 81 87 78 78 75 70 74 63 65 73
50 58 72 84 120 171 84 121 171 84 121 171
84 121 171 85 121 171 85 121 171 85 121 171
85 121 171 85 121 171 135 171 221 135 171 221
135 171 221 135 171 221 135 171 221 135 171 221
135 171 221 135 171 221 135 171 221 135 171 221
135 171 221 135 171 221 135 171 221 135 171 221
135 171 221 135 171 221 135 171 221 73 109 159
73 109 159 73 109 159 73 109 159 135 171 221
135 171 221 135 171 221 135 171 221 135 171 222
135 171 222 135 171 222 135 171 222 135 171 222
135 171 222 135 171 222 135 171 222 135 171 222
135 171 222 135 171 222 135 171 222 135 171 222
135 171 222 135 171 222 135 171 222 135 171 222
73 109 159 73 109 159 73 109 159 73 109 159
73 109 159 73 109 159 73 109 159 73 109 159
73 109 159 73 109 159 73 109 159 73 109 159
73 109 159 73 109 159 73 109 159 73 109 159
39 75 125 39 75 125 39 75 125 39 75 125
39 75 125 39 75 125 39 75 125 39 75 125
39 75 125 39 75 125 39 75 125 39 75 125
39 75 125 68 104 154 68 104 154 68 104 154
68 104 154 68 104 154 68 104 154 68 104 154
68 104 154 68 104 154 68 104 154 68 104 154
68 104 154 68 104 154 68 104 154 67 104 154
38 75 125 38 75 125 38 75 125 38 75 125
38 75 125 38 75 125 38 75 125 38 75 125
38 75 125 38 75 125 67 103 154 67 103 153
67 103 153 67 103 153 67 103 153 67 103 153
67 103 153 67 103 153 67 103 153 67 103 153
67 103 153 67 103 153 67 103 153 67 103 153
67 103 153 67 103 153 67 103 153 66 103 153
66 103 153 66 103 153 66 103 153 66 103 153
66 103 153 66 102 153 66 102 153 66 102 153
38 74 124 38 74 124 66 102 152 66 102 152
66 102 152 66 102 152 66 102 152 66 102 152
66 102 152 66 102 152 66 102 152 59 72 89
59 72 89 59 72 89 59 72 89 59 72 89
59 72 89 59 71 89 51 40 34 68 58 58
66 52 49 82 66 61 89 71 64 119 99 90
125 103 92 131 107 95 135 110 98 140 114 100
144 117 103 125 97 82 129 100 84 132 103 86
135 105 88 137 107 89 162 131 113 164 132 114
165 133 115 167 134 116 145 112 94 146 113 94
159 119 96 160 120 96 162 121 96 163 122 96
164 122 97 165 123 97 189 147 120 190 147 120
191 147 119 191 147 119 192 147 119 192 147 118
192 147 118 192 147 118 192 147 117 192 146 117
192 146 116 192 145 115 192 145 115 192 145 114
191 144 114 191 144 113 191 143 113 190 143 112
190 142 112 190 142 111 189 142 111 165 118 87
188 141 110 188 140 110 187 140 110 187 140 110
187 140 110 186 140 110 186 139 109 162 116 86
161 115 86 161 115 86 161 115 86 160 115 86
160 115 87 159 115 87 159 115 88 158 115 88
181 138 112 181 138 112 180 138 112 156 115 89
155 115 89 154 114 90 152 114 91 150 114 92
148 113 92 145 112 93 166 134 116 163 132 116
159 131 115 156 129 115 128 104 92 123 101 91
118 98 89 111 94 88 104 90 86 96 85 83
88 80 81 78 74 77 69 67 74 82 83 91
52 55 65 43 40 40 15 19 25 77 89 107
77 89 107 77 89 107 77 90 107 40 53 70
40 53 70 40 53 70 79 72 74 84 61 43
89 77 76 95 83 82 90 81 81 77 71 74
65 66 73 50 58 72 47 84 134 85 121 171
85 121 171 85 121 171 85 121 171 85 121 171
85 121 171 135 171 221 135 171 221 135 171 221
135 171 221 135 171 221 135 171 222 135 171 222
135 171 222 135 171 222 135 171 222 135 171 222
135 171 222 135 171 222 135 171 222 135 171 222
135 172 222 135 172 222 135 172 222 135 172 222
135 172 222 135 172 222 135 172 222 135 172 222
135 172 222 135 172 222 135 172 222 135 172 222
135 172 222 135 172 222 135 172 222 135 172 222
135 172 222 135 172 222 135 172 222 135 172 222
135 172 222 135 172 222 135 172 222 136 172 222
136 172 222 136 172 222 136 172 222 136 172 222
136 172 222 136 172 222 73 109 159 73 109 159
73 109 159 73 109 159 73 109 159 73 109 159
73 109 159 73 109 159 73 109 159 73 109 159
73 109 159 73 109 159 136 172 222 136 172 222
39 75 125 39 75 125 39 75 125 39 75 125
39 75 125 39 75 125 39 75 125 39 75 125
39 75 125 39 75 125 39 75 125 39 75 125
39 75 125 68 104 154 68 104 154 68 104 154
68 104 154 68 104 154 68 104 154 68 104 154
68 104 154 68 104 154 68 104 154 68 104 154
68 104 154 39 75 125 39 75 125 39 75 125
39 75 125 39 75 125 39 75 125 38 75 125
38 75 125 38 75 125 38 75 125 38 75 125
38 75 125 38 75 125 38 75 125 67 103 154
67 103 154 67 103 154 67 103 154 67 103 153
67 103 153 67 103 153 67 103 153 67 103 153
67 103 153 67 103 153 67 103 153 67 103 153
67 103 153 67 103 153 67 103 153 67 103 153
67 103 153 67 103 153 67 103 153 66 103 153
66 103 153 66 103 153 66 103 153 38 74 124
38 74 124 66 102 153 66 102 153 66 102 153
66 102 153 66 102 152 66 102 152 66 102 152
66 102 152 66 102 152 59 72 89 59 72 89
59 72 89 59 72 89 59 72 89 59 72 89
62 68 77 62 68 77 59 72 89 56 57 60
58 43 35 57 38 26 66 53 50 73 57 52
90 72 65 120 100 91 125 103 94 129 107 96
134 110 99 139 114 101 121 95 82 125 98 84
129 101 86 131 103 88 133 105 89 136 107 91
138 108 92 140 110 93 141 111 94 165 135 118
167 136 118 154 118 97 156 119 97 158 120 97
160 121 98 162 122 98 164 123 98 164 123 97
188 147 120 189 147 120 166 124 97 167 124 97
167 124 96 167 123 96 167 123 95 167 123 95
167 123 94 167 122 94 190 145 117 190 145 116
190 145 116 190 144 115 189 144 115 189 143 114
189 143 114 165 119 90 164 119 90 164 118 89
164 118 89 163 118 89 163 117 88 162 117 88
162 117 88 162 117 88 185 140 112 184 140 112
184 140 112 183 140 112 183 139 112 182 139 112
182 139 112 181 139 113 181 139 113 157 116 90
155 116 91 154 115 92 153 115 92 152 115 93
150 114 93 148 114 94 146 113 94 143 112 94
141 111 94 138 110 94 135 108 94 131 106 94
127 104 93 123 102 92 117 98 91 110 94 89
103 90 87 95 85 84 87 80 81 79 75 79
69 69 75 83 84 93 74 78 89 62 61 63
21 23 28 74 74 73 77 89 107 77 89 107
40 53 70 40 53 70 40 53 70 40 53 70
40 53 70 41 53 71 41 53 71 75 61 52
83 60 42 88 77 76 98 87 86 89 80 80
76 71 74 64 65 73 47 84 134 47 84 134
85 121 171 85 121 171 85 121 171 135 172 222
135 172 222 135 172 222 135 172 222 135 172 222
135 172 222 135 172 222 135 172 222 135 172 222
135 172 222 135 172 222 135 172 222 136 172 222
136 172 222 136 172 222 136 172 222 136 172 222
136 172 222 136 172 222 73 109 159 73 109 159
73 109 159 73 109 160 136 172 222 136 172 222
136 172 222 136 172 222 136 172 222 136 172 222
136 172 222 136 172 222 136 172 222 136 172 222
136 172 222 136 172 222 136 172 222 136 172 222
136 172 222 136 172 222 136 172 222 136 172 222
136 172 222 136 172 222 136 172 222 136 172 222
136 172 222 136 172 222 136 172 222 136 172 222
73 109 160 73 109 160 73 109 160 73 109 160
73 109 160 73 109 160 73 109 160 73 109 160
136 172 222 136 172 222 136 172 222 136 172 222
39 75 125 39 75 125 39 75 125 39 75 125
39 75 125 39 75 125 39 75 125 39 75 125
39 75 125 39 75 125 39 75 125 39 75 125
39 75 125 39 75 125 68 104 155 68 104 155
68 104 155 68 104 155 68 104 154 68 104 154
68 104 154 68 104 154 39 75 125 39 75 125
39 75 125 39 75 125 39 75 125 39 75 125
39 75 125 39 75 125 39 75 125 39 75 125
39 75 125 39 75 125 39 75 125 39 75 125
38 75 125 38 75 125 38 75 125 38 75 125
67 104 154 67 104 154 67 103 154 67 103 154
67 103 154 67 103 154 67 103 154 67 103 153
67 103 153 67 103 153 67 103 153 67 103 153
67 103 153 67 103 153 67 103 153 67 103 153
67 103 153 67 103 153 67 103 153 67 103 153
38 74 124 38 74 124 38 74 124 38 74 124
38 74 124 66 103 153 66 103 153 66 103 153
66 102 153 66 102 153 66 102 153 66 102 153
66 102 152 66 102 152 59 72 89 59 72 89
59 72 89 59 72 89 59 72 89 59 72 89
67 73 82 62 68 77 67 73 82 59 72 89
67 73 82 46 36 29 48 34 25 56 38 26
63 42 28 71 47 31 86 61 43 119 91 70
123 103 94 128 107 97 110 88 77 115 92 80
120 95 83 123 98 85 126 100 87 129 102 89
131 104 90 134 106 92 136 108 93 138 109 94
162 133 118 167 136 119 170 138 120 173 140 121
175 141 121 177 142 122 180 143 122 181 144 122
183 145 122 185 146 122 163 123 98 163 123 98
164 123 98 165 123 98 165 123 97 165 123 97
165 123 96 165 123 96 165 122 95 165 122 95
165 122 94 188 145 117 165 121 93 164 121 93
164 120 93 164 120 92 163 119 92 163 119 91
162 119 91 162 118 91 162 118 91 161 118 91
161 118 91 184 141 114 183 141 114 182 141 114
182 140 115 181 140 115 180 140 115 180 140 115
178 140 116 177 139 117 176 139 117 152 116 94
150 115 95 149 115 95 147 114 95 146 114 96
144 113 96 141 112 96 161 133 119 158 132 118
155 130 118 151 128 117 147 126 116 119 100 93
115 98 91 108 94 90 101 89 87 93 84 85
85 79 82 76 74 79 89 89 97 82 85 94
74 79 90 62 62 64 33 36 41 16 18 21
82 88 97 77 89 107 51 57 66 45 51 60
45 51 60 40 53 70 41 53 71 41 53 71
41 53 71 41 53 71 41 53 71 70 68 74
75 57 42 94 75 61 89 79 78 103 92 92
84 76 77 73 70 74 58 62 73 48 84 134
48 84 134 73 109 159 136 172 222 136 172 222
136 172 222 136 172 222 136 172 222 136 172 222
136 172 222 136 172 222 136 172 222 136 172 222
136 172 222 136 172 222 136 172 222 136 172 222
136 172 222 136 172 222 136 172 222 136 172 222
73 109 160 73 109 160 73 110 160 73 110 160
73 110 160 73 110 160 73 110 160 73 110 160
136 172 222 136 172 222 136 172 222 136 172 222
136 172 222 136 172 222 136 172 222 136 172 222
136 172 222 136 172 223 136 172 223 136 172 223
136 172 223 136 172 223 136 172 223 136 172 223
136 172 223 136 172 223 136 172 223 136 172 223
136 172 223 136 172 223 136 172 223 136 172 223
136 172 223 73 110 160 73 110 160 73 110 160
73 110 160 73 110 160 136 172 223 136 172 223
136 172 223 136 172 223 136 172 223 136 172 223
39 75 126 39 75 125 39 75 125 39 75 125
39 75 125 39 75 125 39 75 125 39 75 125
39 75 125 39 75 125 39 75 125 39 75 125
39 75 125 39 75 125 39 75 125 68 105 155
68 105 155 68 104 155 39 75 125 39 75 125
39 75 125 39 75 125 39 75 125 39 75 125
39 75 125 39 75 125 39 75 125 39 75 125
39 75 125 39 75 125 39 75 125 39 75 125
39 75 125 39 75 125 39 75 125 39 75 125
39 75 125 39 75 125 39 75 125 39 75 125
38 75 125 67 104 154 67 104 154 67 104 154
67 104 154 67 104 154 67 103 154 67 103 154
67 103 154 67 103 154 67 103 154 67 103 153
67 103 153 67 103 153 67 103 153 67 103 153
67 103 153 38 74 125 38 74 125 38 74 125
38 74 125 38 74 124 38 74 124 38 74 124
38 74 124 38 74 124 66 103 153 66 103 153
66 103 153 66 103 153 66 103 153 66 102 153
66 102 153 60 72 90 60 72 90 60 72 90
60 72 90 59 72 89 59 72 89 67 73 82
62 69 77 62 69 77 67 73 82 59 72 89
59 72 89 67 73 82 67 73 82 41 29 21
54 38 26 56 38 27 64 42 25 72 48 29
73 49 33 92 66 48 125 95 74 104 84 75
106 77 56 113 91 80 116 93 83 119 96 85
123 99 87 126 101 89 129 103 91 131 105 92
133 107 94 135 109 95 159 133 118 162 134 119
165 136 120 168 138 121 170 139 122 173 141 122
175 142 123 177 143 123 178 143 123 179 144 123
180 144 123 158 122 100 159 122 100 160 122 99
160 122 99 161 122 99 184 145 121 184 145 121
184 145 121 184 145 120 184 144 120 184 144 120
183 144 119 183 144 119 183 143 119 183 143 119
159 119 95 159 119 95 158 119 95 181 142 118
180 142 118 179 141 118 178 141 118 178 141 119
177 141 119 176 140 119 175 140 119 174 140 119
173 139 119 171 139 120 170 138 120 168 137 120
166 137 120 165 136 120 163 135 120 161 134 120
158 133 120 155 131 119 151 129 118 146 126 118
142 124 116 137 121 115 132 118 114 104 92 89
99 88 88 91 84 85 83 78 82 73 72 79
85 88 97 78 83 94 74 70 69 62 62 65
39 41 43 34 37 40 1 8 16 52 58 67
40 53 70 40 53 70 51 58 66 51 58 66
45 51 60 45 51 60 41 53 71 41 53 71
41 53 71 41 53 71 41 53 71 41 53 71
69 58 52 79 58 42 84 75 76 98 88 87
99 90 90 80 73 75 68 67 74 73 109 160
73 109 160 73 109 160 73 109 160 136 172 222
136 172 222 136 172 222 136 172 222 136 172 222
136 172 222 136 172 222 136 172 222 136 172 222
136 172 222 136 172 222 136 172 223 136 172 223
136 172 223 136 172 223 73 110 160 73 110 160
73 110 160 73 110 160 73 110 160 73 110 160
74 110 160 74 110 160 74 110 160 74 110 160
74 110 160 136 173 223 136 173 223 136 173 223
136 173 223 136 173 223 136 173 223 136 173 223
136 173 223 136 173 223 136 173 223 136 173 223
136 173 223 136 173 223 136 173 223 136 173 223
136 173 223 136 173 223 136 173 223 136 173 223
136 173 223 136 173 223 137 173 223 137 173 223
137 173 223 137 173 223 137 173 223 74 110 160
137 173 223 137 173 223 137 173 223 137 173 223
136 173 223 136 173 223 136 173 223 136 173 223
39 75 126 39 75 126 39 75 126 39 75 126
39 75 126 39 75 126 39 75 126 39 75 125
39 75 125 39 75 125 39 75 125 39 75 125
39 75 125 39 75 125 39 75 125 39 75 125
39 75 125 39 75 125 39 75 125 39 75 125
39 75 125 39 75 125 39 75 125 39 75 125
39 75 125 39 75 125 39 75 125 39 75 125
39 75 125 39 75 125 39 75 125 39 75 125
39 75 125 39 75 125 39 75 125 39 75 125
39 75 125 39 75 125 39 75 125 39 75 125
39 75 125 68 104 154 68 104 154 68 104 154
67 104 154 67 104 154 67 104 154 67 104 154
67 104 154 67 104 154 67 103 154 67 103 154
67 103 154 67 103 154 38 75 125 38 75 125
38 74 125 38 74 125 38 74 125 38 74 125
38 74 125 38 74 125 38 74 125 38 74 125
38 74 124 38 74 124 38 74 124 67 103 153
67 103 153 67 103 153 66 103 153 66 103 153
66 103 153 60 72 90 60 72 90 60 72 90
60 72 90 60 72 90 77 83 92 67 73 82
62 69 77 67 73 82 67 73 82 67 73 82
56 56 56 68 71 78 67 74 82 67 73 82
66 66 66 40 29 21 48 32 21 56 38 27
60 41 28 71 48 31 77 53 34 88 64 48
122 94 75 134 98 70 138 107 85 108 88 80
112 91 82 115 94 84 118 97 86 122 99 88
125 102 90 127 103 92 129 105 93 153 129 117
155 130 118 157 132 119 159 134 120 162 135 121
165 137 122 167 138 122 169 139 123 170 140 123
149 118 101 150 118 101 151 119 101 152 119 101
176 143 124 176 143 124 177 143 123 178 143 123
178 143 123 178 143 123 178 143 123 178 143 123
177 143 122 177 143 122 177 142 122 177 142 122
177 142 122 176 142 121 153 118 98 152 118 98
151 118 98 150 117 98 149 117 98 149 117 99
148 116 99 147 116 99 146 115 98 144 115 99
143 114 99 141 113 99 162 135 121 160 134 121
157 133 121 155 132 120 152 130 120 149 129 119
146 127 119 141 124 117 136 121 116 131 118 115
126 115 113 121 111 111 115 108 109 86 81 84
79 76 82 91 92 100 81 85 96 75 72 72
65 65 68 58 60 64 54 56 59 28 32 38
1 1 1 0 2 5 90 96 105 45 52 60
37 39 41 59 65 74 52 58 67 52 58 67
52 58 67 45 52 60 41 53 71 41 53 71
41 53 71 41 53 71 41 54 71 41 54 71
64 56 52 72 56 45 78 63 53 89 80 81
109 99 99 111 103 104 100 96 100 73 110 160
73 110 160 73 110 160 73 110 160 73 110 160
73 110 160 136 172 223 136 172 223 136 173 223
136 173 223 136 173 223 136 173 223 136 173 223
136 173 223 136 173 223 136 173 223 74 110 160
74 110 160 74 110 160 74 110 160 74 110 160
74 110 160 74 110 160 74 110 160 74 110 160
74 110 160 74 110 160 74 110 160 74 110 160
74 110 160 74 110 160 74 110 160 137 173 223
137 173 223 137 173 223 137 173 223 137 173 223
137 173 223 137 173 223 137 173 223 137 173 223
137 173 223 137 173 223 137 173 223 137 173 223
137 173 223 137 173 223 137 173 223 137 173 223
137 173 223 137 173 223 137 173 223 137 173 223
137 173 223 137 173 223 74 110 160 74 110 160
74 110 160 137 173 223 137 173 223 137 173 223
137 173 223 137 173 223 137 173 223 137 173 223
39 75 126 39 75 126 39 75 126 39 75 126
39 75 126 39 75 126 39 75 126 39 75 126
39 75 126 39 75 126 39 75 126 39 75 126
69 105 155 69 105 155 69 105 155 69 105 155
39 75 125 39 75 125 39 75 125 39 75 125
39 75 125 39 75 125 39 75 125 39 75 125
39 75 125 39 75 125 39 75 125 39 75 125
39 75 125 39 75 125 39 75 125 39 75 125
39 75 125 39 75 125 39 75 125 39 75 125
39 75 125 39 75 125 39 75 125 39 75 125
39 75 125 39 75 125 68 104 154 68 104 154
68 104 154 68 104 154 68 104 154 68 104 154
67 104 154 67 104 154 67 104 154 38 75 125
38 75 125 38 75 125 38 75 125 38 75 125
38 75 125 38 75 125 38 75 125 38 74 125
38 74 125 38 74 125 38 74 125 38 74 125
38 74 125 38 74 125 38 74 125 38 74 125
67 103 153 67 103 153 67 103 153 67 103 153
60 73 90 60 73 90 60 72 90 60 72 90
60 72 90 60 72 90 63 69 78 63 69 78
67 74 82 67 74 82 67 74 82 67 74 82
67 74 82 85 85 92 67 74 82 67 74 82
66 68 71 39 39 39 39 39 39 40 28 20
46 32 21 57 40 28 58 40 28 66 45 30
79 56 39 107 85 70 116 91 73 136 104 81
121 105 99 125 108 101 129 111 103 133 114 106
136 116 108 139 119 110 141 121 112 143 122 113
145 124 115 124 103 93 126 104 95 128 106 96
129 107 97 130 108 97 135 111 98 137 112 99
138 113 100 140 114 100 141 114 100 142 115 101
144 116 101 145 116 101 146 117 101 169 140 124
169 140 124 170 140 124 170 140 124 170 140 124
170 140 124 170 140 124 169 140 124 146 117 101
146 117 100 146 117 100 145 116 100 144 116 100
143 115 100 142 115 100 141 114 100 140 114 100
139 113 100 138 113 100 137 112 99 135 111 99
132 110 99 153 131 121 150 130 121 147 128 120
144 126 119 141 125 119 138 123 118 135 121 117
130 118 115 125 115 114 120 111 112 113 107 110
107 103 107 100 98 104 71 71 79 86 89 99
80 76 76 66 67 70 59 62 66 57 59 62
54 56 59 27 29 31 0 0 0 2 2 2
0 2 5 90 96 105 90 96 105 77 90 107
41 53 71 52 58 67 45 52 60 52 58 67
52 58 67 45 52 60 59 66 74 41 53 71
41 54 71 41 54 71 41 54 71 41 54 71
41 54 71 67 54 45 76 59 46 108 101 103
132 123 123 121 112 113 104 98 101 86 89 99
74 110 160 74 110 160 74 110 160 74 110 160
74 110 160 74 110 160 74 110 160 137 173 223
137 173 223 137 173 223 137 173 223 137 173 223
137 173 223 74 110 160 74 110 160 74 110 160
74 110 160 74 110 160 74 110 160 74 110 160
74 110 160 74 110 160 74 110 160 74 110 160
74 110 160 74 110 160 74 110 160 74 110 160
74 110 160 74 110 160 74 110 160 74 110 160
74 110 160 137 173 223 137 173 223 137 173 223
137 173 223 137 173 223 137 173 223 137 173 224
137 173 224 137 173 224 137 173 224 137 173 224
137 173 224 137 173 224 137 173 224 137 173 224
137 173 224 137 173 224 137 173 224 137 173 224
74 110 161 74 110 161 74 110 161 74 110 161
74 110 161 74 110 161 74 110 161 137 173 224
137 173 224 137 173 224 137 173 224 137 173 224
39 76 126 39 76 126 39 76 126 39 76 126
39 76 126 39 76 126 39 75 126 39 75 126
39 75 126 69 105 155 69 105 155 69 105 155
69 105 155 69 105 155 69 105 155 69 105 155
69 105 155 39 75 126 39 75 125 39 75 125
39 75 125 39 75 125 39 75 125 39 75 125
39 75 125 39 75 125 39 75 125 39 75 125
39 75 125 39 75 125 39 75 125 39 75 125
39 75 125 39 75 125 39 75 125 39 75 125
39 75 125 39 75 125 39 75 125 39 75 125
39 75 125 39 75 125 39 75 125 68 104 154
68 104 154 68 104 154 68 104 154 68 104 154
39 75 125 39 75 125 39 75 125 39 75 125
38 75 125 38 75 125 38 75 125 38 75 125
38 75 125 38 75 125 38 75 125 38 75 125
38 75 125 38 75 125 38 75 125 38 74 125
38 74 125 38 74 125 38 74 125 38 74 125
38 74 125 67 103 153 67 103 153 67 103 153
60 73 90 60 73 90 60 73 90 60 73 90
60 73 90 60 73 90 63 69 78 68 74 83
68 74 83 68 74 83 63 69 78 63 69 78
63 69 78 60 72 90 48 52 63 39 46 54
39 46 54 38 40 43 39 39 39 39 39 39
29 29 29 44 31 24 41 29 21 49 35 24
55 38 25 59 41 29 77 56 41 83 59 43
109 86 71 133 100 75 115 101 97 119 104 99
123 107 102 127 110 104 130 112 106 132 114 108
134 116 109 136 118 111 116 97 90 118 99 91
119 100 93 121 102 94 122 103 95 123 104 96
124 105 96 126 106 97 128 107 98 129 108 98
131 109 99 132 110 99 134 111 100 135 112 100
135 112 100 136 112 100 136 112 100 136 112 101
159 135 123 136 112 101 136 112 101 136 112 101
136 112 101 136 112 100 134 111 100 133 111 100
132 110 100 131 109 100 130 109 99 128 108 99
127 107 99 125 106 99 124 106 98 121 104 98
141 125 119 138 123 119 135 121 118 132 119 117
128 117 116 125 115 114 121 113 113 117 110 112
111 106 109 104 102 107 75 75 82 68 70 79
68 62 60 53 51 53 61 65 71 61 63 68
63 65 68 60 63 66 38 40 43 34 36 39
0 0 0 0 0 0 0 0 0 0 2 5
75 82 90 84 90 99 77 90 107 75 79 86
82 89 97 83 89 98 46 52 61 46 52 61
52 58 67 46 52 61 52 58 67 41 54 71
41 54 71 41 54 71 41 54 71 41 54 71
41 54 71 87 77 70 97 82 71 104 98 101
123 115 117 133 125 125 107 100 101 95 94 100
74 110 160 74 110 160 74 110 160 74 110 160
74 110 160 74 110 160 74 110 160 74 110 160
137 173 223 137 173 223 137 173 223 74 110 160
74 110 160 74 110 160 74 110 160 74 110 160
74 110 160 74 110 160 74 110 160 74 110 160
74 110 160 74 110 161 74 110 161 74 110 161
74 110 161 74 110 161 74 110 161 74 110 161
74 110 161 74 110 161 74 110 161 74 110 161
74 110 161 74 110 161 137 174 224 137 174 224
137 174 224 137 174 224 137 174 224 137 174 224
137 174 224 137 174 224 137 174 224 137 174 224
137 174 224 137 174 224 137 174 224 137 174 224
137 174 224 137 174 224 74 111 161 74 111 161
74 111 161 74 111 161 74 111 161 74 111 161
74 111 161 74 111 161 74 111 161 74 111 161
138 174 224 138 174 224 137 174 224 137 174 224
70 106 156 70 106 156 70 106 157 70 106 157
70 106 157 39 76 126 69 105 156 69 105 156
69 105 156 69 105 156 69 105 155 69 105 155
69 105 155 69 105 155 69 105 155 69 105 155
69 105 155 39 75 126 39 75 126 39 75 126
39 75 126 39 75 126 39 75 126 39 75 125
39 75 125 39 75 125 39 75 125 39 75 125
39 75 125 39 75 125 39 75 125 39 75 125
39 75 125 39 75 125 39 75 125 39 75 125
39 75 125 39 75 125 39 75 125 39 75 125
39 75 125 39 75 125 39 75 125 39 75 125
68 104 154 39 75 125 39 75 125 39 75 125
39 75 125 39 75 125 39 75 125 39 75 125
39 75 125 39 75 125 39 75 125 38 75 125
38 75 125 38 75 125 38 75 125 38 75 125
38 75 125 38 75 125 38 75 125 38 75 125
38 75 125 38 75 125 38 74 125 38 74 125
38 74 125 38 74 125 67 103 153 62 61 61
60 73 90 60 73 90 60 73 90 60 73 90
60 73 90 77 84 92 68 74 83 63 69 78
68 74 83 63 69 78 63 69 78 63 69 78
34 41 49 34 41 49 67 53 43 47 47 51
40 46 55 38 41 44 39 39 39 39 39 39
39 39 39 34 34 34 28 28 28 26 18 13
46 30 17 44 32 24 55 40 29 56 39 27
65 49 38 70 52 40 76 56 42 111 88 73
119 93 74 112 100 97 115 102 99 118 104 101
120 107 103 123 109 105 126 111 106 128 113 108
108 92 88 110 94 89 112 96 90 112 97 91
113 97 92 114 98 93 114 99 94 115 99 94
115 100 95 117 101 96 119 102 96 120 103 97
121 104 97 121 104 97 121 104 98 144 127 120
144 127 121 145 127 121 145 127 121 145 127 121
145 127 121 144 127 121 143 126 121 119 103 98
118 102 97 116 101 97 115 100 96 113 100 96
112 99 96 110 98 95 108 97 95 128 117 116
124 115 115 120 113 114 117 110 112 90 85 88
86 82 87 82 79 85 77 77 83 72 73 82
73 67 64 57 54 55 45 47 51 39 43 48
40 42 45 65 67 70 63 65 68 59 61 64
35 37 40 1 1 1 0 0 0 0 0 0
0 0 0 0 0 0 1 1 1 74 77 80
85 91 100 83 89 98 75 80 86 87 93 102
89 96 104 83 89 98 83 89 98 46 52 61
52 59 67 52 58 67 46 52 61 41 54 71
41 54 71 41 54 71 67 80 97 67 80 97
67 80 97 70 69 68 93 80 71 100 97 101
115 109 111 138 130 131 109 101 102 98 95 100
74 110 160 74 110 160 74 110 160 74 110 160
74 110 160 74 110 160 74 110 160 74 110 160
74 110 161 137 173 224 74 110 161 74 110 161
74 110 161 74 110 161 74 110 161 74 110 161
74 110 161 74 110 161 74 111 161 74 111 161
74 111 161 74 111 161 74 111 161 74 111 161
74 111 161 74 111 161 74 111 161 74 111 161
74 111 161 74 111 161 74 111 161 74 111 161
74 111 161 74 111 161 74 111 161 75 111 161
138 174 224 138 174 224 138 174 224 138 174 224
138 174 224 138 174 224 138 174 224 138 174 224
138 174 224 138 174 224 138 174 224 138 174 224
75 111 161 75 111 161 75 111 161 75 111 161
75 111 161 75 111 161 75 111 161 75 111 161
75 111 161 75 111 161 75 111 161 75 111 161
75 111 161 75 111 161 138 174 224 138 174 224
70 106 157 70 106 157 131 167 217 131 167 217
131 167 217 131 167 218 131 167 218 131 167 218
131 167 218 131 168 218 69 105 156 69 105 156
69 105 156 69 105 156 69 105 156 69 105 156
69 105 155 69 105 155 39 75 126 39 75 126
39 75 126 39 75 126 39 75 126 39 75 126
39 75 126 39 75 126 39 75 126 39 75 125
39 75 125 39 75 125 39 75 125 39 75 125
39 75 125 39 75 125 39 75 125 39 75 125
39 75 125 39 75 125 39 75 125 39 75 125
39 75 125 39 75 125 68 104 155 68 104 155
39 75 125 39 75 125 39 75 125 39 75 125
39 75 125 39 75 125 39 75 125 39 75 125
39 75 125 39 75 125 39 75 125 39 75 125
39 75 125 39 75 125 39 75 125 38 75 125
38 75 125 38 75 125 38 75 125 38 75 125
38 75 125 38 75 125 38 75 125 38 75 125
38 75 125 38 75 125 38 74 125 64 75 91
61 73 90 60 73 90 60 73 90 60 73 90
60 73 90 78 84 93 68 74 83 63 69 78
68 74 83 35 41 50 35 41 50 35 41 50
35 41 50 35 41 50 39 46 54 65 52 43
48 50 56 40 46 55 39 41 44 41 41 41
35 35 35 35 35 35 34 34 34 28 28 28
54 36 22 110 80 63 26 19 13 46 30 17
43 31 23 62 49 40 66 51 41 66 50 38
70 52 39 69 52 41 103 84 71 108 88 74
115 94 79 122 99 84 122 97 80 113 102 101
116 104 103 118 106 104 98 86 84 99 87 85
100 88 86 101 89 87 102 90 88 103 91 89
104 92 90 105 93 90 105 93 91 106 94 92
128 117 115 128 117 115 127 117 115 127 116 115
126 116 116 126 116 116 125 116 116 124 115 116
123 115 116 127 117 116 126 116 116 124 115 115
122 114 115 121 113 114 119 112 113 117 111 113
115 109 112 113 108 111 88 84 88 84 81 87
80 79 85 76 76 83 83 74 69 65 60 58
61 57 57 55 53 55 51 51 53 46 47 50
49 49 51 41 43 46 39 41 44 41 43 46
56 58 61 30 34 40 0 0 0 51 64 81
0 0 0 0 0 0 0 0 0 0 0 0
0 0 0 1 1 1 74 77 80 86 92 101
84 91 99 78 90 108 78 90 108 90 96 105
90 96 105 90 96 105 90 96 105 83 89 98
89 96 104 52 59 67 46 52 61 41 54 71
67 80 97 67 80 97 67 80 97 67 80 97
67 80 97 69 81 98 90 79 71 97 95 101
109 104 107 138 131 132 110 102 103 101 97 101
74 110 161 74 110 161 74 110 161 74 110 161
74 110 161 74 110 161 138 174 224 138 174 224
138 174 224 138 174 224 138 174 224 74 111 161
74 111 161 74 111 161 74 111 161 74 111 161
74 111 161 74 111 161 75 111 161 75 111 161
75 111 161 75 111 161 75 111 161 75 111 161
75 111 161 75 111 161 75 111 161 75 111 161
75 111 161 75 111 161 75 111 161 75 111 161
75 111 161 75 111 161 75 111 161 75 111 161
75 111 161 75 111 161 138 174 224 138 174 225
138 174 225 138 174 225 138 174 225 138 174 225
138 174 225 138 174 225 75 111 161 75 111 161
75 111 161 75 111 161 75 111 161 75 111 161
75 111 161 75 111 161 75 111 161 75 111 161
75 111 161 75 111 161 75 111 161 75 111 161
75 111 161 75 111 161 75 111 161 75 111 161
131 167 218 131 167 218 131 167 218 131 168 218
131 168 218 131 168 218 131 168 218 131 168 218
132 168 218 132 168 218 132 168 218 132 168 218
132 168 218 132 168 218 69 106 156 69 105 156
69 105 156 69 105 156 69 105 156 39 76 126
39 76 126 39 75 126 39 75 126 39 75 126
39 75 126 39 75 126 39 75 126 39 75 126
39 75 126 39 75 126 39 75 126 39 75 126
39 75 125 39 75 125 39 75 125 39 75 125
39 75 125 39 75 125 39 75 125 68 105 155
68 105 155 68 105 155 68 105 155 68 104 155
68 104 155 39 75 125 39 75 125 39 75 125
39 75 125 39 75 125 39 75 125 39 75 125
39 75 125 39 75 125 39 75 125 39 75 125
39 75 125 39 75 125 39 75 125 39 75 125
39 75 125 39 75 125 38 75 125 38 75 125
38 75 125 38 75 125 38 75 125 38 75 125
38 75 125 38 75 125 38 75 125 36 46 62
61 73 91 61 73 91 60 73 90 60 73 90
60 73 90 63 70 78 39 46 54 35 41 50
35 41 50 35 41 50 35 41 50 35 41 50
35 41 50 40 46 55 35 41 50 31 44 61
64 60 65 51 52 56 41 47 56 34 36 39
34 36 39 35 35 35 35 35 35 34 34 34
28 28 28 28 28 28 34 20 9 107 70 43
59 40 25 26 19 13 34 27 22 54 42 35
53 42 34 62 50 41 62 48 38 65 50 39
67 51 40 73 56 45 94 79 70 98 82 72
102 85 74 106 88 77 113 94 82 119 99 86
122 102 89 102 82 68 102 81 67 100 78 64
122 100 84 113 105 106 114 106 107 115 107 108
114 107 108 114 107 108 114 107 108 113 106 109
112 106 109 112 106 109 111 106 109 111 106 109
110 105 109 109 105 109 107 104 108 105 102 108
115 99 89 109 96 88 103 92 86 98 89 84
94 86 82 69 62 59 65 60 58 62 57 56
58 55 55 54 52 53 58 56 55 51 50 50
48 47 48 44 45 47 41 43 46 42 44 47
35 37 40 27 32 38 0 0 0 0 0 0
49 53 59 53 66 83 0 0 0 0 0 0
0 0 0 0 0 0 0 0 0 0 0 0
75 75 75 74 77 80 93 100 108 85 91 100
78 90 108 78 90 108 90 96 105 84 90 99
90 97 105 90 97 105 90 96 105 90 96 105
83 90 98 142 148 157 76 83 91 86 93 101
68 80 98 68 80 98 68 80 98 68 80 98
68 80 98 68 80 98 87 77 70 94 94 100
105 101 105 174 148 134 133 114 107 101 97 101
74 111 161 74 111 161 74 111 161 74 111 161
138 174 224 138 174 224 138 174 224 138 174 224
138 174 224 138 174 224 138 174 224 138 174 224
138 174 224 75 111 161 75 111 161 75 111 161
75 111 161 75 111 161 75 111 161 75 111 161
75 111 161 75 111 161 75 111 161 75 111 161
75 111 161 75 111 161 75 111 161 75 111 161
75 111 161 75 111 161 75 111 161 75 111 161
75 111 161 75 111 161 75 111 161 75 111 161
75 111 161 75 111 161 75 111 161 138 175 225
138 175 225 138 175 225 138 175 225 75 111 161
75 111 161 75 111 161 75 111 161 75 111 161
75 111 161 75 111 161 75 111 161 75 111 161
75 111 161 75 111 161 75 111 161 75 111 161
75 111 161 75 111 161 75 111 161 75 111 161
75 111 161 75 111 161 75 111 161 75 111 161
131 168 218 131 168 218 132 168 218 132 168 218
132 168 218 132 168 218 132 168 218 132 168 218
132 168 218 132 168 218 132 168 218 132 168 218
132 168 218 132 168 218 132 168 218 132 168 218
132 168 218 132 168 219 132 168 219 71 107 157
39 76 126 39 76 126 39 76 126 39 76 126
39 76 126 39 76 126 39 75 126 39 75 126
39 75 126 39 75 126 39 75 126 39 75 126
39 75 126 39 75 126 39 75 126 39 75 126
69 105 155 69 105 155 69 105 155 69 105 155
69 105 155 68 105 155 68 105 155 68 105 155
68 105 155 68 105 155 39 75 125 39 75 125
39 75 125 39 75 125 39 75 125 39 75 125
39 75 125 39 75 125 39 75 125 39 75 125
39 75 125 39 75 125 39 75 125 39 75 125
39 75 125 39 75 125 39 75 125 39 75 125
39 75 125 39 75 125 38 75 125 38 75 125
38 75 125 38 75 125 38 75 125 37 47 62
32 44 62 61 73 91 61 73 91 32 44 62
32 44 62 35 41 50 40 46 55 35 41 50
40 46 55 35 41 50 35 41 50 35 41 50
35 41 50 40 46 55 40 46 55 40 46 55
54 55 64 68 62 65 50 49 52 36 43 51
35 37 40 34 36 39 35 35 35 34 34 34
34 34 34 38 38 38 28 28 28 56 56 56
56 56 56 99 66 42 125 92 73 64 33 8
27 23 20 37 30 25 43 37 33 53 42 36
58 47 40 59 48 41 60 49 42 62 51 43
64 52 43 62 49 40 98 85 75 78 64 54
79 65 54 76 61 51 81 66 56 77 63 52
95 82 75 97 84 76 98 85 77 99 86 78
99 86 78 99 86 79 98 86 79 97 86 79
97 85 79 96 85 79 95 85 79 94 85 79
94 84 79 92 83 79 89 82 78 87 80 78
85 79 77 87 80 75 89 83 79 87 82 78
59 54 51 57 53 51 58 55 54 55 53 53
51 51 51 44 47 50 39 41 44 37 40 43
34 37 40 28 33 39 9 9 9 0 0 0
15 16 18 34 38 44 75 88 105 48 52 58
0 0 0 0 0 0 0 0 0 0 0 0
0 0 0 0 0 0 3 3 3 74 77 80
93 95 98 94 101 109 85 91 100 78 90 108
78 90 108 84 91 99 85 91 100 85 91 100
85 91 100 91 97 106 143 149 158 143 149 158
143 149 158 136 142 151 150 157 165 87 93 102
68 80 98 68 80 98 68 80 98 68 80 98
68 80 98 68 80 98 145 110 83 158 133 119
151 124 109 168 143 130 131 113 106 75 111 161
75 111 161 75 111 161 138 174 224 138 174 224
138 174 224 138 174 225 138 174 225 138 174 225
138 174 225 138 174 225 138 174 225 138 175 225
138 175 225 138 175 225 75 111 161 75 111 161
75 111 161 75 111 161 75 111 161 75 111 161
75 111 161 75 111 161 75 111 161 75 111 161
75 111 161 75 111 161 75 111 161 75 111 162
75 111 162 75 111 162 75 111 162 75 111 162
75 111 162 75 111 162 75 111 162 75 111 162
75 111 162 75 111 162 75 111 162 75 111 162
75 111 162 75 111 162 75 112 162 75 112 162
75 112 162 75 112 162 75 112 162 75 112 162
75 112 162 75 112 162 75 112 162 75 112 162
75 112 162 75 112 162 75 112 162 75 112 162
75 112 162 75 112 162 75 112 162 75 112 162
75 112 162 75 112 162 75 112 162 75 112 162
132 168 218 132 168 218 132 168 218 132 168 218
132 168 218 132 168 218 132 168 218 132 168 218
132 168 218 132 168 218 132 168 218 132 168 219
132 168 219 132 168 219 132 168 219 132 168 219
132 169 219 132 169 219 132 169 219 132 169 219
71 107 157 71 107 157 71 107 157 71 107 157
71 107 157 71 107 157 39 76 126 39 76 126
39 76 126 39 76 126 39 75 126 39 75 126
39 75 126 69 105 155 69 105 155 69 105 155
69 105 155 69 105 155 69 105 155 69 105 155
69 105 155 69 105 155 69 105 155 69 105 155
69 105 155 68 105 155 68 105 155 39 75 125
39 75 125 39 75 125 39 75 125 72 108 158
72 108 158 72 108 158 72 108 158 72 108 158
72 108 158 72 108 158 72 108 158 39 75 125
39 75 125 39 75 125 39 75 125 39 75 125
39 75 125 39 75 125 39 75 125 39 75 125
39 75 125 38 75 125 42 50 63 32 45 62
61 73 91 61 73 91 32 44 62 32 44 62
32 44 62 35 41 50 35 41 50 35 41 50
40 46 55 40 46 55 35 41 50 35 41 50
40 46 55 40 46 55 40 46 55 40 46 55
47 50 56 58 55 57 71 64 65 60 56 57
39 44 52 35 37 40 35 37 40 35 35 35
35 35 35 34 34 34 34 34 34 28 28 28
56 56 56 56 56 56 56 56 56 55 39 26
118 83 58 139 106 87 59 41 28 8 4 0
15 12 10 22 17 13 25 19 14 30 22 17
38 30 26 51 35 24 46 36 30 45 37 32
46 37 32 46 38 32 47 38 33 44 35 29
44 35 29 64 55 48 65 55 49 88 78 72
88 78 72 87 78 72 87 78 72 90 82 76
89 81 76 89 81 76 88 81 76 87 81 76
87 80 76 85 79 76 83 78 76 81 77 75
79 76 74 77 74 74 48 47 47 46 45 46
44 44 45 38 40 43 30 34 40 29 33 39
19 22 25 11 11 11 9 9 9 0 0 0
20 24 30 19 20 22 49 53 59 54 67 84
51 55 61 0 0 0 0 0 0 0 0 0
0 0 0 0 0 0 0 0 0 0 0 0
0 0 0 77 77 77 75 77 80 94 97 100
95 101 110 89 96 104 78 90 108 78 90 108
85 92 100 86 92 101 138 145 153 138 144 153
138 144 153 144 150 159 144 150 159 143 150 158
143 149 158 141 147 156 151 157 166 140 146 155
131 144 161 68 81 98 68 81 98 68 81 98
68 81 98 68 81 98 77 85 99 164 141 131
145 121 108 159 135 124 128 111 105 75 111 161
138 175 225 138 175 225 138 175 225 138 175 225
138 175 225 138 175 225 138 175 225 139 175 225
139 175 225 139 175 225 139 175 225 139 175 225
139 175 225 139 175 225 139 175 225 139 175 225
75 111 162 75 111 162 75 111 162 75 111 162
75 111 162 75 111 162 75 111 162 75 112 162
75 112 162 75 112 162 75 112 162 75 112 162
75 112 162 75 112 162 75 112 162 75 112 162
75 112 162 75 112 162 75 112 162 75 112 162
75 112 162 75 112 162 75 112 162 139 175 226
139 175 226 139 175 226 139 175 226 76 112 162
76 112 162 76 112 162 76 112 162 76 112 162
76 112 162 76 112 162 76 112 162 76 112 162
76 112 162 76 112 162 76 112 162 76 112 162
76 112 162 76 112 162 76 112 162 76 112 162
76 112 162 76 112 162 76 112 162 76 112 162
132 168 218 132 168 218 132 168 218 132 168 218
132 168 218 132 168 219 132 168 219 132 168 219
132 168 219 132 169 219 132 169 219 132 169 219
132 169 219 132 169 219 132 169 219 133 169 219
133 169 219 133 169 219 133 169 219 133 169 219
133 169 219 71 107 158 71 107 158 71 107 158
71 107 158 71 107 158 71 107 158 71 107 158
71 107 158 71 107 158 133 169 219 133 169 220
133 169 220 133 169 220 133 169 220 133 169 220
133 169 220 133 170 220 133 170 220 133 170 220
133 170 220 133 170 220 133 170 220 134 170 220
134 170 220 134 170 220 134 170 220 134 170 220
72 108 158 72 108 158 72 108 158 72 108 158
72 108 158 72 108 158 72 108 158 72 108 158
72 108 158 72 108 158 72 108 158 72 108 158
72 108 158 39 75 125 39 75 125 39 75 125
39 75 125 39 75 125 39 75 125 39 75 125
39 75 125 39 75 125 72 79 92 61 74 91
61 74 91 61 74 91 32 45 62 32 44 62
32 44 62 40 46 55 35 41 50 35 41 50
40 46 55 40 46 55 40 46 55 35 41 50
40 46 55 40 46 55 40 47 55 40 47 55
41 47 56 47 50 56 49 49 52 72 55 44
57 57 64 46 48 53 38 44 53 36 38 41
36 36 36 35 35 35 35 35 35 34 34 34
40 40 40 56 56 56 56 56 56 56 56 56
56 56 56 56 56 56 52 34 20 110 79 57
132 103 88 136 106 90 69 47 32 40 25 14
7 3 0 45 34 28 13 11 10 18 15 12
21 17 14 22 18 14 24 19 15 25 20 16
28 23 18 28 25 23 37 31 27 39 32 28
37 26 18 36 25 18 35 25 17 34 24 17
32 23 17 31 22 16 28 25 24 27 25 24
26 25 24 33 31 32 31 33 36 23 26 29
13 13 13 12 12 12 12 12 12 11 11 11
9 9 9 9 9 9 4 6 8 1 1 1
0 0 0 19 21 23 52 56 62 55 67 85
58 71 88 11 15 21 0 0 0 0 0 0
0 0 0 0 0 0 0 0 0 0 0 0
0 0 0 0 0 0 0 0 0 74 74 74
76 76 76 75 77 80 97 103 112 95 101 110
78 90 108 76 80 86 152 159 167 140 146 155
140 146 155 140 146 155 139 146 154 139 145 154
138 145 153 145 151 160 144 150 159 144 150 159
144 150 159 141 147 156 141 147 156 151 157 166
132 144 162 132 144 162 68 81 98 68 81 98
68 81 98 68 81 98 78 86 99 133 117 111
135 114 106 209 188 179 186 171 167 139 175 225
139 175 225 139 175 225 139 175 225 139 175 225
139 175 225 139 175 225 139 175 225 139 175 225
139 175 225 139 175 225 139 175 225 139 175 225
139 175 225 139 175 225 139 175 225 139 175 225
139 175 225 75 112 162 75 112 162 75 112 162
75 112 162 75 112 162 76 112 162 76 112 162
76 112 162 76 112 162 76 112 162 76 112 162
76 112 162 76 112 162 76 112 162 76 112 162
76 112 162 76 112 162 76 112 162 76 112 162
76 112 162 139 176 226 139 176 226 139 176 226
139 176 226 140 176 226 140 176 226 140 176 226
76 112 162 76 112 162 76 112 162 76 112 162
76 112 162 76 112 162 76 112 162 76 112 162
76 112 162 76 112 162 76 112 162 76 112 162
76 112 162 76 112 162 76 112 162 76 112 162
76 112 162 76 112 162 76 112 162 76 112 162
132 168 219 132 168 219 132 168 219 132 169 219
132 169 219 132 169 219 132 169 219 132 169 219
132 169 219 133 169 219 133 169 219 133 169 219
133 169 219 133 169 219 133 169 219 133 169 219
133 169 219 133 169 219 133 169 219 133 169 219
133 169 219 71 107 158 71 107 158 71 107 158
71 108 158 71 108 158 71 108 158 133 169 220
133 169 220 133 169 220 133 170 220 133 170 220
133 170 220 133 170 220 133 170 220 133 170 220
134 170 220 134 170 220 134 170 220 134 170 220
134 170 220 134 170 220 134 170 220 134 170 220
134 170 220 134 170 220 134 170 220 134 170 220
72 108 158 72 108 158 72 108 158 72 108 158
72 108 158 72 108 158 72 108 158 72 108 158
72 108 158 72 108 158 72 108 158 72 108 158
72 108 158 72 108 158 72 108 158 39 75 125
39 75 125 39 75 125 39 75 125 68 104 154
68 104 154 68 104 154 73 80 92 61 74 91
61 74 91 61 74 91 61 74 91 32 45 62
32 45 62 40 46 55 35 41 50 35 41 50
40 46 55 40 46 55 40 46 55 35 41 50
40 46 55 40 47 55 40 47 55 41 47 56
41 47 56 41 47 56 48 51 57 54 54 58
69 63 65 67 62 65 56 53 54 44 48 55
37 39 42 37 39 41 36 36 36 35 35 35
35 35 35 40 40 40 68 68 68 66 66 66
56 56 56 56 56 56 56 56 56 28 28 28
28 28 28 28 28 28 48 32 20 99 70 49
119 93 79 129 99 83 123 96 81 83 59 43
53 27 6 55 39 28 23 13 4 13 6 1
23 13 5 28 17 8 42 32 27 31 22 15
9 9 9 9 9 9 9 9 9 9 9 9
9 9 9 5 3 1 4 2 0 4 2 0
9 7 4 12 13 15 12 16 22 8 8 8
1 1 1 1 1 1 1 1 1 6 7 9
17 20 23 59 63 69 55 67 85 59 72 89
61 73 91 12 17 23 0 0 0 0 0 0
0 0 0 0 0 0 0 0 0 0 0 0
0 0 0 0 0 0 0 0 0 0 0 0
0 0 0 74 74 74 77 77 77 75 77 80
97 99 102 98 104 113 145 151 160 131 144 161
131 144 161 145 151 160 141 147 156 141 147 156
141 147 156 140 147 155 140 146 155 140 146 155
139 145 154 145 151 160 145 151 160 144 151 159
153 159 168 141 148 156 141 147 156 141 147 156
132 145 162 132 145 162 132 145 162 132 145 162
69 81 99 72 83 99 78 86 100 180 168 167
191 174 168 200 181 174 175 157 145 139 175 225
139 175 225 139 175 225 139 175 225 139 175 225
139 175 225 139 175 225 139 175 226 139 175 226
139 175 226 139 175 226 139 175 226 139 175 226
139 176 226 139 176 226 139 176 226 139 176 226
139 176 226 139 176 226 139 176 226 76 112 162
76 112 162 76 112 162 76 112 162 76 112 162
76 112 162 76 112 162 76 112 162 76 112 162
76 112 162 76 112 162 76 112 162 76 112 162
76 112 162 76 112 162 76 112 162 140 176 226
140 176 226 140 176 226 140 176 226 140 176 226
140 176 226 140 176 226 140 176 226 140 176 226
140 176 226 140 176 226 76 112 162 76 112 162
76 112 162 76 112 162 76 112 162 76 112 162
76 112 162 76 112 163 76 112 163 76 112 163
76 112 163 76 112 163 76 112 163 76 112 163
76 112 163 76 112 163 76 112 163 76 112 163
132 169 219 132 169 219 132 169 219 133 169 219
133 169 219 133 169 219 133 169 219 133 169 219
133 169 219 133 169 219 133 169 219 133 169 219
133 169 219 133 169 219 133 169 219 133 169 219
133 169 219 133 169 219 133 169 219 133 169 220
133 169 220 133 169 220 71 108 158 71 108 158
133 170 220 133 170 220 133 170 220 133 170 220
133 170 220 133 170 220 134 170 220 134 170 220
134 170 220 134 170 220 134 170 220 134 170 220
134 170 220 134 170 220 134 170 220 134 170 220
134 170 220 134 170 220 134 170 220 134 170 220
134 170 220 134 170 220 134 170 220 134 170 220
134 170 221 72 108 158 72 108 158 72 108 158
72 108 158 72 108 158 72 108 158 72 108 158
72 108 158 72 108 158 72 108 158 72 108 158
72 108 158 72 108 158 72 108 158 72 108 158
135 171 221 135 171 221 68 104 154 68 104 154
68 104 154 68 104 154 61 74 91 61 74 91
61 74 91 61 74 91 61 74 91 61 74 91
32 45 62 40 47 55 35 41 50 35 41 50
40 46 55 40 46 55 40 46 55 35 42 50
40 47 55 41 47 56 41 47 56 41 47 56
41 47 56 41 48 56 42 48 57 48 51 58
53 54 58 56 56 64 75 66 66 61 59 64
51 52 56 42 48 56 38 40 43 39 40 42
37 37 37 36 36 36 40 40 40 69 69 69
40 40 40 38 38 38 28 28 28 28 28 28
28 28 28 28 28 28 28 28 28 28 28 28
28 28 28 28 28 28 0 0 0 34 24 16
62 45 34 98 70 51 111 88 77 115 91 79
119 93 80 121 94 80 141 113 98 112 88 77
100 72 53 82 60 44 81 59 44 27 32 38
27 31 37 26 30 37 35 39 45 34 39 45
38 51 68 83 95 113 80 92 110 82 95 112
62 74 92 63 75 93 60 65 71 16 21 27
14 16 19 0 0 0 0 0 0 0 0 0
0 0 0 0 0 0 0 0 0 0 0 0
0 0 0 0 0 0 0 0 0 0 0 0
0 0 0 0 0 0 0 0 0 37 37 37
68 68 68 65 67 70 152 154 157 153 159 168
159 166 174 132 144 162 132 144 162 132 144 162
146 153 161 143 149 158 142 149 157 142 148 157
142 148 157 141 147 156 141 147 156 140 146 155
140 146 155 146 152 161 154 160 169 153 160 168
153 159 168 142 148 157 142 148 157 141 147 156
132 145 162 132 145 162 132 145 162 132 145 162
133 145 163 137 147 163 142 150 164 172 165 167
186 172 168 192 175 169 139 175 226 139 175 226
139 175 226 139 176 226 139 176 226 139 176 226
139 176 226 139 176 226 139 176 226 139 176 226
140 176 226 140 176 226 140 176 226 140 176 226
140 176 226 140 176 226 140 176 226 140 176 226
140 176 226 140 176 226 140 176 226 140 176 226
76 112 162 76 112 162 76 112 162 76 112 162
76 112 162 76 112 162 76 112 162 76 112 162
76 112 163 76 112 163 76 112 163 76 112 163
76 112 163 140 176 226 140 176 227 140 176 227
140 176 227 140 176 227 140 176 227 140 176 227
140 176 227 140 176 227 140 176 227 140 176 227
140 176 227 140 176 227 140 176 227 140 176 227
76 113 163 76 113 163 76 113 163 76 113 163
76 113 163 76 113 163 76 113 163 76 113 163
76 113 163 76 113 163 76 113 163 76 113 163
76 113 163 76 113 163 76 113 163 76 113 163
133 169 219 133 169 219 133 169 219 133 169 219
133 169 219 133 169 219 133 169 219 133 169 219
133 169 219 133 169 219 133 169 219 133 169 219
133 169 220 133 169 220 133 169 220 133 169 220
133 169 220 133 170 220 133 170 220 133 170 220
133 170 220 71 108 158 71 108 158 134 170 220
134 170 220 134 170 220 134 170 220 134 170 220
134 170 220 134 170 220 134 170 220 134 170 220
134 170 220 134 170 220 134 170 220 134 170 220
134 170 220 134 170 220 134 170 220 134 170 220
134 170 220 134 170 221 134 170 221 134 170 221
134 170 221 134 170 221 134 171 221 134 171 221
134 171 221 134 171 221 72 108 158 72 108 158
72 108 158 72 108 158 72 108 158 72 108 158
72 108 158 72 108 158 72 108 158 72 108 158
72 108 159 135 171 221 135 171 221 135 171 221
135 171 221 135 171 221 135 171 221 135 171 221
68 104 154 68 104 154 61 74 91 61 74 91
61 74 91 61 74 91 61 74 91 61 74 91
61 74 91 40 47 55 51 57 66 35 41 50
40 46 55 40 47 55 40 47 55 35 42 50
36 42 51 41 47 56 41 47 56 41 47 56
41 48 56 42 48 57 43 49 57 40 45 53
42 46 53 47 49 54 52 51 55 68 62 65
71 64 66 58 58 64 54 54 58 45 50 57
39 41 44 41 39 37 66 66 66 70 70 70
69 69 69 41 41 41 41 41 41 41 41 41
38 38 38 28 28 28 28 28 28 28 28 28
28 28 28 28 28 28 28 28 28 28 28 28
28 28 28 28 28 28 28 28 28 28 28 28
0 0 0 0 0 0 0 0 0 0 0 0
0 0 0 9 9 9 9 9 9 9 9 9
9 9 9 9 9 9 9 9 9 9 9 9
0 0 0 0 0 0 0 0 0 0 0 0
0 0 0 0 0 0 0 0 0 0 0 0
0 0 0 0 0 0 0 0 0 0 0 0
0 0 0 0 0 0 27 27 27 27 27 27
27 27 27 27 27 27 27 27 27 27 27 27
27 27 27 64 64 64 70 70 70 65 67 70
90 92 95 91 97 106 97 103 112 132 144 162
132 144 162 132 144 162 158 165 173 159 166 174
151 157 166 150 157 165 143 150 158 143 149 158
142 149 157 142 148 157 141 148 156 141 147 156
145 151 160 144 151 159 155 161 170 154 160 169
153 160 168 142 149 157 142 148 157 142 148 157
133 145 163 133 145 163 133 145 163 69 81 99
71 82 99 75 84 100 80 87 100 173 165 167
191 175 170 139 176 226 140 176 226 140 176 226
140 176 226 140 176 226 140 176 226 140 176 226
140 176 226 140 176 226 140 176 226 140 176 226
140 176 226 140 176 226 140 176 226 140 176 226
140 176 226 140 176 226 140 176 226 140 176 226
140 176 226 140 176 227 140 176 227 140 176 227
140 176 227 140 176 227 76 112 163 76 112 163
76 113 163 76 113 163 76 113 163 76 113 163
76 113 163 76 113 163 76 113 163 140 177 227
140 177 227 140 177 227 140 177 227 140 177 227
140 177 227 141 177 227 141 177 227 141 177 227
141 177 227 141 177 227 141 177 227 141 177 227
141 177 227 141 177 227 141 177 227 141 177 227
141 177 227 77 113 163 77 113 163 77 113 163
77 113 163 77 113 163 77 113 163 77 113 163
77 113 163 77 113 163 77 113 163 77 113 163
77 113 163 77 113 163 77 113 163 77 113 163
133 169 219 133 169 219 133 169 219 133 169 219
133 169 219 133 169 219 133 169 220 133 169 220
133 169 220 133 169 220 133 169 220 133 170 220
133 170 220 133 170 220 133 170 220 133 170 220
133 170 220 134 170 220 72 108 158 72 108 158
72 108 158 72 108 158 72 108 158 134 170 220
134 170 220 134 170 220 134 170 220 134 170 220
134 170 220 134 170 220 134 170 220 134 170 220
134 170 220 134 170 220 134 170 221 134 170 221
134 170 221 134 170 221 134 170 221 134 171 221
134 171 221 134 171 221 134 171 221 134 171 221
134 171 221 134 171 221 135 171 221 135 171 221
135 171 221 135 171 221 135 171 221 72 108 158
72 108 158 72 108 159 72 108 159 72 108 159
72 108 159 72 108 159 135 171 221 135 171 221
135 171 221 135 171 221 135 171 221 135 171 221
135 171 221 135 171 221 135 171 222 135 171 222
135 171 222 135 171 222 129 141 159 62 74 92
62 74 92 61 74 91 61 74 91 61 74 91
61 74 91 70 76 85 51 57 66 35 42 50
40 47 55 41 47 55 41 47 56 36 42 51
36 42 51 36 42 51 41 47 56 41 48 56
42 48 57 42 48 57 42 49 57 39 44 53
40 45 53 42 46 54 46 49 55 51 51 56
64 60 61 71 64 66 72 64 66 88 87 93
85 85 88 76 80 87 70 72 75 68 70 72
75 75 75 72 72 72 43 43 43 37 37 37
37 37 37 36 36 36 35 35 35 33 33 33
33 33 33 28 28 28 28 28 28 28 28 28
28 28 28 28 28 28 28 28 28 28 28 28
28 28 28 28 28 28 28 28 28 28 28 28
28 28 28 27 27 27 27 27 27 27 27 27
27 27 27 27 27 27 27 27 27 27 27 27
27 27 27 55 55 55 55 55 55 55 55 55
55 55 55 55 55 55 55 55 55 55 55 55
27 27 27 27 27 27 27 27 27 27 27 27
27 27 27 27 27 27 27 27 27 27 27 27
27 27 27 27 27 27 65 65 65 70 70 70
65 67 70 65 67 70 92 94 97 101 108 116
98 104 113 68 81 98 68 81 98 68 81 98
159 165 174 161 167 176 161 167 176 161 167 176
161 167 176 151 157 166 144 150 159 148 154 163
148 154 163 147 153 162 146 153 161 146 152 161
145 152 160 145 151 160 155 161 170 155 161 170
154 160 169 143 149 158 153 159 168 142 148 157
69 82 99 69 82 99 69 82 99 69 82 99
72 83 99 76 85 100 82 88 100 124 110 106
140 176 226 140 176 226 140 176 226 140 176 226
140 176 226 140 176 226 140 176 226 140 176 226
140 176 226 140 176 226 140 176 227 140 176 227
140 176 227 140 176 227 140 176 227 140 177 227
140 177 227 140 177 227 140 177 227 140 177 227
140 177 227 140 177 227 140 177 227 141 177 227
141 177 227 141 177 227 141 177 227 77 113 163
77 113 163 77 113 163 77 113 163 77 113 163
77 113 163 141 177 227 141 177 227 141 177 227
141 177 227 141 177 227 141 177 227 141 177 227
141 177 227 141 177 227 141 177 227 141 177 227
141 177 227 141 177 227 141 177 227 141 177 227
141 177 227 141 177 227 141 177 227 141 177 227
141 177 227 141 177 227 141 177 227 77 113 163
77 113 163 77 113 163 77 113 163 77 113 163
77 113 163 77 113 163 77 113 163 77 113 163
77 113 163 77 113 163 77 113 163 77 113 163
133 169 220 133 169 220 133 169 220 133 169 220
133 169 220 133 170 220 133 170 220 133 170 220
133 170 220 133 170 220 133 170 220 134 170 220
134 170 220 134 170 220 134 170 220 72 108 158
72 108 158 72 108 158 72 108 158 72 108 158
72 108 158 72 108 158 72 108 158 72 108 158
134 170 220 134 170 220 134 170 220 134 170 221
134 170 221 134 170 221 134 170 221 134 170 221
134 170 221 134 171 221 134 171 221 134 171 221
134 171 221 134 171 221 134 171 221 135 171 221
135 171 221 135 171 221 135 171 221 135 171 221
135 171 221 135 171 221 135 171 221 135 171 221
135 171 221 135 171 221 135 171 221 72 108 159
72 108 159 72 108 159 72 108 159 72 108 159
135 171 221 135 171 221 135 171 221 135 171 222
135 171 222 135 171 222 135 171 222 135 171 222
135 172 222 135 172 222 135 172 222 135 172 222
135 172 222 135 172 222 129 142 159 129 142 159
129 142 159 129 142 159 62 74 92 61 74 91
61 74 91 70 76 85 70 76 85 40 47 55
40 47 55 42 48 56 42 48 56 37 43 51
36 42 51 36 43 51 36 43 51 42 48 57
42 48 57 42 49 57 38 44 53 38 44 53
39 45 54 41 46 54 42 47 55 45 49 56
78 80 85 82 82 86 88 85 86 99 93 94
102 94 95 91 88 93 92 88 89 84 85 90
76 81 89 75 77 80 70 72 74 41 41 41
40 40 40 38 38 38 37 37 37 37 37 37
36 36 36 36 36 36 35 35 35 33 33 33
33 33 33 33 33 33 28 28 28 28 28 28
28 28 28 28 28 28 28 28 28 28 28 28
28 28 28 28 28 28 28 28 28 27 27 27
27 27 27 27 27 27 27 27 27 27 27 27
27 27 27 27 27 27 55 55 55 55 55 55
55 55 55 27 27 27 27 27 27 27 27 27
27 27 27 27 27 27 27 27 27 27 27 27
27 27 27 27 27 27 27 27 27 66 66 66
69 69 69 65 67 71 65 68 71 70 73 76
92 99 107 90 96 105 84 90 99 68 81 98
68 81 98 68 81 98 97 103 112 98 105 113
99 105 114 99 105 114 162 169 177 162 168 177
161 168 176 161 167 176 149 156 164 149 155 164
148 155 163 148 154 163 147 153 162 146 153 161
146 152 161 156 162 171 156 162 171 155 161 170
154 161 169 143 149 158 89 96 104 89 95 104
69 82 99 69 82 99 69 82 99 71 83 100
74 84 100 78 86 100 84 89 101 76 112 162
76 112 162 140 176 227 140 176 227 140 176 227
140 176 227 140 177 227 140 177 227 140 177 227
140 177 227 140 177 227 140 177 227 140 177 227
141 177 227 141 177 227 141 177 227 141 177 227
141 177 227 141 177 227 141 177 227 141 177 227
141 177 227 141 177 227 141 177 227 141 177 227
141 177 227 141 177 227 141 177 227 141 177 227
141 177 227 77 113 163 77 113 163 141 177 227
141 177 227 141 177 227 141 177 228 141 177 228
141 177 228 141 177 228 141 177 228 141 177 228
141 177 228 141 177 228 141 177 228 141 177 228
141 178 228 141 178 228 141 178 228 141 178 228
141 178 228 141 178 228 141 178 228 141 178 228
141 178 228 141 178 228 141 178 228 141 178 228
141 178 228 77 113 164 77 113 164 77 113 164
77 113 164 77 113 164 77 113 164 77 113 164
77 113 164 77 113 164 77 113 164 77 113 164
133 170 220 133 170 220 133 170 220 133 170 220
134 170 220 134 170 220 134 170 220 134 170 220
134 170 220 134 170 220 134 170 220 134 170 220
72 108 158 72 108 158 72 108 158 72 108 158
72 108 158 72 108 158 72 108 158 72 108 158
72 108 158 72 108 158 72 108 158 72 108 158
134 170 221 134 170 221 134 171 221 134 171 221
134 171 221 134 171 221 134 171 221 134 171 221
134 171 221 135 171 221 135 171 221 135 171 221
135 171 221 135 171 221 135 171 221 135 171 221
135 171 221 135 171 221 135 171 221 135 171 221
135 171 221 135 171 221 135 171 221 135 171 221
135 171 221 135 171 221 135 171 221 135 171 221
72 109 159 135 171 222 135 171 222 135 171 222
135 171 222 135 172 222 135 172 222 135 172 222
135 172 222 135 172 222 135 172 222 135 172 222
135 172 222 136 172 222 136 172 222 136 172 222
136 172 222 136 172 222 129 142 159 129 142 159
129 142 159 129 142 159 129 142 159 129 142 159
129 142 159 70 76 85 70 76 85 70 76 85
41 47 56 43 48 56 43 48 56 38 43 51
38 43 51 37 43 52 37 43 52 37 43 52
42 49 57 43 49 58 38 44 53 39 45 53
39 45 54 40 46 54 70 76 84 72 77 84
73 78 85 75 79 86 79 81 87 83 84 88
89 87 88 96 91 94 108 98 97 99 93 95
102 95 92 97 95 97 89 92 97 82 88 95
44 46 49 42 44 46 42 43 45 42 42 42
40 40 40 39 39 39 38 38 38 37 37 37
37 37 37 36 36 36 36 36 36 36 36 36
35 35 35 33 33 33 33 33 33 33 33 33
33 33 33 33 33 33 28 28 28 28 28 28
28 28 28 27 27 27 27 27 27 27 27 27
27 27 27 27 27 27 27 27 27 27 27 27
27 27 27 37 37 37 37 37 37 37 37 37
37 37 37 34 34 34 34 34 34 34 34 34
75 75 75 74 74 74 70 70 70 71 73 76
93 95 98 94 100 109 92 98 107 86 93 101
68 81 98 69 81 99 69 81 99 69 81 99
99 105 114 100 106 115 100 107 115 101 107 116
100 106 115 100 106 115 99 105 114 163 169 178
162 168 177 162 168 177 150 156 165 149 156 164
149 155 164 148 155 163 148 154 163 147 153 162
146 153 161 157 163 172 156 162 171 155 162 170
91 97 106 90 96 105 79 85 94 69 82 99
69 82 99 70 82 100 70 82 100 73 84 100
76 85 100 80 87 101 86 90 101 76 112 163
76 113 163 76 113 163 76 113 163 141 177 227
141 177 227 141 177 227 141 177 227 141 177 227
141 177 227 141 177 227 141 177 227 141 177 227
141 177 227 141 177 227 141 177 227 141 177 227
141 177 227 141 177 227 141 177 227 141 177 227
141 177 228 141 177 228 141 177 228 141 177 228
141 177 228 141 177 228 141 178 228 141 178 228
141 178 228 77 113 163 141 178 228 141 178 228
141 178 228 141 178 228 141 178 228 141 178 228
142 178 228 142 178 228 142 178 228 142 178 228
142 178 228 142 178 228 142 178 228 142 178 228
142 178 228 142 178 228 142 178 228 142 178 228
142 178 228 142 178 228 142 178 228 142 178 228
142 178 228 142 178 228 142 178 228 142 178 228
142 178 228 142 178 228 77 114 164 77 114 164
77 114 164 77 114 164 77 114 164 77 114 164
77 114 164 77 114 164 77 114 164 77 114 164
134 170 220 134 170 220 134 170 220 134 170 220
134 170 220 134 170 220 134 170 220 134 170 220
134 170 220 72 108 158 72 108 158 72 108 158
72 108 158 72 108 158 72 108 158 72 108 158
72 108 158 72 108 158 72 108 158 72 108 158
72 108 158 72 108 158 72 108 158 72 108 158
72 108 158 134 171 221 135 171 221 135 171 221
135 171 221 135 171 221 135 171 221 135 171 221
135 171 221 135 171 221 135 171 221 135 171 221
135 171 221 135 171 221 135 171 221 135 171 221
135 171 221 135 171 221 135 171 221 135 171 221
135 171 221 135 171 222 135 171 222 135 171 222
135 171 222 135 171 222 72 109 159 72 109 159
72 109 159 135 172 222 135 172 222 135 172 222
135 172 222 135 172 222 136 172 222 136 172 222
136 172 222 136 172 222 136 172 222 136 172 222
136 172 222 136 172 222 136 172 222 136 172 222
136 172 222 136 172 222 129 142 159 129 142 159
129 142 159 129 142 159 130 142 160 130 142 160
130 142 160 130 142 160 148 155 163 138 144 153
138 142 149 45 49 56 44 49 56 39 44 51
39 44 52 39 44 52 38 44 52 37 44 52
43 49 58 44 50 58 39 45 53 68 74 83
69 75 83 69 75 84 70 76 84 70 76 85
72 77 85 73 78 86 75 79 87 76 80 87
81 83 89 84 85 90 87 87 90 112 106 106
101 94 96 111 102 102 98 92 95 104 96 93
101 97 97 67 67 71 56 59 65 50 55 63
45 47 50 43 45 47 46 43 41 42 42 42
42 42 42 41 41 41 40 40 40 39 39 39
38 38 38 38 38 38 37 37 37 37 37 37
36 36 36 36 36 36 36 36 36 36 36 36
36 36 36 36 36 36 35 35 35 35 35 35
63 63 63 69 69 69 69 69 69 69 69 69
40 40 40 40 40 40 35 35 35 38 38 38
37 37 37 72 74 77 72 74 77 72 74 77
72 74 77 95 101 110 93 100 108 90 96 105
95 101 110 69 81 99 69 81 99 69 81 99
69 81 99 98 104 113 101 107 116 102 108 117
102 108 117 102 108 117 102 108 117 101 107 116
101 107 116 100 107 115 100 106 115 99 106 114
163 169 178 162 169 177 162 168 177 150 156 165
149 156 164 149 155 164 148 155 163 148 154 163
147 153 162 157 163 172 92 99 107 81 87 96
91 97 106 90 97 105 79 85 94 70 82 100
70 82 100 70 82 100 72 83 100 75 85 100
78 86 101 82 88 101 88 92 102 76 113 163
77 113 163 77 113 163 77 113 163 77 113 163
141 177 227 141 177 227 141 177 227 141 177 227
141 177 227 141 177 228 141 177 228 141 177 228
141 177 228 141 177 228 141 178 228 141 178 228
141 178 228 141 178 228 141 178 228 141 178 228
141 178 228 141 178 228 142 178 228 142 178 228
142 178 228 142 178 228 142 178 228 77 114 164
77 114 164 77 114 164 77 114 164 77 114 164
142 178 228 142 178 228 142 178 228 142 178 228
142 178 228 142 178 228 142 178 228 142 178 228
142 178 228 142 178 228 142 178 228 142 178 228
142 178 228 142 178 228 142 178 228 142 178 228
142 178 228 142 178 228 142 178 228 142 178 229
142 178 229 142 178 229 142 178 229 142 178 229
142 178 229 142 178 229 142 178 229 142 178 229
78 114 164 78 114 164 78 114 164 78 114 164
78 114 164 78 114 164 78 114 164 78 114 164
134 170 220 134 170 220 134 170 220 134 170 220
134 170 220 134 170 220 72 108 158 72 108 158
72 108 158 72 108 158 72 108 158 72 108 158
72 108 158 72 108 158 72 108 158 72 108 158
72 108 158 72 108 158 72 108 158 72 108 158
72 108 158 72 108 158 72 108 158 72 108 158
72 108 158 72 108 158 135 171 221 135 171 221
135 171 221 135 171 221 135 171 221 135 171 221
135 171 221 135 171 221 135 171 221 135 171 221
135 171 221 135 171 221 135 171 222 135 171 222
135 171 222 135 171 222 135 171 222 135 171 222
135 172 222 135 172 222 135 172 222 72 109 159
72 109 159 72 109 159 72 109 159 73 109 159
73 109 159 73 109 159 136 172 222 136 172 222
136 172 222 136 172 222 136 172 222 136 172 222
136 172 222 136 172 222 136 172 222 136 172 222
136 172 222 136 172 222 136 172 222 136 172 222
136 172 222 136 172 222 130 142 160 130 142 160
130 142 160 130 142 160 130 142 160 130 142 160
130 142 160 130 142 160 148 155 163 138 145 153
139 143 149 139 143 149 80 84 91 75 79 86
74 79 86 40 45 52 40 45 52 39 45 53
39 45 53 74 79 88 69 75 83 69 75 83
69 75 84 70 76 84 70 76 84 71 77 85
71 77 85 72 78 86 73 79 87 75 80 87
76 81 88 77 82 89 80 84 90 84 86 91
92 93 97 95 94 97 115 108 106 100 94 97
122 112 111 114 106 107 69 64 67 76 69 66
73 69 70 69 68 71 50 57 65 50 56 65
49 55 64 49 51 53 44 46 49 43 45 48
43 44 47 46 47 49 46 46 48 39 41 44
41 41 41 43 43 43 43 43 43 43 43 43
43 43 43 42 42 42 70 70 70 70 70 70
65 67 70 65 67 70 69 69 69 65 67 70
65 67 70 138 140 143 74 76 79 74 76 79
75 81 90 95 101 110 93 99 108 89 95 104
85 91 100 69 81 99 69 81 99 69 81 99
69 81 99 69 81 99 97 103 112 91 97 106
92 98 107 92 98 107 103 110 118 103 110 118
103 109 118 103 109 118 102 108 117 102 108 117
101 108 116 101 107 116 100 107 115 100 106 115
99 106 114 99 105 114 162 169 177 151 157 166
150 156 165 149 156 164 149 155 164 84 90 99
83 89 98 82 89 97 82 88 97 81 87 96
91 98 106 91 97 106 90 96 105 70 83 100
70 83 100 71 83 100 74 84 100 76 86 101
80 88 101 84 90 102 90 93 102 77 113 163
77 113 163 77 113 163 77 113 163 77 113 163
77 113 163 77 113 163 141 178 228 141 178 228
141 178 228 141 178 228 141 178 228 142 178 228
142 178 228 142 178 228 142 178 228 142 178 228
142 178 228 142 178 228 142 178 228 142 178 228
142 178 228 142 178 228 142 178 228 142 178 228
142 178 228 78 114 164 78 114 164 78 114 164
78 114 164 78 114 164 78 114 164 78 114 164
78 114 164 78 114 164 142 178 229 142 178 229
142 178 229 142 178 229 142 179 229 142 179 229
142 179 229 142 179 229 142 179 229 142 179 229
142 179 229 142 179 229 142 179 229 142 179 229
142 179 229 142 179 229 142 179 229 142 179 229
142 179 229 142 179 229 143 179 229 143 179 229
143 179 229 143 179 229 143 179 229 143 179 229
143 179 229 78 114 164 78 114 164 78 114 164
78 114 164 78 114 164 143 179 229 143 179 229
134 170 220 134 170 220 134 170 221 72 108 158
72 108 158 72 108 158 72 108 158 72 108 158
72 108 158 72 108 158 72 108 158 72 108 158
72 108 158 72 108 158 72 108 158 72 108 158
72 108 158 72 108 158 72 108 158 72 108 158
72 108 159 72 108 159 72 108 159 72 108 159
72 108 159 72 108 159 135 171 221 135 171 221
135 171 221 135 171 221 135 171 221 135 171 222
135 171 222 135 171 222 135 171 222 135 171 222
135 171 222 135 172 222 135 172 222 135 172 222
135 172 222 135 172 222 135 172 222 135 172 222
73 109 159 73 109 159 73 109 159 73 109 159
73 109 159 73 109 159 73 109 159 73 109 159
73 109 159 73 109 159 136 172 222 136 172 222
136 172 222 136 172 222 136 172 222 136 172 222
136 172 222 136 172 222 136 172 222 136 172 223
136 172 223 136 172 223 136 172 223 136 172 223
136 172 223 136 173 223 130 142 160 130 142 160
130 142 160 130 142 160 130 143 160 130 143 160
130 143 160 130 143 160 130 143 160 133 140 148
146 149 154 140 143 149 145 148 155 76 80 86
76 80 87 75 80 87 139 144 151 139 144 151
139 144 152 144 149 157 139 145 153 70 76 84
70 76 84 70 76 85 71 77 85 71 77 85
72 77 86 72 78 86 73 78 87 73 79 87
75 80 88 76 81 89 77 82 89 78 83 90
84 88 96 88 91 97 91 93 98 93 94 99
95 95 99 99 97 99 105 98 96 74 68 71
105 95 95 97 89 89 80 74 76 68 64 67
61 59 65 75 69 68 84 81 82 64 63 65
62 62 65 59 60 65 49 55 64 48 54 63
47 54 62 47 53 62 46 52 61 45 52 60
73 79 88 72 79 87 77 83 92 149 155 164
149 155 164 148 154 163 173 178 185 173 177 184
166 172 181 153 159 168 150 156 165 81 88 96
69 81 99 69 81 99 69 81 99 69 81 99
69 81 99 69 81 99 96 102 111 91 98 106
92 98 107 93 99 108 93 100 108 94 100 109
94 100 109 93 100 108 104 110 119 104 110 119
103 110 118 103 109 118 103 109 118 102 108 117
102 108 117 101 108 116 101 107 116 100 107 115
100 106 115 99 105 114 99 105 114 151 158 166
151 157 166 86 92 101 85 91 100 95 102 110
94 101 109 83 89 98 82 88 97 81 88 96
91 98 106 80 86 95 79 86 94 70 83 100
71 83 100 73 84 101 76 86 101 78 87 101
82 89 102 87 91 102 92 94 103 77 113 163
77 113 163 77 113 163 77 113 163 77 113 164
77 113 164 77 113 164 77 113 164 142 178 228
142 178 228 142 178 228 142 178 228 142 178 228
142 178 228 142 178 228 142 178 228 142 178 228
142 178 228 142 178 228 142 178 229 142 178 229
142 178 229 142 178 229 142 178 229 78 114 164
78 114 164 78 114 164 78 114 164 78 114 164
78 114 164 78 114 164 78 114 164 78 114 164
78 114 164 78 114 164 78 114 164 143 179 229
143 179 229 143 179 229 143 179 229 143 179 229
143 179 229 143 179 229 143 179 229 143 179 229
143 179 229 143 179 229 143 179 229 143 179 229
143 179 229 143 179 229 143 179 229 143 179 229
143 179 229 143 179 229 143 179 229 143 179 229
143 179 229 143 179 229 143 179 229 143 179 229
143 179 229 143 179 229 143 179 229 78 115 165
143 179 229 143 179 229 143 179 229 143 179 229
72 108 158 72 108 158 72 108 158 72 108 158
72 108 158 72 108 158 72 108 158 72 108 158
72 108 158 72 108 158 72 108 158 72 108 158
72 108 158 72 108 159 72 108 159 72 108 159
72 108 159 72 108 159 72 108 159 72 108 159
72 108 159 72 108 159 72 108 159 72 108 159
72 109 159 72 109 159 72 109 159 135 171 222
135 171 222 135 171 222 135 172 222 135 172 222
135 172 222 135 172 222 135 172 222 135 172 222
135 172 222 136 172 222 136 172 222 136 172 222
136 172 222 136 172 222 73 109 159 73 109 159
73 109 159 73 109 159 73 109 159 73 109 159
73 109 159 73 109 159 73 109 159 73 109 159
73 109 159 73 109 159 73 109 159 136 172 222
136 172 223 136 172 223 136 172 223 136 172 223
136 172 223 136 172 223 136 173 223 136 173 223
136 173 223 136 173 223 136 173 223 136 173 223
136 173 223 137 173 223 130 143 160 130 143 160
130 143 160 130 143 160 130 143 160 130 143 160
130 143 160 130 143 160 130 143 160 139 145 154
148 150 155 142 144 150 142 144 150 141 144 150
141 144 151 140 144 151 140 144 151 140 145 152
140 145 152 145 150 158 145 151 158 141 146 154
141 146 154 141 147 155 141 147 155 142 147 156
142 148 156 143 148 157 143 149 157 144 149 158
74 80 88 74 80 88 75 81 89 81 87 95
82 87 95 83 88 96 84 89 96 85 90 97
87 91 98 90 93 99 92 94 99 94 95 100
67 68 72 68 68 72 84 82 83 87 81 79
64 61 66 78 72 75 98 89 90 94 86 87
85 78 80 77 71 74 70 65 69 103 99 103
99 97 102 161 160 165 161 159 165 160 159 165
160 159 165 160 159 165 159 158 165 159 158 165
159 159 165 133 145 163 133 145 163 133 145 163
133 145 163 133 145 163 133 145 163 133 145 163
69 81 99 96 103 111 91 97 106 93 99 108
93 99 108 94 100 109 94 101 109 95 101 110
95 101 110 95 101 110 95 101 110 94 101 109
94 100 109 94 100 109 105 111 120 104 110 119
104 110 119 103 110 118 103 109 118 103 109 118
102 108 117 102 108 117 101 108 116 101 107 116
100 106 115 100 106 115 99 105 114 152 158 167
87 93 102 97 103 112 96 103 111 96 102 111
95 101 110 83 89 98 82 88 97 92 99 107
91 98 106 91 97 106 70 83 100 71 83 100
73 84 101 75 85 101 78 87 101 81 88 102
84 90 102 89 93 103 96 96 103 77 113 164
77 113 164 77 114 164 77 114 164 77 114 164
77 114 164 77 114 164 77 114 164 78 114 164
142 178 229 142 178 229 142 178 229 142 178 229
142 178 229 142 179 229 142 179 229 142 179 229
142 179 229 142 179 229 142 179 229 143 179 229
143 179 229 78 114 164 78 114 164 78 114 164
78 114 164 78 114 164 78 114 165 78 114 165
78 114 165 78 114 165 78 114 165 78 114 165
78 114 165 78 115 165 78 115 165 78 115 165
78 115 165 143 179 229 143 179 229 143 179 229
143 179 229 143 179 229 143 179 230 143 179 230
143 179 230 143 179 230 143 179 230 143 179 230
143 179 230 143 179 230 143 179 230 143 179 230
143 179 230 143 179 230 143 179 230 143 180 230
143 180 230 143 180 230 143 180 230 143 180 230
143 180 230 143 180 230 143 180 230 79 115 165
79 115 165 143 180 230 143 180 230 143 180 230
72 108 158 72 108 158 72 108 158 72 108 158
72 108 158 72 108 158 72 108 158 72 108 159
72 108 159 72 108 159 72 108 159 72 108 159
72 108 159 72 108 159 72 108 159 72 108 159
72 108 159 72 109 159 72 109 159 72 109 159
72 109 159 72 109 159 72 109 159 72 109 159
72 109 159 72 109 159 72 109 159 72 109 159
135 172 222 135 172 222 136 172 222 136 172 222
136 172 222 136 172 222 136 172 222 136 172 222
136 172 222 136 172 222 136 172 222 73 109 159
73 109 159 73 109 159 73 109 159 73 109 159
73 109 159 73 109 159 73 109 159 73 109 159
73 109 159 73 109 159 73 109 159 73 109 159
73 109 159 73 109 159 73 109 159 73 109 159
136 173 223 136 173 223 136 173 223 136 173 223
136 173 223 136 173 223 137 173 223 137 173 223
137 173 223 137 173 223 137 173 223 137 173 223
137 173 223 137 173 223 130 143 160 130 143 160
130 143 160 130 143 160 130 143 160 130 143 160
130 143 160 130 143 160 131 143 161 131 143 161
145 146 150 80 82 87 79 81 87 84 87 92
142 145 151 142 145 152 148 151 158 142 146 152
142 146 153 147 151 158 147 152 159 147 152 159
142 147 155 142 147 155 143 148 156 143 148 156
143 149 157 143 149 157 144 149 158 144 150 158
145 150 159 145 151 159 146 151 160 151 157 165
151 157 166 153 158 166 153 159 167 154 159 167
155 160 168 156 161 168 156 161 169 157 162 169
159 163 170 96 100 107 98 101 107 94 97 102
95 97 103 96 98 103 97 98 103 105 107 111
95 101 110 94 101 109 104 110 119 183 180 182
171 167 168 182 177 177 160 166 175 160 166 175
160 166 175 160 166 175 148 154 163 148 154 163
161 168 176 164 171 179 167 173 182 169 175 184
169 175 184 158 164 173 158 165 173 159 165 174
160 166 175 96 102 111 96 102 111 96 102 111
96 102 111 96 102 111 96 102 111 96 102 111
95 102 110 95 102 110 95 101 110 95 101 110
94 101 109 94 100 109 94 100 109 105 111 120
104 111 119 104 110 119 103 110 118 103 109 118
103 109 118 102 108 117 102 108 117 101 107 116
101 107 116 165 171 180 153 159 168 163 169 178
163 169 178 97 104 112 97 103 112 96 102 111
84 90 99 83 89 98 82 89 97 92 99 107
92 98 107 80 86 95 71 83 101 73 84 101
75 85 101 77 87 101 80 88 102 83 90 102
87 91 102 92 94 103 100 98 104 77 114 164
78 114 164 78 114 164 78 114 164 78 114 164
78 114 164 78 114 164 78 114 164 78 114 164
78 114 164 78 114 164 143 179 229 143 179 229
143 179 229 143 179 229 143 179 229 143 179 229
143 179 229 143 179 229 143 179 229 78 114 165
78 114 165 78 114 165 78 115 165 78 115 165
78 115 165 78 115 165 78 115 165 78 115 165
78 115 165 78 115 165 79 115 165 79 115 165
79 115 165 79 115 165 79 115 165 79 115 165
79 115 165 79 115 165 143 180 230 143 180 230
143 180 230 143 180 230 143 180 230 144 180 230
144 180 230 144 180 230 144 180 230 144 180 230
144 180 230 144 180 230 144 180 230 144 180 230
144 180 230 144 180 230 144 180 230 144 180 230
144 180 230 144 180 230 144 180 230 144 180 230
144 180 230 79 115 165 79 115 165 79 115 165
79 115 165 79 115 165 144 180 230 144 180 230
72 108 158 72 108 159 72 108 159 72 108 159
72 108 159 72 108 159 72 108 159 72 108 159
72 108 159 72 108 159 72 108 159 72 109 159
72 109 159 72 109 159 72 109 159 72 109 159
72 109 159 72 109 159 72 109 159 72 109 159
72 109 159 72 109 159 72 109 159 72 109 159
73 109 159 73 109 159 73 109 159 73 109 159
136 172 222 136 172 222 136 172 222 136 172 222
136 172 222 136 172 222 136 172 222 136 172 222
73 109 159 73 109 159 73 109 159 73 109 159
73 109 159 73 109 159 73 109 159 73 109 159
73 109 159 73 109 159 73 109 159 73 109 159
73 109 159 73 109 159 73 109 159 73 109 159
73 109 159 73 109 159 73 109 159 73 109 159
73 109 159 137 173 223 137 173 223 137 173 223
137 173 223 137 173 223 137 173 223 137 173 223
137 173 223 137 173 223 137 173 223 137 173 223
137 173 223 137 173 223 137 173 223 131 143 161
131 143 161 131 143 161 131 143 161 131 143 161
131 143 161 131 143 161 67 80 97 67 80 97
79 86 98 82 83 87 81 82 87 80 82 87
85 87 93 149 152 158 149 152 158 149 152 159
149 153 159 148 152 159 149 153 160 149 153 160
149 153 161 144 149 156 144 149 156 144 149 157
144 150 157 145 150 158 145 150 158 145 151 159
145 151 159 146 151 160 151 157 165 152 157 166
152 158 166 152 158 166 153 158 167 153 159 167
153 159 167 154 160 168 155 160 168 155 161 169
154 160 169 154 160 169 85 91 100 85 92 100
87 93 101 87 93 101 88 93 101 86 92 101
150 156 165 150 156 165 150 156 165 161 167 176
161 167 176 172 178 187 172 178 187 172 178 187
172 178 187 172 178 187 172 178 187 172 178 187
172 178 187 172 179 187 172 179 187 173 179 188
173 179 188 161 168 176 161 168 176 161 168 176
161 168 176 161 168 176 97 103 112 97 103 112
96 103 111 96 103 111 96 102 111 96 102 111
96 102 111 96 102 111 95 102 110 95 101 110
95 101 110 94 101 109 94 100 109 105 111 120
105 111 120 104 111 119 104 110 119 103 110 118
103 109 118 103 109 118 167 173 182 166 172 181
166 172 181 154 160 169 164 171 179 164 170 179
163 169 178 162 168 177 161 168 176 96 102 111
84 90 99 83 90 98 82 89 97 81 88 96
92 98 107 71 83 101 73 84 101 75 85 101
77 87 102 80 88 102 83 89 102 86 91 103
90 93 103 95 96 104 78 114 164 78 114 164
78 114 164 78 114 164 78 114 164 78 114 164
78 114 164 78 114 164 78 114 164 78 114 164
78 114 164 78 114 165 78 114 165 143 179 229
143 179 229 143 179 229 143 179 229 143 179 229
143 179 230 78 115 165 78 115 165 78 115 165
79 115 165 79 115 165 79 115 165 79 115 165
79 115 165 79 115 165 79 115 165 79 115 165
79 115 165 79 115 165 79 115 165 79 115 165
79 115 165 79 115 165 79 115 165 79 115 165
79 115 165 79 115 165 79 115 165 79 115 165
144 180 230 144 180 230 144 180 230 144 180 230
144 180 230 144 180 230 144 180 230 144 180 230
144 180 230 144 180 230 144 180 230 144 180 230
144 180 230 144 180 230 144 180 230 144 180 230
144 180 230 144 180 230 144 180 230 79 115 166
79 115 166 79 115 166 79 115 166 79 115 166
79 115 166 79 115 166 79 115 166 79 115 166
72 108 159 72 108 159 72 108 159 72 108 159
72 108 159 72 109 159 72 109 159 72 109 159
72 109 159 72 109 159 72 109 159 72 109 159
72 109 159 72 109 159 72 109 159 72 109 159
72 109 159 72 109 159 73 109 159 73 109 159
73 109 159 73 109 159 73 109 159 73 109 159
73 109 159 73 109 159 73 109 159 73 109 159
73 109 159 136 172 222 136 172 222 136 172 222
136 172 222 73 109 159 73 109 159 73 109 159
73 109 159 73 109 159 73 109 159 73 109 159
73 109 159 73 109 159 73 109 159 73 109 159
73 109 159 73 109 159 73 109 159 73 109 159
73 109 159 73 109 159 73 109 159 73 109 159
73 109 159 73 109 159 73 109 160 73 109 160
73 109 160 73 109 160 137 173 223 137 173 223
137 173 223 137 173 223 137 173 223 137 173 223
137 173 223 137 173 223 137 173 223 137 173 223
137 173 224 137 173 224 137 173 224 128 128 127
131 143 161 131 143 161 131 143 161 67 80 97
67 80 97 67 80 97 67 80 97 67 80 97
81 87 99 89 89 92 88 88 92 82 83 88
87 88 93 98 100 105 151 153 159 151 153 159
151 154 160 162 165 171 162 165 172 150 154 161
150 154 161 150 155 162 151 155 162 146 150 158
146 151 158 146 151 159 146 151 159 146 152 160
147 152 160 152 157 165 152 158 166 152 158 166
152 158 167 153 159 167 153 159 167 153 159 168
153 159 168 153 160 168 154 160 168 154 160 168
154 160 169 154 160 169 149 155 164 85 91 100
85 91 100 85 91 100 149 156 164 149 155 164
149 155 164 149 155 164 149 155 164 148 155 163
161 168 176 162 168 177 173 179 188 173 179 188
173 179 188 173 179 188 173 179 188 173 179 188
173 179 188 173 179 188 173 179 188 173 179 188
173 179 188 162 168 177 162 168 177 162 168 177
162 168 177 162 168 177 161 168 176 97 103 112
97 103 112 97 103 112 96 103 111 96 103 111
96 102 111 96 102 111 96 102 111 95 102 110
95 101 110 95 101 110 95 101 110 105 112 120
105 111 120 105 111 120 104 111 119 104 110 119
168 174 183 168 174 183 156 162 171 155 162 170
155 161 170 154 160 169 165 171 180 164 170 179
163 169 178 162 169 177 161 168 176 161 167 176
84 90 99 83 89 98 82 89 97 92 99 107
92 98 106 73 85 101 75 86 101 77 87 102
79 88 102 82 89 102 85 91 103 88 92 103
92 94 103 99 98 104 78 114 164 78 114 164
78 114 164 78 114 164 78 114 165 78 114 165
78 114 165 78 114 165 78 115 165 78 115 165
78 115 165 78 115 165 78 115 165 78 115 165
79 115 165 143 180 230 143 180 230 79 115 165
79 115 165 79 115 165 79 115 165 79 115 165
79 115 165 79 115 165 79 115 165 79 115 165
79 115 165 79 115 165 79 115 165 79 115 165
79 115 165 79 115 165 79 115 165 79 115 166
79 115 166 79 115 166 79 115 166 79 115 166
79 115 166 79 115 166 79 115 166 79 116 166
79 116 166 144 180 231 144 180 231 144 180 231
144 181 231 144 181 231 144 181 231 144 181 231
144 181 231 144 181 231 144 181 231 144 181 231
144 181 231 144 181 231 144 181 231 144 181 231
144 181 231 80 116 166 80 116 166 80 116 166
80 116 166 80 116 166 80 116 166 80 116 166
80 116 166 80 116 166 80 116 166 80 116 166
19 92 192 72 109 159 72 109 159 72 109 159
72 109 159 72 109 159 72 109 159 72 109 159
72 109 159 72 109 159 72 109 159 72 109 159
73 109 159 73 109 159 73 109 159 73 109 159
73 109 159 73 109 159 73 109 159 73 109 159
73 109 159 73 109 159 73 109 159 73 109 159
73 109 159 73 109 159 73 109 159 73 109 159
73 109 159 73 109 159 73 109 159 73 109 159
73 109 159 73 109 159 73 109 159 73 109 159
73 109 159 73 109 159 73 109 159 73 109 159
73 109 159 73 109 159 73 109 159 73 109 159
73 109 159 73 109 159 73 109 159 73 109 159
73 109 160 73 109 160 73 109 160 73 109 160
73 109 160 73 109 160 73 109 160 73 109 160
73 109 160 73 109 160 137 173 223 137 173 223
137 173 223 137 173 224 137 173 224 137 173 224
137 173 224 137 173 224 137 173 224 137 174 224
137 174 224 137 174 224 131 143 161 131 144 161
131 144 161 75 81 90 70 76 85 70 77 85
67 80 97 67 80 97 67 80 97 67 80 97
83 88 99 82 87 99 100 100 103 100 100 104
100 100 105 99 101 105 99 101 106 152 154 160
152 155 160 163 166 172 163 166 172 163 167 173
164 167 174 164 167 174 152 156 163 152 156 163
147 152 159 147 152 159 147 152 160 148 153 160
148 153 161 153 158 166 153 159 167 153 159 167
153 159 167 153 159 167 153 159 168 153 159 168
154 160 168 154 160 168 154 160 169 154 160 169
154 160 169 154 160 169 154 160 169 85 91 100
149 155 164 149 155 164 149 155 164 149 155 164
149 155 164 148 155 163 161 167 176 161 167 176
161 168 176 173 179 188 173 179 188 173 179 188
173 179 188 173 179 188 173 180 188 173 180 188
173 180 188 173 180 188 173 180 188 173 180 188
173 180 188 162 168 177 162 168 177 162 168 177
162 168 177 162 168 177 162 168 177 162 168 177
162 168 177 97 103 112 97 103 112 97 103 112
96 103 111 96 102 111 96 102 111 96 102 111
95 102 110 95 101 110 95 101 110 106 112 121
105 112 120 105 111 120 169 176 184 169 175 184
157 164 172 157 163 172 156 163 171 156 162 171
155 161 170 154 161 169 165 171 180 164 170 179
163 170 178 162 169 177 162 168 177 150 156 165
149 155 164 83 89 98 82 88 97 93 99 107
73 85 101 75 86 102 77 87 102 79 88 102
81 89 102 84 91 103 88 92 103 91 94 104
95 96 104 103 100 105 78 114 165 78 114 165
78 115 165 78 115 165 78 115 165 78 115 165
78 115 165 79 115 165 79 115 165 79 115 165
79 115 165 79 115 165 79 115 165 79 115 165
79 115 165 144 180 230 79 115 165 79 115 165
79 115 165 79 115 165 79 115 165 79 115 165
79 115 165 79 115 166 79 115 166 79 115 166
79 115 166 79 115 166 79 115 166 79 116 166
79 116 166 79 116 166 79 116 166 79 116 166
79 116 166 79 116 166 79 116 166 80 116 166
80 116 166 80 116 166 80 116 166 80 116 166
80 116 166 80 116 166 80 116 166 145 181 231
145 181 231 145 181 231 145 181 231 145 181 231
145 181 231 145 181 231 145 181 231 145 181 231
145 181 231 145 181 231 145 181 231 80 116 166
80 116 166 80 116 166 80 116 166 80 116 166
80 116 166 80 116 166 80 116 166 80 116 166
80 116 166 80 116 166 80 116 166 80 116 166
19 92 192 72 109 159 72 109 159 72 109 159
72 109 159 72 109 159 73 109 159 73 109 159
73 109 159 73 109 159 73 109 159 73 109 159
73 109 159 73 109 159 73 109 159 73 109 159
73 109 159 73 109 159 73 109 159 73 109 159
73 109 159 73 109 159 73 109 159 73 109 159
73 109 159 73 109 159 73 109 159 136 172 223
136 172 223 136 173 223 73 109 159 73 109 159
73 109 159 73 109 159 73 109 159 73 109 159
73 109 159 73 109 159 73 109 159 73 109 159
73 109 159 73 109 159 73 109 160 73 109 160
73 109 160 73 109 160 73 109 160 73 109 160
73 109 160 73 109 160 73 109 160 73 109 160
73 110 160 73 110 160 73 110 160 73 110 160
73 110 160 73 110 160 73 110 160 137 173 224
137 174 224 137 174 224 137 174 224 137 174 224
137 174 224 137 174 224 137 174 224 138 174 224
138 174 224 131 144 161 67 80 97 67 80 97
75 81 90 70 77 85 75 82 90 75 82 90
67 80 97 67 80 97 67 80 97 67 80 97
85 89 99 84 88 99 82 87 99 101 101 104
101 101 105 101 101 105 101 102 106 101 102 107
154 156 161 165 167 172 165 167 173 165 168 174
165 168 174 165 169 175 166 169 175 166 169 176
166 170 177 155 159 166 155 159 167 149 154 161
154 159 167 154 159 167 155 160 167 155 160 168
155 160 168 155 160 168 155 160 168 155 160 169
155 160 169 154 160 169 154 160 169 154 160 169
154 161 169 90 96 105 90 96 105 90 96 105
85 91 100 160 166 175 160 166 175 160 167 175
161 167 176 161 167 176 161 167 176 161 168 176
173 179 188 173 179 188 173 179 188 173 179 188
173 179 188 173 180 188 173 180 188 173 180 188
174 180 189 174 180 189 174 180 189 174 180 189
174 180 189 174 180 189 162 169 177 162 169 177
162 169 177 162 168 177 162 168 177 162 168 177
162 168 177 162 168 177 97 103 112 97 103 112
97 103 112 96 103 111 96 102 111 96 102 111
96 102 111 95 102 110 95 101 110 106 112 121
170 177 185 170 176 185 158 165 173 158 164 173
158 164 173 157 163 172 157 163 172 156 162 171
155 162 170 155 161 170 165 171 180 164 170 179
163 170 178 163 169 178 162 168 177 161 167 176
160 166 175 148 154 163 147 153 162 74 85 102
75 86 102 77 87 102 79 88 102 82 89 103
84 90 103 87 92 103 91 94 104 94 96 104
99 98 105 106 102 105 78 115 165 79 115 165
79 115 165 79 115 165 79 115 165 79 115 165
79 115 165 79 115 165 79 115 165 79 115 165
79 115 165 79 115 165 144 180 230 144 180 230
144 180 230 144 180 231 144 180 231 79 115 166
79 115 166 79 115 166 79 116 166 79 116 166
79 116 166 79 116 166 79 116 166 79 116 166
80 116 166 80 116 166 80 116 166 80 116 166
80 116 166 80 116 166 80 116 166 80 116 166
80 116 166 80 116 166 80 116 166 80 116 166
80 116 166 80 116 166 80 116 166 80 116 166
80 116 166 80 116 166 80 116 166 80 116 166
145 181 231 145 181 231 145 181 232 145 181 232
145 181 232 145 181 232 145 181 232 145 181 232
145 181 232 80 116 167 80 116 167 80 116 167
80 116 167 80 116 167 80 116 167 80 116 167
80 116 167 80 116 167 80 116 167 80 116 167
80 116 167 80 116 167 80 116 167 80 116 167
19 92 192 19 92 192 73 109 159 73 109 159
73 109 159 73 109 159 73 109 159 73 109 159
73 109 159 73 109 159 73 109 159 73 109 159
73 109 159 73 109 159 73 109 159 73 109 159
73 109 159 73 109 159 73 109 159 73 109 159
73 109 159 73 109 159 73 109 159 73 109 159
73 109 159 136 173 223 136 173 223 136 173 223
136 173 223 136 173 223 137 173 223 73 109 159
73 109 159 73 109 159 73 109 159 73 109 159
73 109 160 73 109 160 73 109 160 73 109 160
73 109 160 73 109 160 73 109 160 73 109 160
73 109 160 73 109 160 73 110 160 73 110 160
73 110 160 73 110 160 73 110 160 73 110 160
73 110 160 73 110 160 73 110 160 73 110 160
73 110 160 73 110 160 74 110 160 74 110 160
137 174 224 138 174 224 138 174 224 138 174 224
138 174 224 138 174 224 138 174 224 138 174 224
67 80 97 67 80 97 84 91 99 75 81 90
70 77 85 75 82 90 75 82 90 76 82 91
71 77 86 64 66 68 67 80 97 68 80 98
87 90 99 86 89 99 84 88 99 83 88 99
103 102 105 92 91 95 103 103 106 103 103 107
102 103 108 167 168 173 167 168 173 167 169 174
167 169 175 167 170 175 167 170 176 167 170 177
167 171 177 168 171 178 157 161 167 157 161 168
168 172 179 168 173 180 168 173 180 168 173 181
169 174 181 169 174 182 169 174 182 169 175 183
169 175 183 169 175 183 170 175 184 105 111 120
105 111 120 105 112 120 106 112 121 106 112 121
106 113 121 96 102 111 160 167 175 161 167 176
161 167 176 161 167 176 161 168 176 173 179 188
173 179 188 173 179 188 173 180 188 173 180 188
173 180 188 174 180 189 174 180 189 174 180 189
174 180 189 174 180 189 174 180 189 174 180 189
174 180 189 174 180 189 163 169 178 163 169 178
163 169 178 163 169 178 162 169 177 162 169 177
162 169 177 162 168 177 162 168 177 97 103 112
97 103 112 97 103 112 96 103 111 96 102 111
96 102 111 160 167 175 160 166 175 171 177 186
159 166 174 159 165 174 159 165 174 158 164 173
158 164 173 157 164 172 157 163 172 156 162 171
155 162 170 166 172 181 165 171 180 164 171 179
163 170 178 162 169 177 161 168 176 160 167 175
148 155 163 148 154 162 139 150 167 141 151 167
78 87 102 80 88 103 82 89 103 84 91 103
87 92 103 90 93 104 94 95 104 98 97 105
103 100 105 109 103 106 79 115 165 79 115 165
79 115 165 79 115 165 79 115 165 79 115 165
79 115 165 79 115 165 79 115 166 79 115 166
144 180 231 144 181 231 144 181 231 144 181 231
144 181 231 144 181 231 145 181 231 145 181 231
145 181 231 80 116 166 80 116 166 80 116 166
80 116 166 80 116 166 80 116 166 80 116 166
80 116 166 80 116 166 80 116 166 80 116 166
80 116 166 80 116 166 80 116 166 80 116 166
80 116 166 80 116 166 80 116 166 80 116 167
80 116 167 80 116 167 80 116 167 80 116 167
80 116 167 80 116 167 80 117 167 80 117 167
80 117 167 80 117 167 146 182 232 146 182 232
146 182 232 146 182 232 146 182 232 80 117 167
80 117 167 80 117 167 80 117 167 80 117 167
80 117 167 81 117 167 81 117 167 81 117 167
81 117 167 81 117 167 81 117 167 81 117 167
81 117 167 81 117 167 81 117 167 81 117 167
19 92 192 19 92 192 73 109 159 73 109 159
73 109 159 73 109 159 73 109 159 73 109 159
73 109 159 73 109 159 73 109 159 73 109 159
73 109 159 73 109 159 73 109 159 73 109 159
73 109 159 73 109 159 73 109 159 73 109 159
73 109 159 73 109 159 136 173 223 137 173 223
137 173 223 137 173 223 137 173 223 137 173 223
137 173 223 137 173 223 137 173 223 137 173 223
73 109 160 73 109 160 73 109 160 73 109 160
73 109 160 73 109 160 73 109 160 73 109 160
73 110 160 73 110 160 73 110 160 73 110 160
73 110 160 73 110 160 73 110 160 73 110 160
73 110 160 73 110 160 73 110 160 73 110 160
73 110 160 74 110 160 74 110 160 74 110 160
74 110 160 74 110 160 74 110 160 74 110 160
74 110 160 138 174 224 138 174 224 138 174 224
138 174 224 74 110 160 74 110 160 67 80 97
67 80 97 85 91 100 75 82 90 71 77 86
76 82 91 76 82 91 76 82 91 71 77 86
71 78 86 72 78 87 68 80 98 68 80 98
89 91 100 87 90 100 86 90 100 85 89 99
84 89 99 104 103 105 93 92 95 104 104 107
104 104 108 93 94 98 169 169 174 169 170 175
169 170 175 169 171 176 169 171 177 169 172 177
169 172 178 169 172 179 170 173 179 170 173 180
170 174 180 170 174 181 170 174 181 170 174 182
170 175 182 170 175 182 170 175 183 170 176 183
106 111 119 106 112 120 106 112 120 106 112 120
106 112 121 106 112 121 107 113 121 107 113 122
107 113 122 107 113 122 96 102 111 161 167 176
161 168 176 162 168 177 173 179 188 173 179 188
173 180 188 173 180 188 174 180 189 174 180 189
174 180 189 174 180 189 174 180 189 174 180 189
174 180 189 174 180 189 174 181 189 174 181 189
174 181 189 174 181 189 174 180 189 163 169 178
163 169 178 163 169 178 163 169 178 163 169 178
163 169 178 162 169 177 162 169 177 162 168 177
97 103 112 97 103 112 97 103 112 161 168 176
161 167 176 172 178 187 172 178 187 160 166 175
160 166 175 159 166 174 159 165 174 158 165 173
158 164 173 157 164 172 157 163 172 156 162 171
155 162 170 166 172 181 165 171 180 164 170 179
152 158 167 151 157 166 161 168 176 160 167 175
161 166 174 140 151 167 141 152 167 143 153 168
145 153 168 82 90 103 85 91 103 87 92 104
90 94 104 93 95 104 97 97 105 101 99 105
106 102 106 79 115 165 79 115 165 79 115 165
79 115 166 79 115 166 79 115 166 79 115 166
79 116 166 79 116 166 145 181 231 145 181 231
145 181 231 145 181 231 145 181 231 145 181 231
145 181 231 145 181 231 145 181 231 145 181 231
145 181 231 145 181 231 80 116 166 80 116 166
80 116 166 80 116 166 80 116 166 80 116 166
80 116 167 80 116 167 80 116 167 80 116 167
80 116 167 80 116 167 80 117 167 80 117 167
80 117 167 80 117 167 80 117 167 80 117 167
80 117 167 80 117 167 81 117 167 81 117 167
81 117 167 81 117 167 81 117 167 81 117 167
81 117 167 81 117 167 81 117 167 146 182 232
146 182 232 81 117 167 81 117 167 81 117 167
81 117 167 81 117 167 81 117 167 81 117 167
81 117 167 81 117 167 81 117 167 81 117 167
81 117 167 81 117 167 81 117 167 81 117 167
81 117 167 81 117 167 81 117 167 81 117 167
19 92 192 19 92 192 19 92 192 73 109 159
73 109 159 73 109 159 73 109 159 73 109 159
73 109 159 73 109 159 73 109 159 73 109 159
73 109 159 73 109 159 73 109 159 73 109 159
73 109 159 73 109 159 73 109 159 137 173 223
137 173 223 137 173 223 137 173 223 137 173 223
137 173 223 137 173 223 137 173 223 137 173 223
137 173 223 137 173 223 137 173 223 137 173 223
73 109 160 73 109 160 73 110 160 73 110 160
73 110 160 73 110 160 73 110 160 73 110 160
73 110 160 73 110 160 73 110 160 73 110 160
73 110 160 73 110 160 73 110 160 74 110 160
74 110 160 74 110 160 74 110 160 74 110 160
74 110 160 74 110 160 74 110 160 74 110 160
74 110 160 74 110 160 74 110 160 74 110 160
74 110 160 138 174 224 74 110 160 74 110 160
74 110 160 67 80 97 67 80 97 67 80 97
75 82 90 86 92 101 71 77 86 76 82 91
76 82 91 76 82 91 71 78 86 72 78 87
72 79 87 73 79 88 73 79 88 68 80 98
91 92 100 90 91 100 88 91 100 87 90 100
86 90 100 85 89 100 95 93 95 95 93 96
106 105 108 95 94 98 95 95 99 160 160 164
171 171 176 171 172 176 171 172 177 171 173 178
171 173 179 171 174 179 160 163 169 160 163 169
160 164 170 172 175 181 172 175 182 172 176 182
172 176 183 172 176 183 108 112 119 108 112 119
108 112 120 108 113 120 108 113 121 108 113 121
108 113 121 108 113 121 108 113 122 108 114 122
108 114 122 108 114 123 108 114 123 97 103 112
173 179 188 173 179 188 173 180 188 174 180 189
174 180 189 174 180 189 174 180 189 174 180 189
174 181 189 174 181 189 174 181 189 174 181 189
175 181 190 175 181 190 175 181 190 175 181 190
175 181 190 175 181 190 175 181 190 163 170 178
163 169 178 163 169 178 163 169 178 163 169 178
163 169 178 163 169 178 162 169 177 162 169 177
162 168 177 162 168 177 162 168 177 173 179 188
172 179 187 172 178 187 172 178 187 171 178 186
160 166 175 159 166 174 159 165 174 158 165 173
158 164 173 157 163 172 157 163 172 156 162 171
155 161 170 165 172 180 153 160 168 152 159 167
152 158 167 162 168 177 161 167 176 162 167 175
141 151 168 142 152 168 144 153 168 145 154 168
147 155 168 150 156 169 87 92 104 90 94 104
93 95 105 96 97 105 100 99 105 105 101 106
109 103 106 79 115 166 79 116 166 79 116 166
79 116 166 79 116 166 80 116 166 80 116 166
145 181 231 145 181 231 145 181 231 145 181 231
145 181 231 145 181 231 145 181 231 145 181 232
145 181 232 145 181 232 145 181 232 145 182 232
145 182 232 145 182 232 145 182 232 145 182 232
80 116 167 80 117 167 80 117 167 80 117 167
80 117 167 80 117 167 80 117 167 81 117 167
81 117 167 81 117 167 81 117 167 81 117 167
81 117 167 81 117 167 81 117 167 81 117 167
81 117 167 81 117 167 81 117 167 81 117 167
81 117 167 81 117 167 81 117 167 81 117 167
81 117 167 81 117 167 81 117 167 81 117 167
146 183 233 81 117 167 81 117 167 81 117 167
81 117 168 81 117 168 81 117 168 81 117 168
81 117 168 81 117 168 81 117 168 81 117 168
81 117 168 81 117 168 81 117 168 81 117 168
81 117 168 81 117 168 81 117 168 81 117 168
19 92 192 19 92 192 19 92 192 73 109 159
73 109 159 73 109 159 73 109 159 73 109 159
73 109 159 73 109 159 73 109 159 73 109 159
73 109 159 73 109 159 73 109 159 73 109 159
137 173 223 137 173 223 137 173 223 137 173 223
137 173 223 137 173 223 137 173 223 137 173 223
137 173 223 137 173 223 137 173 223 137 173 223
137 173 223 137 173 223 137 173 224 137 173 224
137 173 224 73 110 160 73 110 160 73 110 160
73 110 160 73 110 160 73 110 160 73 110 160
73 110 160 74 110 160 74 110 160 74 110 160
74 110 160 74 110 160 74 110 160 74 110 160
74 110 160 74 110 160 74 110 160 74 110 160
74 110 160 74 110 160 74 110 160 74 110 160
74 110 160 74 110 160 74 110 160 74 110 160
138 174 225 138 174 225 74 110 160 74 110 160
65 70 76 67 80 97 68 80 98 76 82 91
76 82 91 86 93 101 76 82 91 76 82 91
76 83 91 72 78 87 72 79 87 73 79 88
73 80 88 74 80 89 75 81 90 66 70 76
94 93 100 92 93 100 91 92 100 89 91 100
88 91 100 87 90 100 86 90 100 96 94 96
96 95 97 107 106 109 97 96 99 97 96 100
161 161 165 173 173 177 173 173 178 173 174 178
173 174 179 173 175 180 162 164 169 162 164 170
162 165 170 162 165 171 173 176 183 109 112 118
109 112 119 109 113 119 109 113 120 109 113 120
109 113 120 109 114 121 109 114 121 109 114 121
109 114 122 109 114 122 109 114 122 109 114 123
109 115 123 109 115 123 109 115 123 97 104 112
109 115 124 174 180 189 174 180 189 174 180 189
174 180 189 174 181 189 174 181 189 175 181 190
175 181 190 175 181 190 175 181 190 175 181 190
175 181 190 175 181 190 175 181 190 175 181 190
175 181 190 175 181 190 175 181 190 175 181 190
163 170 178 163 170 178 163 170 178 163 169 178
163 169 178 163 169 178 163 169 178 97 104 112
97 103 112 108 114 123 173 179 188 173 179 188
172 179 187 172 178 187 172 178 187 171 178 186
160 166 175 159 165 174 159 165 174 158 164 173
158 164 173 157 163 172 156 163 171 156 162 171
166 172 181 154 160 169 153 159 168 152 158 167
162 169 177 151 157 165 163 168 176 141 152 168
143 153 168 144 154 168 146 155 169 148 156 169
150 157 169 153 158 169 155 159 170 158 161 170
96 97 105 99 99 105 104 101 106 108 103 106
112 105 107 80 116 166 80 116 166 80 116 166
80 116 166 80 116 166 145 181 231 145 181 232
145 181 232 145 181 232 145 181 232 145 182 232
145 182 232 145 182 232 145 182 232 146 182 232
146 182 232 146 182 232 146 182 232 146 182 232
146 182 232 146 182 232 146 182 232 146 182 232
146 182 232 81 117 167 81 117 167 81 117 167
81 117 167 81 117 167 81 117 167 81 117 167
81 117 167 81 117 167 81 117 167 81 117 167
81 117 167 81 117 167 81 117 167 81 117 167
81 117 168 81 117 168 81 117 168 81 117 168
81 117 168 81 117 168 81 117 168 81 118 168
81 118 168 81 118 168 147 183 233 147 183 233
147 183 233 147 183 233 81 118 168 81 118 168
81 118 168 81 118 168 81 118 168 81 118 168
81 118 168 82 118 168 82 118 168 82 118 168
82 118 168 82 118 168 82 118 168 82 118 168
82 118 168 82 118 168 82 118 168 82 118 168
19 92 192 19 92 192 19 92 192 19 92 192
73 109 159 73 109 159 73 109 159 73 109 159
73 109 159 73 109 159 73 109 159 73 109 160
73 109 160 137 173 223 137 173 223 137 173 223
137 173 223 137 173 223 137 173 223 137 173 223
137 173 223 137 173 223 137 173 223 137 173 224
137 173 224 137 173 224 137 173 224 137 173 224
137 173 224 137 174 224 137 174 224 137 174 224
137 174 224 73 110 160 73 110 160 73 110 160
74 110 160 74 110 160 74 110 160 74 110 160
74 110 160 74 110 160 74 110 160 74 110 160
74 110 160 74 110 160 74 110 160 74 110 160
74 110 160 74 110 160 74 110 160 74 110 160
74 110 160 74 110 160 74 110 160 74 110 160
74 110 160 138 174 225 138 174 225 138 174 225
138 175 225 138 175 225 138 175 225 74 110 160
68 80 98 68 80 98 76 82 91 76 82 91
87 93 102 76 82 91 76 83 91 77 83 92
72 78 87 73 79 88 73 80 88 74 80 89
75 81 90 76 82 91 80 82 85 81 83 86
68 81 98 94 94 101 93 93 101 92 93 101
90 92 100 89 91 100 88 91 100 87 90 100
98 95 97 98 96 98 98 96 99 98 97 100
163 162 165 163 163 166 174 174 178 175 175 179
175 175 180 164 165 169 164 165 170 164 166 170
164 166 171 99 101 107 99 102 107 111 113 119
111 113 119 111 114 120 111 114 120 111 114 121
111 114 121 111 115 121 111 115 122 111 115 122
111 115 122 110 115 123 110 115 123 110 115 123
110 115 123 99 104 112 99 104 113 99 104 113
99 104 113 110 116 124 174 181 189 174 181 189
175 181 190 175 181 190 175 181 190 175 181 190
175 181 190 175 181 190 175 181 190 175 181 190
175 181 190 175 181 190 175 181 190 175 181 190
175 181 190 175 181 190 175 181 190 175 181 190
164 170 179 163 170 178 163 170 178 163 169 178
163 169 178 98 104 113 109 115 124 109 115 124
108 115 123 108 114 123 108 114 123 173 179 188
172 179 187 172 178 187 172 178 187 171 177 186
159 166 174 159 165 174 158 165 173 158 164 173
157 163 172 157 163 172 156 162 171 166 173 181
154 161 169 153 160 168 153 159 168 152 158 167
152 158 166 141 152 168 142 152 168 144 153 168
145 154 169 147 155 169 149 156 169 151 157 169
153 158 170 155 159 170 158 161 170 161 162 171
165 164 171 103 101 106 108 103 107 111 104 107
80 116 166 80 116 166 80 116 166 80 116 166
145 182 232 145 182 232 145 182 232 145 182 232
146 182 232 146 182 232 146 182 232 146 182 232
146 182 232 146 182 232 146 182 232 146 182 232
146 182 232 146 182 232 146 182 232 146 182 232
146 182 233 146 182 233 146 182 233 146 182 233
146 183 233 146 183 233 81 117 167 81 117 167
81 117 167 81 117 167 81 117 168 81 117 168
81 117 168 81 117 168 81 117 168 81 118 168
81 118 168 81 118 168 81 118 168 81 118 168
81 118 168 81 118 168 81 118 168 82 118 168
82 118 168 82 118 168 82 118 168 82 118 168
147 183 233 147 183 234 147 183 234 147 183 234
147 183 234 147 183 234 147 183 234 147 183 234
82 118 168 82 118 168 82 118 168 82 118 168
82 118 168 82 118 168 82 118 168 82 118 168
82 118 168 82 118 168 82 118 168 82 118 168
82 118 168 82 118 168 82 118 168 82 118 168
19 92 192 19 92 192 19 92 192 19 92 192
19 92 192 73 109 160 73 109 160 73 109 160
73 109 160 73 109 160 73 109 160 137 173 223
137 173 223 137 173 223 137 173 223 137 173 223
137 173 223 137 173 224 137 173 224 137 173 224
137 173 224 137 173 224 137 173 224 137 174 224
137 174 224 137 174 224 137 174 224 137 174 224
137 174 224 137 174 224 138 174 224 138 174 224
138 174 224 138 174 224 74 110 160 74 110 160
74 110 160 74 110 160 74 110 160 74 110 160
74 110 160 74 110 160 74 110 160 74 110 160
74 110 160 74 110 160 74 110 160 74 110 160
74 110 160 74 110 160 74 110 160 74 110 160
74 110 160 74 110 160 74 110 160 138 175 225
138 175 225 138 175 225 138 175 225 138 175 225
139 175 225 139 175 225 139 175 225 132 145 162
68 80 98 68 80 98 86 92 101 87 93 102
76 82 91 71 78 86 72 78 87 72 79 87
73 79 88 74 80 89 81 87 96 82 88 97
83 89 98 82 89 97 84 85 88 84 85 88
66 70 76 97 95 101 96 94 101 94 94 101
93 93 101 92 93 101 90 92 101 89 91 101
88 91 100 87 91 100 110 108 109 111 109 110
100 98 100 165 163 166 165 164 167 165 165 168
177 176 180 166 166 169 101 101 105 101 102 106
101 102 107 101 102 107 101 103 108 101 103 108
101 103 109 112 115 120 112 115 121 112 115 121
112 115 122 112 116 122 112 116 122 112 116 123
112 116 123 112 116 123 112 116 123 112 116 124
100 105 113 100 105 113 100 105 113 100 105 113
100 105 113 100 105 113 111 116 125 175 181 190
175 181 190 175 181 190 175 181 190 175 181 190
175 181 190 175 181 190 175 182 190 175 182 190
175 182 190 175 182 190 175 182 190 175 181 190
175 181 190 175 181 190 175 181 190 175 181 190
175 181 190 163 170 178 98 104 113 98 104 113
109 115 124 109 115 124 109 115 124 108 115 123
108 114 123 108 114 123 107 114 122 107 113 122
107 113 122 172 178 187 171 178 186 171 177 186
159 165 174 159 165 174 158 164 173 157 164 172
168 174 183 167 174 182 167 173 182 155 161 170
154 160 169 153 159 168 153 159 167 153 158 166
142 152 168 143 153 169 144 154 169 146 155 169
148 156 169 150 157 169 152 158 170 154 159 170
156 160 170 159 161 171 162 163 171 165 164 171
168 166 172 172 168 172 110 104 107 113 106 107
80 116 166 80 116 167 146 182 232 146 182 232
146 182 232 146 182 232 146 182 232 146 182 232
146 182 232 146 182 232 146 182 232 146 182 232
146 182 233 146 182 233 146 182 233 146 182 233
146 183 233 146 183 233 146 183 233 146 183 233
147 183 233 147 183 233 147 183 233 147 183 233
147 183 233 147 183 233 147 183 233 147 183 233
81 118 168 81 118 168 81 118 168 81 118 168
82 118 168 82 118 168 82 118 168 82 118 168
82 118 168 82 118 168 82 118 168 82 118 168
82 118 168 82 118 168 82 118 168 82 118 168
82 118 168 82 118 168 147 184 234 147 184 234
148 184 234 148 184 234 148 184 234 148 184 234
148 184 234 148 184 234 148 184 234 148 184 234
148 184 234 82 118 169 82 118 169 82 118 169
82 118 169 82 118 169 82 118 169 82 118 169
82 118 169 82 118 169 82 118 169 82 118 169
82 118 169 82 118 169 82 118 169 82 118 169
19 92 192 19 92 192 19 92 192 19 92 192
19 92 192 73 109 160 73 109 160 73 109 160
137 173 223 137 173 223 137 173 223 137 173 224
137 173 224 137 173 224 137 173 224 137 173 224
137 174 224 137 174 224 137 174 224 137 174 224
137 174 224 137 174 224 137 174 224 138 174 224
138 174 224 138 174 224 138 174 224 138 174 224
138 174 224 138 174 224 138 174 224 138 174 224
138 174 224 138 174 224 138 174 224 74 110 160
74 110 160 74 110 160 74 110 160 74 110 160
74 110 160 74 110 160 74 110 160 74 110 160
74 110 160 74 110 160 74 110 160 74 110 160
74 110 160 74 110 160 74 110 160 74 110 160
138 175 225 138 175 225 139 175 225 139 175 225
139 175 225 139 175 225 139 175 225 139 175 225
139 175 225 139 175 225 132 145 162 132 145 162
132 145 162 85 92 100 86 93 101 76 83 91
72 78 87 72 78 87 73 79 88 79 85 94
74 81 89 81 87 96 82 89 97 84 90 99
97 103 112 97 99 102 109 106 105 102 108 117
103 110 118 97 86 80 98 96 101 97 95 101
95 94 101 94 94 101 93 93 101 91 93 101
90 92 101 90 92 101 89 91 101 112 109 110
112 110 111 101 99 101 166 165 167 167 165 168
102 101 104 102 102 105 103 102 106 103 103 106
103 103 107 103 103 108 103 104 108 103 104 109
103 104 109 103 104 110 114 116 121 114 116 122
114 116 122 114 116 122 114 117 123 114 117 123
114 117 123 113 117 123 102 106 112 102 106 113
102 106 113 101 106 113 101 106 113 101 106 113
101 106 113 101 106 114 100 106 114 111 117 125
176 182 190 175 181 190 175 181 190 175 182 190
175 182 190 175 182 190 175 182 190 175 182 190
175 182 190 175 182 190 175 182 190 175 181 190
175 181 190 175 181 190 175 181 190 175 181 190
109 116 124 98 104 113 109 115 124 109 115 124
109 115 124 108 115 123 108 115 123 108 114 123
108 114 123 107 114 122 107 113 122 107 113 122
106 113 121 106 112 121 171 177 186 159 165 174
159 165 174 158 164 173 169 175 184 168 174 183
167 174 182 167 173 182 155 161 170 154 160 169
165 171 179 154 159 167 141 152 168 143 153 169
144 154 169 145 154 169 147 155 169 149 156 170
151 157 170 153 158 170 155 159 170 157 160 171
159 162 171 162 163 171 165 165 172 169 166 172
172 168 172 175 170 173 178 171 173 80 117 167
146 182 232 146 182 232 146 182 232 146 182 232
146 182 232 146 182 232 146 182 233 146 182 233
146 182 233 146 183 233 146 183 233 146 183 233
146 183 233 147 183 233 147 183 233 147 183 233
147 183 233 147 183 233 147 183 233 147 183 233
147 183 233 147 183 233 147 183 233 147 183 233
147 183 233 147 183 234 147 183 234 147 183 234
147 183 234 82 118 168 82 118 168 82 118 168
82 118 168 82 118 168 82 118 168 82 118 168
82 118 168 82 118 168 82 118 168 82 118 168
82 118 168 82 118 169 82 118 169 82 118 169
148 184 234 148 184 234 148 184 234 148 184 234
148 184 234 148 184 234 148 184 234 148 184 234
148 184 234 148 184 234 148 184 234 148 184 234
148 184 234 148 184 234 148 184 235 83 119 169
83 119 169 83 119 169 83 119 169 83 119 169
83 119 169 83 119 169 83 119 169 83 119 169
83 119 169 83 119 169 83 119 169 83 119 169
19 92 192 19 92 192 19 92 192 19 92 192
19 92 192 19 92 192 137 173 224 137 173 224
137 173 224 137 173 224 137 174 224 137 174 224
137 174 224 137 174 224 137 174 224 137 174 224
137 174 224 138 174 224 138 174 224 138 174 224
138 174 224 138 174 224 138 174 224 138 174 224
138 174 224 138 174 224 138 174 224 138 174 224
138 174 224 138 174 224 138 174 224 138 174 224
138 174 224 138 174 224 138 174 224 74 110 160
74 110 160 74 110 160 74 110 160 74 110 160
74 110 160 74 110 160 74 110 160 74 110 160
74 110 160 74 110 160 74 110 160 74 110 160
74 110 160 139 175 225 139 175 225 139 175 225
139 175 225 139 175 225 139 175 225 139 175 225
139 175 225 139 175 225 139 175 225 139 175 225
139 175 225 132 145 162 132 145 162 133 145 163
133 145 163 76 82 91 71 78 86 72 78 87
72 78 87 73 79 88 79 85 94 91 97 106
82 88 97 83 89 98 85 91 100 97 104 112
99 105 114 101 107 116 103 109 118 105 111 120
106 112 121 66 71 77 98 87 80 99 96 102
98 96 102 96 95 101 95 94 101 94 94 101
93 93 101 92 93 101 91 92 101 90 92 101
89 91 101 114 111 112 179 176 178 103 101 103
115 113 115 115 113 116 115 114 117 104 103 106
104 104 107 104 104 108 104 104 108 104 105 109
104 105 109 104 105 110 104 106 110 104 106 111
115 117 122 115 117 123 115 117 123 115 118 123
104 106 112 104 107 113 103 107 113 103 107 113
103 107 113 103 107 113 103 107 113 102 107 114
102 107 114 102 106 114 102 106 114 101 106 114
112 117 125 177 183 190 177 182 190 177 182 190
176 182 190 176 182 190 176 182 190 175 182 190
175 182 190 175 181 190 175 181 190 175 181 190
175 181 190 175 181 190 109 116 124 98 104 113
98 104 113 98 104 113 109 115 124 108 115 123
108 115 123 108 114 123 108 114 123 107 114 122
107 113 122 107 113 122 106 113 121 106 112 121
106 112 121 105 111 120 105 111 120 158 165 173
169 175 184 169 175 184 168 174 183 167 174 182
167 173 182 166 172 181 166 172 180 166 171 179
155 159 167 142 153 169 144 154 169 145 154 169
147 155 169 148 156 170 150 157 170 151 158 170
153 159 170 156 160 171 158 161 171 160 162 171
163 164 172 165 165 172 169 167 172 172 168 173
175 170 173 177 171 173 115 107 108 81 117 167
81 117 167 146 182 233 146 183 233 146 183 233
146 183 233 146 183 233 147 183 233 147 183 233
147 183 233 147 183 233 147 183 233 147 183 233
147 183 233 147 183 233 147 183 233 147 183 233
147 183 233 147 183 234 147 183 234 147 183 234
147 184 234 147 184 234 147 184 234 147 184 234
147 184 234 148 184 234 148 184 234 148 184 234
148 184 234 148 184 234 148 184 234 82 118 169
82 118 169 82 118 169 82 118 169 82 118 169
82 119 169 82 119 169 82 119 169 82 119 169
82 119 169 82 119 169 148 184 235 148 184 235
148 184 235 148 184 235 148 185 235 148 185 235
148 185 235 148 185 235 148 185 235 148 185 235
148 185 235 148 185 235 148 185 235 148 185 235
149 185 235 149 185 235 149 185 235 149 185 235
83 119 169 83 119 169 83 119 169 83 119 169
83 119 169 83 119 169 83 119 169 83 119 169
83 119 169 83 119 169 83 119 169 83 119 169
19 92 192 19 92 192 19 92 192 19 92 192
19 92 192 19 92 192 137 174 224 137 174 224
137 174 224 137 174 224 137 174 224 138 174 224
138 174 224 138 174 224 138 174 224 138 174 224
138 174 224 138 174 224 138 174 224 138 174 224
138 174 224 138 174 224 138 174 224 138 174 224
138 174 224 138 174 224 138 174 224 138 174 224
138 174 224 138 174 224 138 174 225 138 174 225
138 174 225 138 174 225 138 174 225 138 174 225
74 110 160 74 110 160 74 110 160 74 110 160
74 110 160 74 110 160 74 110 160 74 110 160
74 110 160 74 110 161 74 110 161 139 175 225
139 175 225 139 175 225 139 175 225 139 175 225
139 175 225 139 175 225 139 175 225 139 175 225
139 175 225 139 175 225 139 175 225 139 175 225
139 175 226 133 145 163 133 145 163 133 145 163
133 145 163 151 158 166 72 78 87 72 78 87
73 79 88 79 85 94 92 98 107 93 99 108
94 101 109 85 92 100 98 104 113 100 106 115
102 108 117 104 110 119 105 112 120 107 113 122
108 114 123 97 104 112 101 88 80 100 87 80
100 97 102 99 96 102 97 96 102 96 95 102
95 95 102 94 94 101 93 94 101 157 158 166
156 158 166 155 157 166 180 177 177 181 177 178
105 102 103 116 114 115 117 114 116 117 115 117
117 116 118 106 105 108 106 105 108 106 105 109
106 106 109 106 106 110 106 106 110 106 107 111
106 107 111 106 107 112 105 107 112 105 107 112
105 107 112 105 107 113 105 107 113 105 107 113
104 107 113 104 107 113 104 107 113 104 107 114
103 107 114 103 107 114 103 107 114 103 107 114
102 107 114 113 118 125 178 183 190 178 183 190
178 183 190 177 182 190 177 182 190 176 182 190
175 181 190 175 181 190 175 181 190 175 181 190
98 104 113 98 104 113 98 104 113 97 104 112
97 104 112 97 103 112 97 103 112 108 114 123
108 114 123 107 114 122 107 113 122 107 113 122
106 113 121 106 112 121 106 112 121 105 111 120
105 111 120 93 99 108 92 99 107 103 110 118
168 175 183 168 174 183 167 173 182 166 173 181
155 161 169 166 172 180 167 172 179 142 153 169
143 154 169 145 154 169 146 155 170 148 156 170
149 157 170 151 158 170 153 158 170 154 159 171
156 160 171 159 162 171 161 163 172 164 164 172
166 166 172 169 167 173 173 169 173 176 170 173
112 106 108 114 107 108 117 108 109 81 117 167
81 117 167 81 117 167 147 183 233 147 183 233
147 183 233 147 183 233 147 183 233 147 183 233
147 183 233 147 183 233 147 183 234 147 183 234
147 183 234 147 184 234 147 184 234 147 184 234
147 184 234 148 184 234 148 184 234 148 184 234
148 184 234 148 184 234 148 184 234 148 184 234
148 184 234 148 184 234 148 184 234 148 184 234
148 184 234 148 184 234 148 184 235 148 184 235
82 119 169 83 119 169 83 119 169 83 119 169
83 119 169 83 119 169 83 119 169 83 119 169
149 185 235 149 185 235 149 185 235 149 185 235
149 185 235 149 185 235 149 185 235 149 185 235
149 185 235 149 185 235 149 185 235 149 185 235
149 185 235 149 185 235 149 185 235 149 185 235
149 185 235 149 185 235 149 185 235 149 185 235
149 185 235 149 185 235 83 119 170 83 119 170
83 119 170 83 120 170 83 120 170 83 120 170
83 120 170 83 120 170 83 120 170 83 120 170
19 92 192 19 92 192 19 92 192 19 92 192
19 92 192 19 92 192 19 92 192 138 174 224
138 174 224 138 174 224 138 174 224 138 174 224
138 174 224 138 174 224 138 174 224 138 174 224
138 174 224 138 174 224 138 174 224 138 174 224
138 174 224 138 174 224 138 174 224 138 174 224
138 174 225 138 174 225 138 174 225 138 174 225
138 174 225 138 174 225 138 175 225 138 175 225
138 175 225 138 175 225 138 175 225 138 175 225
138 175 225 74 110 160 74 110 160 74 110 160
74 110 161 74 110 161 74 110 161 74 110 161
139 175 225 139 175 225 139 175 225 139 175 225
139 175 225 139 175 225 139 175 225 139 175 225
139 175 225 139 175 225 139 175 226 139 175 226
139 175 226 139 175 226 139 175 226 139 176 226
133 145 163 133 145 163 133 145 163 133 146 163
133 146 163 142 148 157 137 143 152 78 84 93
79 86 94 91 98 106 93 99 108 95 101 110
97 103 112 88 94 103 100 107 115 102 109 117
104 110 119 106 112 121 107 114 122 97 103 112
98 104 113 97 104 112 104 90 81 102 89 81
103 99 102 101 98 102 100 97 102 99 96 102
98 96 102 162 161 167 161 160 167 159 159 167
158 159 167 157 158 167 157 158 167 156 158 167
171 167 168 106 103 104 107 103 105 118 115 117
118 116 118 118 116 119 118 117 119 107 106 109
107 106 109 107 107 110 107 107 110 107 107 111
118 119 122 118 119 123 118 119 123 118 119 123
107 108 112 106 108 113 106 108 113 106 108 113
106 108 113 105 108 113 105 108 113 105 108 113
104 107 114 104 107 114 104 107 114 104 107 114
103 107 114 103 107 114 102 107 114 179 183 190
178 183 190 178 183 190 178 182 190 177 182 190
175 181 190 98 104 113 98 104 113 97 104 112
97 104 112 98 104 112 97 103 112 97 103 112
96 103 111 96 103 111 96 102 111 107 113 122
107 113 122 106 113 121 106 112 121 106 112 121
105 112 120 105 111 120 105 111 120 93 99 108
92 99 107 92 98 107 91 98 106 102 109 117
102 108 117 167 173 182 155 161 170 155 161 169
141 153 169 142 153 169 143 154 169 145 154 170
146 155 170 147 156 170 149 157 170 151 158 170
152 158 171 154 159 171 156 160 171 158 161 171
160 162 172 162 164 172 165 165 172 167 166 173
170 168 173 173 169 173 110 105 108 112 106 108
114 107 108 117 108 109 81 117 167 81 117 168
81 117 168 81 117 168 81 118 168 147 183 233
147 183 234 147 183 234 147 184 234 147 184 234
147 184 234 147 184 234 148 184 234 148 184 234
148 184 234 148 184 234 148 184 234 148 184 234
148 184 234 148 184 234 148 184 234 148 184 234
148 184 234 148 184 235 148 184 235 148 184 235
148 184 235 148 185 235 148 185 235 148 185 235
148 185 235 148 185 235 149 185 235 149 185 235
149 185 235 83 119 169 83 119 169 83 119 169
83 119 169 83 119 169 83 119 169 149 185 235
149 185 235 149 185 235 149 185 235 149 185 235
149 185 235 149 185 235 149 185 236 149 185 236
149 185 236 149 185 236 149 185 236 149 185 236
149 185 236 149 186 236 149 186 236 149 186 236
149 186 236 149 186 236 149 186 236 149 186 236
149 186 236 149 186 236 149 186 236 149 186 236
84 120 170 84 120 170 84 120 170 84 120 170
84 120 170 84 120 170 84 120 170 84 120 170
19 92 192 19 92 192 19 92 192 19 92 192
19 92 192 19 92 192 19 92 192 138 174 224
138 174 224 138 174 224 138 174 224 138 174 224
138 174 224 138 174 224 138 174 224 138 174 224
138 174 224 138 174 224 138 174 225 138 174 225
138 174 225 138 174 225 138 174 225 138 174 225
138 175 225 138 175 225 138 175 225 138 175 225
138 175 225 138 175 225 138 175 225 139 175 225
139 175 225 139 175 225 139 175 225 139 175 225
139 175 225 74 110 161 74 110 161 74 110 161
74 110 161 139 175 225 139 175 225 139 175 225
139 175 225 139 175 225 139 175 225 139 175 225
139 175 225 139 175 226 139 175 226 139 175 226
139 175 226 139 175 226 139 176 226 139 176 226
139 176 226 139 176 226 139 176 226 139 176 226
134 146 163 135 146 163 135 147 163 133 146 163
133 146 163 137 143 152 153 160 168 154 161 169
91 97 106 93 99 108 95 101 110 97 103 112
88 94 103 90 96 105 92 98 107 105 111 120
106 113 121 108 114 123 97 104 112 98 104 113
97 104 112 97 103 112 95 102 110 106 91 81
105 90 81 104 99 103 168 164 168 167 163 168
165 162 167 164 162 167 163 161 167 162 161 167
161 160 167 160 160 167 159 159 167 158 159 167
157 159 167 157 158 167 107 103 104 108 104 105
119 116 117 120 117 118 120 117 119 120 118 120
120 118 120 109 107 109 120 119 121 120 119 122
120 119 122 120 119 123 119 119 123 119 119 123
119 119 123 119 120 124 107 108 113 107 108 113
107 108 113 106 108 113 106 108 113 106 108 113
106 108 113 105 108 113 105 107 113 104 107 113
104 107 113 104 107 113 103 107 113 103 106 113
179 183 190 179 183 190 167 171 178 101 105 113
101 105 112 100 105 112 100 105 112 99 104 112
99 104 112 98 104 111 98 103 111 97 103 111
97 102 111 95 101 110 95 101 110 95 101 110
106 112 121 105 112 120 105 111 120 105 111 120
93 99 108 93 99 108 92 98 107 92 98 107
91 97 106 91 97 106 102 108 117 90 96 105
89 95 104 90 95 104 141 153 169 142 153 169
144 154 170 145 155 170 146 155 170 147 156 170
149 157 170 150 157 171 152 158 171 153 159 171
155 160 171 157 161 172 159 162 172 161 163 172
163 164 173 166 166 173 169 167 173 171 169 174
108 104 108 110 105 108 112 106 108 114 107 109
116 108 109 119 110 109 81 118 168 81 118 168
82 118 168 82 118 168 82 118 168 82 118 168
82 118 168 148 184 234 148 184 234 148 184 234
148 184 234 148 184 234 148 184 234 148 184 234
148 184 234 148 184 234 148 184 235 148 184 235
148 184 235 148 185 235 148 185 235 148 185 235
148 185 235 149 185 235 149 185 235 149 185 235
149 185 235 149 185 235 149 185 235 149 185 235
149 185 235 149 185 235 149 185 235 149 185 235
149 185 235 149 185 235 149 185 236 83 120 170
83 120 170 149 185 236 149 186 236 149 186 236
149 186 236 149 186 236 149 186 236 149 186 236
149 186 236 150 186 236 150 186 236 150 186 236
150 186 236 150 186 236 150 186 236 150 186 236
150 186 236 150 186 236 150 186 236 150 186 236
150 186 236 150 186 236 150 186 236 150 186 236
150 186 236 150 186 236 150 186 236 150 186 236
150 186 236 84 120 170 84 120 170 84 120 170
84 120 170 84 120 170 84 120 170 84 120 170
19 92 192 19 92 192 19 92 192 19 92 192
19 92 192 19 92 192 19 92 192 19 92 192
138 174 224 138 174 224 138 174 224 138 174 225
138 174 225 138 174 225 138 174 225 138 174 225
138 174 225 138 175 225 138 175 225 138 175 225
138 175 225 138 175 225 138 175 225 138 175 225
138 175 225 139 175 225 139 175 225 139 175 225
139 175 225 139 175 225 139 175 225 139 175 225
139 175 225 139 175 225 139 175 225 139 175 225
139 175 225 139 175 225 74 111 161 139 175 225
139 175 225 139 175 225 139 175 225 139 175 226
139 175 226 139 175 226 139 175 226 139 175 226
139 176 226 139 176 226 139 176 226 139 176 226
139 176 226 139 176 226 140 176 226 140 176 226
140 176 226 140 176 226 140 176 226 133 146 163
137 148 164 137 148 164 137 148 164 137 148 164
133 146 163 133 146 163 154 160 169 155 162 170
81 88 96 95 101 109 97 103 112 89 95 103
90 97 105 92 98 107 94 100 109 96 102 111
108 114 123 97 104 112 97 104 112 99 104 112
98 103 111 108 113 121 104 110 119 108 92 81
174 157 147 173 157 147 171 165 168 170 165 168
168 164 168 167 163 168 166 163 168 165 162 168
163 162 168 163 161 168 162 161 168 161 160 168
160 160 167 159 160 167 158 159 167 92 93 102
109 105 105 109 105 106 109 106 107 110 106 107
110 107 108 110 107 109 110 107 109 121 119 121
121 119 122 121 119 122 121 120 123 120 120 123
120 120 123 120 120 123 120 120 123 119 120 124
108 108 112 107 108 112 107 108 113 107 108 113
106 108 113 106 108 113 106 107 113 105 107 113
105 107 113 104 107 112 115 118 124 115 118 124
115 117 124 114 117 123 102 105 112 102 105 112
101 105 112 101 105 111 100 104 111 100 104 111
99 103 111 99 103 110 98 103 110 98 102 110
97 102 110 94 100 109 94 100 109 93 100 108
105 111 120 93 99 108 94 99 108 93 99 107
93 98 107 92 98 106 91 97 106 91 97 105
102 108 116 101 107 116 89 95 104 88 95 103
73 86 103 77 88 104 78 88 104 145 155 170
146 155 170 148 156 170 149 157 171 150 158 171
152 158 171 153 159 171 155 160 171 157 161 172
159 162 172 161 163 172 163 164 173 165 165 173
168 167 174 171 169 174 108 104 109 111 106 109
113 106 109 112 106 109 115 107 109 116 108 109
118 109 109 82 118 168 82 118 168 82 118 168
82 118 168 82 118 168 82 118 168 82 118 168
82 118 168 82 118 169 148 184 234 148 184 235
148 184 235 148 184 235 148 185 235 148 185 235
148 185 235 148 185 235 149 185 235 149 185 235
149 185 235 149 185 235 149 185 235 149 185 235
149 185 235 149 185 235 149 185 235 149 185 235
149 185 235 149 185 236 149 185 236 149 185 236
149 185 236 149 186 236 149 186 236 149 186 236
149 186 236 149 186 236 150 186 236 84 120 170
150 186 236 150 186 236 150 186 236 150 186 236
150 186 236 150 186 236 150 186 236 150 186 236
150 186 236 150 186 236 150 186 236 150 186 236
150 186 236 150 186 236 150 186 236 150 186 237
150 186 237 150 186 237 150 186 237 150 186 237
150 186 237 150 186 237 150 186 237 150 187 237
150 187 237 150 187 237 150 187 237 150 187 237
150 187 237 150 187 237 150 187 237 84 121 171
84 121 171 84 121 171 84 121 171 84 121 171
19 92 192 19 92 192 19 92 192 19 92 192
19 92 192 19 92 192 19 92 192 19 92 192
138 174 225 138 174 225 138 174 225 138 175 225
138 175 225 138 175 225 138 175 225 138 175 225
138 175 225 138 175 225 139 175 225 139 175 225
139 175 225 139 175 225 139 175 225 139 175 225
139 175 225 139 175 225 139 175 225 139 175 225
139 175 225 139 175 225 139 175 225 139 175 225
139 175 225 139 175 225 139 175 225 139 175 225
74 111 161 74 111 161 74 111 161 139 175 226
139 175 226 139 175 226 139 175 226 139 176 226
139 176 226 139 176 226 139 176 226 139 176 226
139 176 226 140 176 226 140 176 226 140 176 226
140 176 226 140 176 226 140 176 226 140 176 226
140 176 226 140 176 226 140 176 226 139 149 164
140 149 164 140 149 164 139 149 164 139 149 164
134 146 164 134 146 164 155 161 170 157 163 172
151 156 163 99 104 111 90 95 103 92 97 105
94 100 107 94 100 109 96 102 111 108 114 123
108 115 123 97 103 112 100 105 112 99 104 111
109 113 120 173 177 183 154 160 169 159 162 168
179 160 148 177 159 148 173 167 169 172 166 169
171 166 168 170 165 168 169 164 168 167 164 168
166 163 168 165 163 168 164 162 168 163 162 168
162 161 168 162 161 168 161 161 168 160 160 168
93 94 102 93 94 102 92 94 102 122 118 118
122 118 119 111 107 108 111 107 109 111 108 109
111 108 110 110 108 110 122 120 122 122 120 122
121 120 122 121 120 123 121 120 123 120 120 123
120 120 123 120 120 123 108 108 112 108 108 112
107 108 112 107 108 112 118 119 123 117 119 123
117 118 123 116 118 123 116 118 123 181 183 188
181 183 188 180 182 188 114 117 122 102 105 111
102 104 110 101 104 110 101 104 110 100 103 110
99 103 109 99 103 109 98 102 109 98 102 109
97 101 108 108 112 120 108 112 119 107 112 119
107 111 118 94 99 106 94 99 106 93 98 106
93 98 105 104 109 117 103 108 116 103 108 116
102 107 115 75 87 104 75 87 104 79 89 104
80 89 104 81 90 104 82 91 105 83 91 105
85 92 105 152 158 171 153 159 171 154 160 171
156 161 172 157 161 172 160 163 172 162 164 173
164 165 173 166 166 174 169 168 174 171 169 175
108 105 109 111 106 109 114 107 110 115 108 109
116 108 109 114 107 109 118 109 109 118 109 110
121 111 110 82 118 168 82 118 168 82 118 168
82 118 169 82 118 169 82 118 169 82 119 169
82 119 169 82 119 169 82 119 169 148 185 235
149 185 235 149 185 235 149 185 235 149 185 235
149 185 235 149 185 235 149 185 235 149 185 235
149 185 235 149 185 236 149 185 236 149 185 236
149 185 236 149 186 236 149 186 236 149 186 236
149 186 236 150 186 236 150 186 236 150 186 236
150 186 236 150 186 236 150 186 236 150 186 236
150 186 236 84 120 170 84 120 170 84 120 170
84 120 170 84 120 170 150 186 237 150 186 237
150 186 237 150 186 237 150 186 237 150 187 237
150 187 237 150 187 237 150 187 237 150 187 237
150 187 237 150 187 237 151 187 237 151 187 237
151 187 237 151 187 237 151 187 237 151 187 237
151 187 237 151 187 237 151 187 237 151 187 237
151 187 237 151 187 237 151 187 237 151 187 237
151 187 237 151 187 237 151 187 237 151 187 237
85 121 171 85 121 171 85 121 171 85 121 171
19 92 192 19 92 192 19 92 192 19 92 192
19 92 192 19 92 192 19 92 192 19 92 192
19 92 192 138 175 225 138 175 225 138 175 225
139 175 225 139 175 225 139 175 225 139 175 225
139 175 225 139 175 225 139 175 225 139 175 225
139 175 225 139 175 225 139 175 225 139 175 225
139 175 225 139 175 225 139 175 225 139 175 225
139 175 225 139 175 225 139 175 225 139 175 226
139 175 226 139 175 226 74 111 161 74 111 161
74 111 161 74 111 161 74 111 161 139 176 226
139 176 226 139 176 226 139 176 226 140 176 226
140 176 226 140 176 226 140 176 226 140 176 226
140 176 226 140 176 226 140 176 226 140 176 226
140 176 226 140 176 226 140 176 226 140 176 226
140 176 226 140 176 226 134 146 164 142 150 164
142 150 164 142 150 165 142 150 165 141 150 165
141 150 165 134 146 164 134 146 164 153 156 162
155 158 165 157 161 167 94 98 105 96 100 107
98 102 109 100 104 111 107 114 122 108 114 123
108 114 123 113 116 123 112 115 121 176 179 185
174 177 183 161 163 169 176 175 179 144 152 166
181 162 148 186 164 150 185 164 150 175 168 169
174 167 169 173 167 169 172 166 169 170 165 169
169 165 169 168 164 169 167 164 169 166 163 169
165 163 169 164 162 168 163 162 168 162 162 168
161 161 168 95 95 103 94 95 103 94 95 103
93 94 103 123 118 118 123 119 119 123 119 120
111 108 109 111 108 109 111 108 109 111 108 110
122 120 122 122 120 122 122 120 122 121 120 122
121 120 122 109 108 111 109 108 111 108 108 111
108 107 111 119 119 122 118 119 122 118 118 122
183 184 188 183 183 188 182 183 188 182 183 187
181 182 187 181 182 187 180 182 187 114 116 121
113 115 121 101 103 109 101 103 109 100 103 108
111 114 120 111 113 119 110 113 119 109 113 119
109 112 118 108 112 118 108 111 118 107 111 117
107 110 117 95 98 105 106 110 116 105 109 116
105 109 116 104 108 115 78 88 104 78 88 104
80 90 104 81 90 104 82 91 105 83 91 105
84 92 105 85 92 105 87 93 105 88 94 106
89 94 106 91 95 106 158 162 172 160 163 172
161 163 173 163 164 173 165 166 173 168 167 174
170 169 175 173 170 175 110 106 110 112 107 111
114 108 111 116 109 110 117 109 110 118 109 110
118 110 110 119 110 110 120 110 110 121 111 110
82 118 169 82 118 169 82 119 169 82 119 169
82 119 169 82 119 169 83 119 169 83 119 169
83 119 169 83 119 169 83 119 169 83 119 169
149 185 235 149 185 235 149 185 235 149 185 236
149 185 236 149 185 236 149 186 236 149 186 236
149 186 236 150 186 236 150 186 236 150 186 236
150 186 236 150 186 236 150 186 236 150 186 236
150 186 236 150 186 236 150 186 236 150 186 236
150 186 236 150 186 237 150 186 237 84 120 171
84 120 171 84 120 171 84 121 171 84 121 171
84 121 171 84 121 171 84 121 171 151 187 237
151 187 237 151 187 237 151 187 237 151 187 237
151 187 237 151 187 237 151 187 237 151 187 237
151 187 237 151 187 237 151 187 237 151 187 237
151 187 237 151 187 237 151 187 237 151 187 237
151 187 237 151 187 238 151 187 238 151 187 238
151 187 238 151 187 238 151 187 238 151 187 238
151 187 238 151 187 238 151 187 238 151 187 238
151 187 238 151 188 238 85 121 172 85 121 172
19 92 192 19 92 192 19 92 192 19 92 192
19 92 192 19 92 192 19 92 192 19 92 192
19 92 192 139 175 225 139 175 225 139 175 225
139 175 225 139 175 225 139 175 225 139 175 225
139 175 225 139 175 225 139 175 225 139 175 225
139 175 225 139 175 225 139 175 225 139 175 225
139 175 225 139 175 226 139 175 226 139 175 226
139 175 226 139 175 226 139 175 226 74 111 161
74 111 161 74 111 161 75 111 161 75 111 161
75 111 161 75 111 161 75 111 161 75 111 161
140 176 226 140 176 226 140 176 226 140 176 226
140 176 226 140 176 226 140 176 226 140 176 226
140 176 226 140 176 226 140 176 226 140 176 226
140 176 226 140 176 226 140 176 227 140 176 227
140 176 227 140 176 227 143 151 165 144 152 165
144 152 165 144 152 165 144 152 165 144 151 165
143 151 165 143 151 165 142 151 165 156 158 164
158 161 166 172 174 180 174 177 182 100 103 108
102 104 110 114 117 123 107 114 122 115 117 123
114 116 122 167 169 174 165 167 172 163 165 170
173 174 179 165 163 165 156 158 167 147 153 166
185 164 149 194 170 153 196 172 155 194 169 152
177 169 170 176 168 170 175 168 170 173 167 170
172 167 170 171 166 170 170 166 169 169 165 169
168 165 169 167 164 169 166 164 169 165 163 169
164 163 169 98 97 103 97 96 103 96 96 103
96 96 103 95 95 103 94 95 103 93 95 103
112 107 107 112 107 108 112 108 108 123 119 120
123 119 120 123 119 121 122 119 121 110 108 109
110 108 110 110 108 110 109 107 110 109 107 110
108 107 110 108 107 110 173 172 175 172 172 175
184 183 187 183 183 186 183 183 186 182 182 186
181 182 186 181 181 186 180 181 185 168 169 174
102 103 108 101 103 107 101 102 107 100 102 107
111 113 118 111 113 118 110 112 117 110 112 117
109 111 117 109 111 117 96 99 105 96 98 104
95 98 104 95 98 104 80 89 104 80 89 104
81 90 104 82 90 105 83 91 105 84 91 105
85 92 105 86 93 105 87 93 105 88 94 106
89 94 106 90 95 106 91 95 106 92 96 106
94 97 107 96 98 107 97 99 107 165 166 173
167 167 174 169 168 174 171 169 175 174 171 176
111 107 111 114 109 112 117 110 112 118 111 112
119 111 111 119 110 111 120 110 110 120 111 110
121 111 110 122 111 110 123 112 110 123 112 111
82 119 169 83 119 169 83 119 169 83 119 169
83 119 169 83 119 169 83 119 169 83 119 169
83 119 169 83 119 169 83 119 170 83 119 170
83 119 170 83 120 170 149 186 236 150 186 236
150 186 236 150 186 236 150 186 236 150 186 236
150 186 236 150 186 236 150 186 236 150 186 236
150 186 236 150 186 237 150 186 237 150 186 237
150 187 237 150 187 237 150 187 237 150 187 237
151 187 237 84 121 171 84 121 171 85 121 171
85 121 171 85 121 171 85 121 171 85 121 171
85 121 171 85 121 171 85 121 171 85 121 171
151 187 237 151 187 237 151 187 238 151 187 238
151 187 238 151 187 238 151 187 238 151 188 238
151 188 238 151 188 238 151 188 238 151 188 238
151 188 238 151 188 238 151 188 238 152 188 238
152 188 238 152 188 238 152 188 238 152 188 238
152 188 238 152 188 238 152 188 238 152 188 238
152 188 238 152 188 238 152 188 238 152 188 238
152 188 238 152 188 238 152 188 238 86 122 172
19 92 192 19 92 192 19 92 192 19 92 192
19 92 192 19 92 192 19 92 192 19 92 192
19 92 192 19 92 192 139 175 225 139 175 225
139 175 225 139 175 225 139 175 225 139 175 225
139 175 225 139 175 225 139 175 225 139 175 226
139 175 226 139 175 226 139 175 226 139 175 226
139 175 226 139 176 226 139 176 226 139 176 226
75 111 161 75 111 161 75 111 161 75 111 161
75 111 161 75 111 161 75 111 161 75 111 161
75 111 161 75 111 161 75 111 161 75 111 161
75 111 161 140 176 226 140 176 226 140 176 226
140 176 226 140 176 226 140 176 226 140 176 226
140 176 226 140 176 227 140 176 227 140 176 227
140 176 227 140 177 227 140 177 227 140 177 227
140 177 227 140 177 227 145 152 165 147 153 165
147 153 165 146 153 165 146 153 165 146 153 165
145 152 165 145 152 165 145 152 165 145 152 165
162 163 168 175 177 181 178 179 184 114 116 121
104 106 111 116 118 123 181 183 188 169 170 175
168 169 173 177 178 183 175 176 180 162 162 166
154 157 167 159 159 167 163 162 168 167 164 168
151 155 167 200 174 155 207 179 160 207 179 159
199 171 151 179 170 170 178 169 170 176 169 170
175 169 171 175 168 171 174 168 171 173 167 171
172 167 170 170 166 170 169 165 170 168 165 170
167 164 170 166 164 170 100 98 104 99 98 104
98 97 104 97 97 104 97 96 104 96 96 104
95 96 103 95 95 103 94 95 103 93 95 103
111 107 107 111 107 107 123 119 120 122 119 120
122 119 120 122 119 120 121 118 120 109 106 108
174 172 174 174 172 174 173 171 174 184 183 185
184 183 185 183 182 185 183 182 185 171 170 173
170 169 173 169 169 172 169 169 172 168 168 172
168 168 172 101 102 106 101 101 105 100 101 105
111 112 116 111 112 116 110 111 116 98 99 104
97 99 104 97 98 103 83 91 104 83 91 104
83 91 105 84 91 105 85 92 105 85 92 105
86 92 105 87 93 105 87 93 105 88 94 106
89 94 106 90 95 106 91 95 106 92 96 106
93 97 106 95 97 107 96 98 107 98 99 107
99 100 107 101 101 108 103 102 108 105 103 109
173 171 176 176 172 177 113 108 112 116 111 113
119 112 114 121 113 114 122 113 113 122 112 112
122 112 112 122 112 111 122 112 111 123 112 111
124 112 111 124 113 111 124 113 111 83 119 169
83 119 169 83 119 169 83 119 169 83 119 169
83 119 169 83 119 170 83 119 170 83 119 170
83 120 170 83 120 170 83 120 170 84 120 170
84 120 170 84 120 170 84 120 170 150 186 236
150 186 236 150 186 236 150 186 237 150 186 237
150 186 237 150 187 237 150 187 237 150 187 237
150 187 237 151 187 237 151 187 237 151 187 237
151 187 237 151 187 237 151 187 237 85 121 171
85 121 171 85 121 171 85 121 171 85 121 171
85 121 171 85 121 171 85 121 171 85 121 171
85 121 171 85 121 172 85 121 172 85 121 172
85 121 172 85 122 172 152 188 238 152 188 238
152 188 238 152 188 238 152 188 238 152 188 238
152 188 238 152 188 238 152 188 238 152 188 238
152 188 238 152 188 238 152 188 238 152 188 238
152 188 238 152 188 238 152 188 238 152 188 238
152 188 238 152 188 238 152 188 238 152 188 239
152 188 239 152 188 239 152 188 239 152 188 239
152 188 239 152 188 239 152 188 239 152 188 239
19 92 192 19 92 192 19 92 192 19 92 192
19 92 192 19 92 192 19 92 192 19 92 192
19 92 192 19 92 192 139 175 225 139 175 225
139 175 225 139 175 226 139 175 226 139 175 226
139 175 226 139 175 226 139 175 226 139 176 226
139 176 226 139 176 226 139 176 226 139 176 226
139 176 226 139 176 226 75 111 161 75 111 161
75 111 161 75 111 161 75 111 161 75 111 161
75 111 161 75 111 161 75 111 161 75 111 161
75 111 161 75 111 161 75 111 161 75 111 161
75 111 161 140 176 226 140 176 226 140 176 226
140 176 227 140 176 227 140 176 227 140 176 227
140 177 227 140 177 227 140 177 227 140 177 227
140 177 227 140 177 227 141 177 227 141 177 227
141 177 227 140 135 132 148 154 166 149 154 166
149 154 166 149 154 166 148 154 166 148 154 166
147 154 166 147 153 166 147 153 166 147 153 166
147 153 166 178 179 183 181 181 185 171 171 175
171 172 176 171 172 176 182 182 186 168 169 172
178 178 182 164 164 167 178 176 177 157 159 167
162 161 168 166 163 168 170 165 169 175 168 170
181 171 171 205 177 157 210 181 160 210 179 158
208 176 154 181 171 171 180 171 171 180 171 171
179 171 171 178 170 172 177 170 172 177 170 172
176 170 172 174 169 172 173 168 172 172 167 171
171 167 171 170 166 171 169 166 171 102 99 105
101 99 104 100 98 104 99 98 104 98 97 104
98 97 104 97 97 104 97 97 104 96 96 104
95 96 104 95 96 104 94 95 104 93 95 104
122 118 118 122 118 118 187 183 184 175 171 172
174 171 172 174 171 172 173 171 172 185 182 184
184 182 184 184 182 184 183 181 183 183 181 183
182 180 183 170 168 171 169 168 171 168 167 170
180 179 182 179 179 182 113 112 116 112 112 115
86 92 105 86 92 105 86 92 105 85 92 105
85 92 105 86 92 105 86 93 105 87 93 105
88 93 105 88 94 105 89 94 106 90 95 106
90 95 106 91 95 106 92 96 106 93 96 106
94 97 106 95 97 107 96 98 107 98 99 107
99 99 107 100 100 107 101 101 108 103 102 108
105 103 109 107 105 110 110 106 111 113 108 112
182 176 179 119 112 115 122 115 116 125 116 117
126 116 116 125 115 115 125 114 114 124 114 113
124 113 112 125 113 111 125 113 111 126 113 111
126 114 111 126 114 111 83 119 169 83 119 169
83 119 169 83 119 170 83 119 170 83 120 170
83 120 170 83 120 170 84 120 170 84 120 170
84 120 170 84 120 170 84 120 170 84 120 170
84 120 170 84 120 170 84 120 170 84 120 171
150 187 237 150 187 237 151 187 237 151 187 237
151 187 237 151 187 237 151 187 237 151 187 237
151 187 237 151 187 237 151 187 237 151 187 237
151 187 238 85 121 171 85 121 171 85 121 171
85 121 171 85 121 172 85 121 172 85 121 172
85 121 172 85 122 172 85 122 172 85 122 172
85 122 172 85 122 172 86 122 172 86 122 172
86 122 172 86 122 172 86 122 172 152 188 238
152 188 238 152 188 239 152 188 239 152 188 239
152 188 239 152 188 239 152 188 239 152 189 239
152 189 239 152 189 239 152 189 239 152 189 239
152 189 239 152 189 239 152 189 239 152 189 239
153 189 239 153 189 239 153 189 239 153 189 239
153 189 239 153 189 239 153 189 239 153 189 239
153 189 239 153 189 239 153 189 239 19 92 192
19 92 192 19 92 192 19 92 192 19 92 192
19 92 192 19 92 192 19 92 192 19 92 192
19 92 192 19 92 192 19 92 192 139 175 226
139 176 226 139 176 226 139 176 226 139 176 226
139 176 226 139 176 226 139 176 226 139 176 226
140 176 226 140 176 226 140 176 226 75 111 161
75 111 161 75 111 161 75 111 161 75 111 161
75 111 161 75 111 161 75 111 161 75 111 161
75 111 161 75 111 161 75 111 161 75 111 161
75 111 161 75 111 161 75 111 161 75 111 161
75 111 161 75 111 161 140 176 227 140 177 227
140 177 227 140 177 227 140 177 227 140 177 227
140 177 227 141 177 227 141 177 227 141 177 227
141 177 227 141 177 227 141 177 227 141 177 227
141 177 227 148 154 166 150 155 166 151 155 166
151 155 166 151 155 166 150 155 166 150 155 166
150 155 166 150 155 166 149 155 166 149 155 166
149 155 166 84 89 101 83 89 101 107 106 109
118 118 121 183 182 185 170 169 172 179 178 181
165 163 166 156 158 167 160 160 168 165 163 168
169 165 169 173 167 169 178 170 170 186 175 174
197 184 181 196 172 155 210 179 156 210 177 153
210 177 152 209 176 152 183 172 171 182 172 171
182 172 172 181 172 173 181 173 173 181 173 174
180 173 174 179 173 175 178 172 174 177 171 174
176 171 174 175 170 173 173 169 173 172 168 172
105 101 106 104 101 106 102 100 105 101 99 105
101 99 105 100 98 105 99 98 105 99 98 104
98 97 104 97 97 104 97 97 104 162 162 170
161 162 170 161 162 170 160 162 170 160 162 170
160 161 170 159 161 170 159 161 170 158 161 170
158 161 170 158 161 170 157 161 171 157 160 171
157 160 171 156 160 171 156 160 171 156 160 171
155 160 171 155 160 171 155 160 171 89 94 105
88 94 105 89 94 105 89 94 105 89 94 105
90 94 105 90 95 105 91 95 106 92 95 106
92 96 106 93 96 106 94 97 106 94 97 106
95 97 106 96 98 107 97 98 107 98 99 107
99 100 107 100 100 107 102 101 108 103 102 108
104 102 108 106 103 109 107 104 109 110 106 110
112 108 111 182 176 179 186 179 181 189 182 183
192 184 185 194 185 186 130 120 120 130 119 118
129 118 117 128 117 115 127 116 114 127 115 113
127 114 112 127 114 112 127 115 112 128 115 112
128 115 112 128 115 112 83 119 170 83 120 170
83 120 170 83 120 170 84 120 170 84 120 170
84 120 170 84 120 170 84 120 170 84 120 170
84 120 170 84 120 170 84 120 171 84 120 171
84 120 171 84 121 171 84 121 171 84 121 171
85 121 171 85 121 171 151 187 237 151 187 237
151 187 237 151 187 238 151 187 238 151 187 238
151 188 238 151 188 238 151 188 238 151 188 238
85 121 172 85 121 172 85 122 172 85 122 172
85 122 172 85 122 172 86 122 172 86 122 172
86 122 172 86 122 172 86 122 172 86 122 172
86 122 172 86 122 172 86 122 172 86 122 172
86 122 172 86 122 172 86 122 172 86 122 172
86 122 173 153 189 239 153 189 239 153 189 239
153 189 239 153 189 239 153 189 239 153 189 239
153 189 239 153 189 239 153 189 239 153 189 239
153 189 239 153 189 239 153 189 239 153 189 239
153 189 239 153 189 239 153 189 239 153 189 239
153 189 239 153 189 239 153 189 239 153 189 239
153 189 239 153 189 239 19 92 192 19 92 192
19 92 192 19 92 192 19 92 192 19 92 192
19 92 192 19 92 192 19 92 192 19 92 192
19 92 192 19 92 192 19 92 192 139 176 226
139 176 226 140 176 226 140 176 226 140 176 226
140 176 226 140 176 226 140 176 226 140 176 226
75 111 161 75 111 161 75 111 161 75 111 161
75 111 161 75 111 161 75 111 161 75 111 161
75 111 161 75 111 161 75 111 161 75 111 161
75 111 161 75 111 161 75 111 161 75 111 161
75 111 161 75 111 161 75 111 161 75 111 161
75 111 162 75 111 162 75 111 162 140 177 227
141 177 227 141 177 227 141 177 227 141 177 227
141 177 227 141 177 227 141 177 227 141 177 227
141 177 227 141 177 227 141 177 227 141 177 227
141 177 227 151 155 166 152 156 166 153 156 166
153 156 166 153 156 167 153 156 167 152 156 167
152 156 167 152 156 167 152 156 167 86 90 101
86 90 101 86 90 101 86 90 101 86 90 101
86 90 101 86 90 101 152 156 167 152 156 167
159 160 168 163 162 168 167 164 169 172 166 169
176 168 170 182 172 171 191 179 176 204 190 185
219 202 196 162 151 143 210 177 153 212 172 141
206 174 152 209 176 152 182 163 149 184 173 172
184 173 172 184 174 173 184 174 174 184 175 175
184 176 176 184 176 177 184 176 178 183 176 178
182 176 178 181 175 178 180 174 177 178 173 176
176 172 175 109 105 108 107 103 108 106 102 107
104 101 106 103 101 106 102 100 106 102 100 105
101 99 105 166 165 171 165 164 171 164 164 171
164 164 171 164 164 171 163 163 171 163 163 171
162 163 171 162 163 171 161 163 171 161 162 171
160 162 171 160 162 171 160 162 171 159 162 171
159 162 171 159 162 171 158 161 171 158 161 171
158 161 171 158 161 171 158 161 171 159 162 172
93 96 106 93 96 106 94 96 106 94 97 106
94 97 106 95 97 106 96 97 106 96 98 106
97 98 107 98 99 107 99 99 107 99 100 107
100 100 107 101 100 107 102 101 108 103 102 108
105 102 108 106 103 108 107 104 109 109 105 109
110 106 110 112 107 111 115 109 112 185 178 181
189 182 183 193 185 186 197 188 188 200 190 190
202 191 190 201 190 189 200 189 187 199 187 185
131 119 117 130 117 115 129 116 114 129 116 113
129 116 112 129 116 112 130 116 112 130 116 112
130 116 112 83 120 170 84 120 170 84 120 170
84 120 170 84 120 170 84 120 170 84 120 170
84 120 170 84 120 170 84 120 171 84 120 171
84 121 171 84 121 171 84 121 171 85 121 171
85 121 171 85 121 171 85 121 171 85 121 171
85 121 171 85 121 171 85 121 171 151 188 238
151 188 238 152 188 238 152 188 238 152 188 238
152 188 238 152 188 238 85 122 172 86 122 172
86 122 172 86 122 172 86 122 172 86 122 172
86 122 172 86 122 172 86 122 172 86 122 172
86 122 172 86 122 172 86 122 172 86 122 173
86 122 173 86 122 173 86 122 173 86 123 173
86 123 173 86 123 173 86 123 173 86 123 173
87 123 173 87 123 173 153 189 239 153 189 239
153 189 239 153 189 240 153 189 240 153 189 240
153 189 240 153 189 240 153 190 240 153 190 240
153 190 240 153 190 240 153 190 240 153 190 240
153 190 240 153 190 240 153 190 240 153 190 240
153 190 240 154 190 240 154 190 240 154 190 240
19 92 192 19 92 192 19 92 192 19 92 192
19 92 192 19 92 192 19 92 192 19 92 192
19 92 192 19 92 192 19 92 192 19 92 192
19 92 192 19 92 192 19 92 192 19 92 192
140 176 226 140 176 226 140 176 226 140 176 226
140 176 226 140 176 226 75 111 161 75 111 161
75 111 161 75 111 161 75 111 161 75 111 161
75 111 161 75 111 161 75 111 161 75 111 161
75 111 161 75 111 161 75 111 161 75 111 161
75 111 161 75 111 161 75 111 161 75 111 162
75 111 162 75 111 162 75 111 162 75 111 162
75 111 162 75 111 162 75 112 162 141 177 227
141 177 227 141 177 227 141 177 227 141 177 227
141 177 227 141 177 227 141 177 227 141 177 227
141 177 227 141 177 228 141 177 228 141 177 228
141 177 228 153 156 167 154 157 167 155 157 167
155 157 167 155 157 167 155 157 167 155 157 167
89 92 101 89 92 101 88 92 101 88 92 101
88 92 102 88 92 102 88 92 102 88 92 102
88 92 102 89 92 102 89 92 102 161 161 168
166 163 169 170 166 169 174 168 170 179 170 170
186 175 173 197 183 180 211 195 190 226 207 200
228 207 197 220 197 186 214 178 152 197 170 151
201 172 151 204 174 152 217 178 148 191 168 153
185 174 172 185 174 173 186 175 173 186 176 175
187 177 177 188 179 179 189 180 180 189 181 182
189 182 183 189 182 183 188 181 183 186 180 182
185 179 181 183 177 180 114 109 113 112 107 111
111 106 110 109 105 109 107 104 108 172 169 174
171 168 173 170 167 172 169 166 172 168 166 172
167 165 172 166 165 172 166 165 172 165 165 171
165 164 171 164 164 171 164 164 171 163 164 171
163 164 171 163 163 172 162 163 172 162 163 172
162 163 172 161 163 172 161 163 172 160 163 172
160 163 172 162 164 172 163 164 172 163 164 172
164 164 172 98 99 106 98 99 107 99 99 107
99 99 107 100 100 107 101 100 107 101 101 107
102 101 107 103 101 108 104 102 108 105 102 108
106 103 108 106 103 108 107 104 109 109 105 109
110 106 109 112 107 110 114 108 111 116 110 112
119 112 114 189 181 182 192 184 185 197 188 188
202 192 191 206 195 194 208 196 194 207 195 193
206 194 191 204 192 189 202 190 187 201 188 184
199 186 182 132 118 114 131 117 113 131 117 113
131 117 112 131 117 112 132 117 113 132 117 113
84 120 170 84 120 170 84 120 170 84 120 170
84 120 170 84 120 171 84 120 171 84 120 171
84 121 171 84 121 171 84 121 171 85 121 171
85 121 171 85 121 171 85 121 171 85 121 171
85 121 171 85 121 171 85 121 171 85 121 172
85 121 172 85 121 172 85 122 172 85 122 172
152 188 238 152 188 238 152 188 238 152 188 238
86 122 172 86 122 172 86 122 172 86 122 172
86 122 172 86 122 172 86 122 172 86 122 173
86 122 173 86 122 173 86 122 173 86 123 173
86 123 173 86 123 173 86 123 173 87 123 173
87 123 173 87 123 173 87 123 173 87 123 173
87 123 173 87 123 173 87 123 173 87 123 173
87 123 173 87 123 173 87 123 173 154 190 240
154 190 240 154 190 240 154 190 240 154 190 240
154 190 240 154 190 240 154 190 240 154 190 240
154 190 240 154 190 240 154 190 240 154 190 240
154 190 240 154 190 240 154 190 240 154 190 240
154 190 240 154 190 240 19 92 192 19 92 192
19 92 192 19 92 192 19 92 192 19 92 192
19 92 192 19 92 192 19 92 192 19 92 192
19 92 192 19 92 192 19 92 192 19 92 192
19 92 192 19 92 192 19 92 192 19 92 192
140 176 226 140 176 226 140 176 226 75 111 161
75 111 161 75 111 161 75 111 161 75 111 161
75 111 161 75 111 161 75 111 161 75 111 161
75 111 161 75 111 161 75 111 161 75 111 161
75 111 161 75 111 161 75 111 162 75 111 162
75 111 162 75 111 162 75 111 162 75 111 162
75 111 162 75 111 162 75 112 162 75 112 162
75 112 162 75 112 162 75 112 162 75 112 162
141 177 227 141 177 227 141 177 227 141 177 227
141 177 228 141 177 228 141 177 228 141 177 228
141 177 228 141 178 228 141 178 228 141 178 228
141 178 228 155 158 167 156 158 167 156 158 167
157 158 167 157 158 167 91 93 102 91 93 102
91 93 102 91 93 102 91 93 102 91 93 102
91 93 102 91 93 102 91 93 102 91 93 102
91 93 102 91 93 102 97 96 103 168 164 169
173 167 170 177 169 170 183 172 171 190 178 175
203 188 183 217 199 193 228 208 200 223 201 190
217 192 179 234 189 155 189 175 172 188 175 172
196 165 140 203 173 152 209 176 153 211 179 156
187 174 172 186 175 173 187 175 173 187 176 174
188 177 176 189 179 178 191 181 180 193 184 183
195 186 186 196 187 188 197 188 189 196 189 190
195 188 189 193 186 188 190 184 186 122 116 118
120 114 117 183 178 181 181 176 180 179 174 178
177 173 177 175 171 176 173 170 175 172 169 174
171 168 173 170 168 173 169 167 173 169 167 172
168 166 172 167 166 172 167 166 172 166 166 172
166 165 172 166 166 172 167 166 172 167 166 172
167 166 172 167 166 173 167 166 173 167 166 173
167 166 173 168 166 173 168 167 173 169 167 173
169 167 173 170 168 173 104 102 107 104 102 107
105 102 108 105 102 108 106 103 108 107 103 108
108 104 108 108 104 108 109 105 109 110 105 109
111 106 109 112 106 109 113 107 110 115 109 111
118 111 112 121 113 114 124 115 116 194 185 185
198 188 188 202 192 191 207 196 194 211 200 197
213 201 198 213 200 198 212 199 196 210 197 194
208 195 192 206 193 189 204 190 186 202 188 184
201 186 182 200 185 180 133 118 113 133 118 113
133 118 113 133 118 113 133 118 113 133 118 113
84 120 170 84 120 171 84 120 171 84 120 171
84 121 171 84 121 171 85 121 171 85 121 171
85 121 171 85 121 171 85 121 171 85 121 171
85 121 171 85 121 171 85 121 172 85 121 172
85 121 172 85 122 172 85 122 172 85 122 172
86 122 172 86 122 172 86 122 172 86 122 172
86 122 172 152 189 239 86 122 172 86 122 172
86 122 172 86 122 173 86 122 173 86 122 173
86 123 173 86 123 173 86 123 173 86 123 173
87 123 173 87 123 173 87 123 173 87 123 173
87 123 173 87 123 173 87 123 173 87 123 173
87 123 173 87 123 173 87 123 173 87 123 173
87 123 174 87 123 174 87 123 174 87 123 174
87 124 174 87 124 174 87 124 174 87 124 174
87 124 174 154 190 240 154 190 240 154 190 240
154 190 241 154 190 241 154 190 241 154 190 241
154 190 241 154 190 241 154 191 241 154 191 241
154 191 241 154 191 241 154 191 241 154 191 241
154 191 241 19 92 192 19 92 192 19 92 192
19 92 192 19 92 192 19 92 192 19 92 192
19 92 192 19 92 192 19 92 192 19 92 192
19 92 192 19 92 192 19 92 192 19 92 192
19 92 192 19 92 192 19 92 192 19 92 192
19 92 192 75 111 161 75 111 161 75 111 161
75 111 161 75 111 161 75 111 161 75 111 161
75 111 161 75 111 161 75 111 161 75 111 161
75 111 161 75 111 162 75 111 162 75 111 162
75 111 162 75 111 162 75 111 162 75 111 162
75 111 162 75 112 162 75 112 162 75 112 162
75 112 162 75 112 162 75 112 162 75 112 162
75 112 162 75 112 162 76 112 162 76 112 162
141 177 228 141 177 228 141 177 228 141 177 228
141 178 228 141 178 228 141 178 228 141 178 228
141 178 228 142 178 228 142 178 228 142 178 228
152 156 167 157 159 167 158 159 168 93 94 102
93 94 102 93 94 102 93 94 102 93 94 102
93 94 102 93 94 102 93 94 102 93 94 102
93 94 102 93 94 102 93 94 102 93 94 102
93 94 102 100 98 103 104 100 104 109 102 104
179 170 171 186 174 172 195 181 176 209 192 186
223 204 196 226 205 195 219 195 183 216 190 176
221 192 175 190 176 172 190 176 172 189 176 172
189 176 172 189 175 172 205 174 152 213 178 153
188 175 172 188 175 173 188 175 173 188 176 174
189 177 175 190 178 176 192 180 179 193 182 181
196 185 184 198 189 188 201 191 191 203 194 194
204 195 196 204 196 197 136 129 130 134 127 128
198 191 193 195 189 191 192 186 188 189 183 186
186 181 184 183 178 182 180 176 180 179 174 178
177 173 177 176 172 176 175 171 175 175 170 175
174 170 174 173 169 174 173 169 173 172 169 173
172 169 173 172 169 173 172 169 173 172 169 173
172 169 173 172 169 173 172 169 173 173 169 174
173 169 174 173 169 174 174 170 174 174 170 174
174 170 174 175 170 174 175 171 174 110 105 108
110 105 108 110 105 108 111 106 109 112 106 109
113 107 109 114 107 109 115 108 110 116 109 110
118 110 111 119 111 112 122 113 113 125 115 115
129 119 118 199 189 188 204 193 191 209 197 195
213 201 199 216 204 201 218 205 202 218 205 202
218 205 201 217 203 199 215 201 197 212 198 194
210 195 191 207 192 188 205 190 185 203 188 183
202 186 181 201 186 180 201 185 180 135 119 113
135 119 113 135 119 113 135 119 113 84 120 171
84 121 171 84 121 171 85 121 171 85 121 171
85 121 171 85 121 171 85 121 171 85 121 171
85 121 171 85 121 171 85 121 172 85 121 172
85 122 172 85 122 172 85 122 172 86 122 172
86 122 172 86 122 172 86 122 172 86 122 172
86 122 172 86 122 172 86 122 172 86 122 172
153 189 239 153 189 239 153 189 239 86 123 173
86 123 173 86 123 173 87 123 173 87 123 173
87 123 173 87 123 173 87 123 173 87 123 173
87 123 173 87 123 173 87 123 173 87 123 173
87 123 174 87 123 174 87 123 174 87 123 174
87 124 174 87 124 174 87 124 174 87 124 174
87 124 174 88 124 174 88 124 174 88 124 174
88 124 174 88 124 174 88 124 174 88 124 174
88 124 174 88 124 174 155 191 241 155 191 241
155 191 241 155 191 241 155 191 241 155 191 241
155 191 241 155 191 241 155 191 241 155 191 241
155 191 241 155 191 241 155 191 241 19 92 192
19 92 192 19 92 192 19 92 192 19 92 192
19 92 192 19 92 192 19 92 192 19 92 192
19 92 192 19 92 192 19 92 192 19 92 192
19 92 192 19 92 192 19 92 192 19 92 192
19 92 192 19 92 192 19 92 192 19 92 192
19 92 192 75 111 161 75 111 161 75 111 161
75 111 161 75 111 161 75 111 161 75 111 162
75 111 162 75 111 162 75 111 162 75 111 162
75 111 162 75 111 162 75 111 162 75 112 162
75 112 162 75 112 162 75 112 162 75 112 162
75 112 162 75 112 162 75 112 162 75 112 162
75 112 162 76 112 162 76 112 162 76 112 162
76 112 162 76 112 162 76 112 162 76 112 162
76 112 162 141 178 228 141 178 228 141 178 228
142 178 228 142 178 228 142 178 228 142 178 228
142 178 228 142 178 228 142 178 228 142 178 228
155 158 167 93 94 102 94 94 102 94 95 102
94 95 102 94 95 102 95 95 102 95 95 102
95 95 102 95 95 102 95 95 103 95 95 103
95 95 103 95 95 103 95 95 103 95 95 103
102 99 104 107 101 104 111 103 104 116 106 105
122 109 106 198 182 177 212 195 188 226 205 196
222 199 188 217 191 178 219 190 175 224 193 176
191 176 172 191 176 172 191 176 172 190 176 172
190 176 172 190 176 173 190 176 173 189 176 173
189 176 173 190 176 173 190 177 173 190 177 174
191 178 174 192 179 176 193 180 177 195 182 180
197 185 182 200 187 185 203 191 188 203 193 192
140 130 130 142 133 133 144 135 135 146 137 136
146 136 136 210 201 201 208 199 199 205 196 197
201 193 194 197 190 191 194 186 188 190 183 185
188 181 183 186 179 181 184 177 180 183 176 178
181 175 177 180 174 176 179 173 176 178 172 175
178 172 175 178 172 175 178 172 174 178 172 174
178 172 174 178 172 174 178 172 174 178 172 174
178 172 174 178 172 175 179 172 175 179 173 175
180 173 175 180 173 175 181 174 175 181 174 175
115 108 109 116 108 109 117 109 110 118 110 110
119 110 111 121 111 111 123 113 112 124 114 114
127 116 115 129 118 117 133 122 120 204 192 190
210 197 194 215 202 198 218 205 201 221 207 203
222 208 205 223 209 205 223 209 205 223 208 204
221 206 202 219 204 199 216 201 196 213 197 192
210 194 189 207 191 186 205 189 184 204 188 182
203 187 181 203 186 180 203 186 180 203 186 180
137 120 114 136 120 114 85 121 171 85 121 171
85 121 171 85 121 171 85 121 171 85 121 171
85 121 171 85 121 171 85 121 172 85 121 172
85 122 172 85 122 172 85 122 172 86 122 172
86 122 172 86 122 172 86 122 172 86 122 172
86 122 172 86 122 172 86 122 172 86 122 173
86 122 173 86 123 173 153 189 239 153 189 239
153 189 240 153 189 240 153 190 240 153 190 240
87 123 173 87 123 173 87 123 173 87 123 173
87 123 173 87 123 173 87 123 174 87 123 174
87 123 174 87 124 174 87 124 174 87 124 174
87 124 174 88 124 174 88 124 174 88 124 174
88 124 174 88 124 174 88 124 174 88 124 174
88 124 174 88 124 174 88 124 174 88 124 174
88 124 174 88 124 174 88 124 175 88 124 175
88 124 175 88 124 175 88 125 175 88 125 175
155 191 241 155 191 241 155 191 242 155 191 242
155 191 242 155 191 242 155 191 242 155 191 242
155 191 242 19 92 192 19 92 192 19 92 192
19 92 192 19 92 192 19 92 192 19 92 192
19 92 192 19 92 192 19 92 192 19 92 192
19 92 192 19 92 192 19 92 192 19 92 192
19 92 192 19 92 192 19 92 192 19 92 192
19 92 192 19 92 192 19 92 192 19 92 192
19 92 192 19 92 192 75 111 162 75 111 162
75 111 162 75 111 162 75 111 162 75 111 162
75 111 162 75 111 162 75 112 162 75 112 162
75 112 162 75 112 162 75 112 162 75 112 162
75 112 162 75 112 162 75 112 162 75 112 162
76 112 162 76 112 162 76 112 162 76 112 162
76 112 162 76 112 162 76 112 162 76 112 162
76 112 162 76 112 162 76 112 162 76 112 162
76 112 162 76 112 162 142 178 228 142 178 228
142 178 228 142 178 228 142 178 228 142 178 228
142 178 228 142 178 228 142 178 228 76 112 163
91 93 102 94 94 102 95 95 102 96 96 102
96 96 103 96 96 103 97 96 103 97 96 103
97 96 103 97 96 103 97 96 103 97 96 103
98 97 103 98 97 103 98 97 103 104 100 104
109 102 105 113 105 105 118 107 105 124 111 107
134 118 112 148 130 122 225 204 194 219 194 182
217 190 176 222 192 175 144 180 230 144 180 230
191 177 173 191 177 173 191 177 173 191 177 173
192 177 173 192 178 173 192 178 173 192 178 173
190 176 173 192 178 173 192 178 173 192 178 174
193 178 174 193 179 175 194 180 176 195 182 178
197 183 180 199 186 182 136 122 119 139 126 122
142 129 126 145 132 129 143 133 132 151 138 136
152 140 138 153 141 139 218 207 205 217 206 204
215 204 202 211 201 200 208 198 197 204 194 194
201 191 191 198 189 188 195 186 186 193 184 184
191 182 182 189 180 180 187 178 179 186 177 178
185 176 177 184 176 176 184 175 176 184 175 176
184 175 176 184 175 175 184 175 175 184 175 175
184 175 175 184 175 175 184 175 176 185 176 176
186 176 176 186 176 176 187 177 176 187 177 177
188 178 177 122 112 111 124 113 111 125 114 112
127 116 114 130 117 115 132 120 117 135 123 120
139 126 123 209 196 192 214 200 196 217 203 199
221 206 202 223 209 205 226 211 207 227 212 208
228 213 208 228 213 208 227 211 206 225 209 204
222 206 201 219 203 197 216 199 193 213 196 190
210 193 187 208 191 184 206 189 183 206 188 181
205 188 181 205 187 181 205 187 181 205 187 181
205 187 181 136 120 114 85 121 171 85 121 171
85 121 171 85 121 171 85 121 172 85 121 172
85 122 172 85 122 172 85 122 172 86 122 172
86 122 172 86 122 172 86 122 172 86 122 172
86 122 172 86 122 172 86 122 173 86 122 173
86 123 173 86 123 173 86 123 173 87 123 173
153 189 240 153 190 240 153 190 240 153 190 240
154 190 240 154 190 240 154 190 240 154 190 240
154 190 240 87 123 174 87 123 174 87 124 174
87 124 174 87 124 174 88 124 174 88 124 174
88 124 174 88 124 174 88 124 174 88 124 174
88 124 174 88 124 174 88 124 174 88 124 174
88 124 174 88 124 175 88 124 175 88 124 175
88 124 175 88 125 175 88 125 175 88 125 175
88 125 175 88 125 175 89 125 175 89 125 175
89 125 175 89 125 175 89 125 175 89 125 175
89 125 175 156 192 242 156 192 242 156 192 242
156 192 242 156 192 242 156 192 242 156 192 242
19 92 192 19 92 192 19 92 192 19 92 192
19 92 192 19 92 192 19 92 192 19 92 192
19 92 192 19 92 192 19 92 192 19 92 192
19 92 192 19 92 192 19 92 192 19 92 192
19 92 192 19 92 192 19 92 192 19 92 192
19 92 192 19 92 192 19 92 192 19 92 192
19 92 192 19 92 192 75 111 162 75 111 162
75 112 162 75 112 162 75 112 162 75 112 162
75 112 162 75 112 162 75 112 162 75 112 162
75 112 162 75 112 162 75 112 162 76 112 162
76 112 162 76 112 162 76 112 162 76 112 162
76 112 162 76 112 162 76 112 162 76 112 162
76 112 162 76 112 162 76 112 162 76 112 162
76 112 162 76 112 162 76 112 162 76 112 162
76 112 162 76 112 162 142 178 228 142 178 228
142 178 228 142 178 228 142 178 228 142 178 228
76 112 163 76 112 163 76 113 163 76 113 163
93 94 102 95 95 102 96 96 103 97 96 103
98 97 103 98 97 103 99 97 103 99 97 103
99 97 103 99 97 103 100 98 103 100 98 104
100 98 104 101 99 104 105 101 105 111 103 105
115 106 105 120 108 106 127 112 107 137 120 113
150 131 122 158 135 125 218 192 179 219 191 175
226 194 176 144 180 230 144 180 230 144 180 230
191 177 173 192 177 173 193 178 173 194 178 173
194 178 173 194 179 173 194 179 173 194 179 174
194 179 174 194 179 174 194 179 174 195 179 174
195 179 174 195 180 175 195 180 175 196 181 177
131 116 112 133 118 114 135 120 116 137 123 119
140 126 122 143 129 125 146 132 128 149 135 131
151 137 133 153 139 135 220 206 202 220 207 203
220 207 203 219 206 203 217 204 201 214 201 199
211 199 197 209 196 194 206 194 191 203 191 189
200 188 186 198 186 184 196 184 182 194 182 181
192 181 180 192 180 179 191 180 178 190 179 177
190 179 177 190 178 177 190 178 177 190 178 177
189 178 176 190 178 177 190 179 177 191 179 177
192 179 177 192 180 177 193 181 178 194 181 178
195 182 179 196 183 180 132 118 115 134 120 117
137 123 119 140 126 121 143 128 124 212 198 193
215 200 196 218 203 199 222 206 201 225 210 205
228 212 207 230 214 209 232 216 210 232 216 210
232 215 209 230 214 208 228 211 205 225 208 202
221 204 198 218 201 194 215 197 190 212 194 188
210 192 185 208 190 183 207 189 182 207 189 181
207 188 181 207 188 181 207 188 181 206 188 181
205 188 181 152 188 238 85 121 172 85 121 172
85 122 172 85 122 172 85 122 172 86 122 172
86 122 172 86 122 172 86 122 172 86 122 172
86 122 172 86 122 172 86 122 173 86 122 173
86 123 173 86 123 173 86 123 173 87 123 173
87 123 173 87 123 173 154 190 240 154 190 240
154 190 240 154 190 240 154 190 240 154 190 240
154 190 240 154 190 240 154 190 241 154 190 241
154 191 241 154 191 241 88 124 174 88 124 174
88 124 174 88 124 174 88 124 174 88 124 174
88 124 174 88 124 174 88 124 175 88 124 175
88 124 175 88 125 175 88 125 175 88 125 175
88 125 175 89 125 175 89 125 175 89 125 175
89 125 175 89 125 175 89 125 175 89 125 175
89 125 175 89 125 175 89 125 175 89 125 175
89 125 175 89 125 175 89 125 175 89 125 176
89 125 176 89 125 176 89 125 176 156 192 242
156 192 242 156 192 243 19 92 192 19 92 192
19 92 192 19 92 192 19 92 192 19 92 192
19 92 192 19 92 192 19 92 192 19 92 192
19 92 192 19 92 192 19 92 192 19 92 192
19 92 192 19 92 192 19 92 192 19 92 192
19 92 192 19 92 192 19 92 192 19 92 192
19 92 192 19 92 192 19 92 192 19 92 192
19 92 192 19 92 192 19 92 192 75 112 162
75 112 162 75 112 162 75 112 162 75 112 162
75 112 162 76 112 162 76 112 162 76 112 162
76 112 162 76 112 162 76 112 162 76 112 162
76 112 162 76 112 162 76 112 162 76 112 162
76 112 162 76 112 162 76 112 162 76 112 162
76 112 162 76 112 162 76 112 162 76 112 162
76 112 162 76 112 162 76 112 162 76 112 162
76 112 163 76 112 163 76 112 163 142 178 229
142 178 229 142 178 229 76 113 163 76 113 163
76 113 163 76 113 163 76 113 163 76 113 163
95 95 102 97 96 103 98 96 103 99 97 103
99 97 103 100 98 103 100 98 103 101 98 103
101 98 104 102 99 104 102 99 104 104 100 105
104 101 106 108 103 107 113 105 107 117 107 106
122 109 106 128 113 107 138 120 113 152 131 122
156 132 121 151 125 111 154 125 109 144 180 230
144 180 230 144 180 230 144 180 230 144 180 230
144 180 231 192 177 173 194 178 173 195 179 174
195 179 174 196 180 174 196 180 174 196 180 174
197 180 174 196 180 174 197 180 174 197 180 174
197 180 174 131 114 108 131 115 109 131 115 110
132 116 111 133 117 112 135 119 113 136 121 115
139 123 118 141 125 120 144 128 123 146 131 126
148 133 128 150 135 130 152 136 132 219 204 199
219 204 200 219 204 199 218 203 199 217 202 198
215 201 196 213 199 194 211 197 192 209 195 190
207 193 188 205 191 187 203 189 185 201 187 183
199 185 182 198 184 181 197 183 180 197 183 179
196 182 178 196 182 178 196 182 178 195 181 178
195 181 178 196 182 178 196 182 178 197 183 178
198 183 179 199 184 179 200 185 180 201 186 181
202 187 182 204 188 184 206 190 185 141 126 121
144 128 123 213 198 192 216 200 195 220 203 198
223 206 201 225 209 203 228 212 206 231 215 209
233 216 210 234 217 211 235 217 211 234 216 210
232 215 208 230 212 206 227 209 202 223 205 198
220 202 194 217 198 191 214 195 188 212 193 186
210 191 184 209 190 183 209 190 182 209 190 182
209 189 182 208 189 182 208 189 182 207 189 182
152 188 238 152 188 239 152 188 239 152 189 239
86 122 172 86 122 172 86 122 172 86 122 172
86 122 172 86 122 172 86 122 173 86 122 173
86 123 173 86 123 173 86 123 173 87 123 173
87 123 173 87 123 173 87 123 173 87 123 173
87 123 173 154 190 240 154 190 240 154 190 240
154 190 241 154 190 241 154 190 241 154 191 241
154 191 241 154 191 241 155 191 241 155 191 241
155 191 241 155 191 241 155 191 241 155 191 241
88 124 175 88 124 175 88 124 175 88 125 175
88 125 175 88 125 175 89 125 175 89 125 175
89 125 175 89 125 175 89 125 175 89 125 175
89 125 175 89 125 175 89 125 175 89 125 175
89 125 175 89 125 175 89 125 176 89 125 176
89 125 176 89 126 176 89 126 176 89 126 176
89 126 176 89 126 176 89 126 176 90 126 176
90 126 176 90 126 176 90 126 176 90 126 176
19 92 192 19 92 192 19 92 192 19 92 192
19 92 192 19 92 192 19 92 192 19 92 192
19 92 192 19 92 192 19 92 192 19 92 192
19 92 192 19 92 192 19 92 192 19 92 192
19 92 192 19 92 192 19 92 192 19 92 192
19 92 192 19 92 192 19 92 192 19 92 192
19 92 192 19 92 192 19 92 192 19 92 192
19 92 192 19 92 192 19 92 192 76 112 162
76 112 162 76 112 162 76 112 162 76 112 162
76 112 162 76 112 162 76 112 162 76 112 162
76 112 162 76 112 162 76 112 162 76 112 162
76 112 162 76 112 162 76 112 162 76 112 162
76 112 162 76 112 162 76 112 162 76 112 162
76 112 162 76 112 162 76 112 162 76 112 162
76 112 163 76 112 163 76 112 163 76 112 163
76 112 163 76 112 163 76 113 163 142 179 229
76 113 163 76 113 163 76 113 163 76 113 163
77 113 163 77 113 163 77 113 163 77 113 163
96 96 103 98 97 103 99 97 103 100 98 103
101 98 103 102 99 104 102 99 104 103 99 104
103 100 104 104 100 105 106 102 106 108 104 108
112 106 110 117 109 110 120 109 108 124 111 108
129 113 107 138 119 112 153 131 121 154 130 118
151 124 110 155 125 110 78 114 164 78 114 164
144 180 231 144 180 231 144 180 231 144 181 231
144 181 231 144 181 231 193 178 173 196 179 174
197 180 174 197 180 174 198 181 174 198 181 174
198 181 174 198 181 175 199 181 175 132 115 108
132 115 108 133 115 109 133 115 109 133 116 109
133 116 110 134 117 111 135 118 112 136 119 113
138 121 115 139 123 117 141 125 119 144 127 121
145 129 123 147 131 125 149 132 126 150 133 128
217 201 195 217 201 195 217 201 195 216 200 195
215 199 194 214 198 193 212 196 191 211 195 189
209 193 188 208 192 186 206 190 185 204 189 183
203 188 182 202 187 181 202 186 180 201 185 180
201 185 179 200 184 179 200 184 179 200 184 179
200 184 179 200 184 179 201 185 179 202 185 180
202 186 180 203 187 181 204 188 182 206 189 183
207 191 185 209 192 186 211 194 188 147 130 124
150 133 127 220 203 196 223 205 199 226 208 202
229 211 204 231 213 207 233 216 209 235 217 210
236 218 211 236 218 211 235 217 209 233 215 207
231 212 205 228 210 202 225 206 198 221 202 194
218 199 191 216 196 188 214 194 186 212 193 184
211 191 183 211 191 182 210 191 182 210 190 182
210 190 182 210 190 182 209 190 182 152 189 239
152 189 239 153 189 239 153 189 239 153 189 239
153 189 239 86 122 172 86 122 173 86 122 173
86 123 173 86 123 173 87 123 173 87 123 173
87 123 173 87 123 173 87 123 173 87 123 173
87 123 173 87 123 173 87 123 174 154 190 241
154 190 241 154 191 241 154 191 241 154 191 241
155 191 241 155 191 241 155 191 241 155 191 241
155 191 241 155 191 241 155 191 241 155 191 241
155 191 242 155 191 242 155 192 242 155 192 242
155 192 242 89 125 175 89 125 175 89 125 175
89 125 175 89 125 175 89 125 175 89 125 175
89 125 175 89 125 175 89 125 176 89 125 176
89 125 176 89 126 176 89 126 176 89 126 176
89 126 176 89 126 176 90 126 176 90 126 176
90 126 176 90 126 176 90 126 176 90 126 176
90 126 176 90 126 176 90 126 176 90 126 176
90 126 176 90 126 176 90 126 176 19 92 192
19 92 192 19 92 192 19 92 192 19 92 192
19 92 192 19 92 192 19 92 192 19 92 192
19 92 192 19 92 192 19 92 192 19 92 192
19 92 192 19 92 192 19 92 192 19 92 192
19 92 192 19 92 192 19 92 192 19 92 192
19 92 192 19 92 192 19 92 192 19 92 192
19 92 192 19 92 192 19 92 192 19 92 192
19 92 192 19 92 192 19 92 192 19 92 192
76 112 162 76 112 162 76 112 162 76 112 162
76 112 162 76 112 162 76 112 162 76 112 162
76 112 162 76 112 162 76 112 162 76 112 162
76 112 162 76 112 162 76 112 162 76 112 162
76 112 162 76 112 162 76 112 162 76 112 163
76 112 163 76 112 163 76 112 163 76 112 163
76 112 163 76 113 163 76 113 163 76 113 163
76 113 163 142 179 229 142 179 229 143 179 229
77 113 163 77 113 163 77 113 163 77 113 163
77 113 163 77 113 163 77 113 163 77 113 163
97 96 103 99 97 103 100 98 103 101 98 104
102 99 104 103 99 104 104 100 104 105 100 104
106 101 105 107 103 106 110 106 109 113 109 112
122 114 114 125 114 113 126 113 110 130 114 108
138 119 111 151 129 119 154 129 117 151 124 110
155 126 110 78 114 164 78 114 164 78 114 164
78 114 164 144 181 231 144 181 231 145 181 231
145 181 231 145 181 231 145 181 231 196 180 174
197 180 174 198 181 174 199 181 175 200 182 175
200 182 175 134 116 108 134 116 109 134 116 109
134 116 109 134 116 109 135 116 109 135 116 109
135 117 110 135 117 110 136 118 111 137 119 111
138 120 112 139 121 114 140 122 115 142 124 117
143 125 119 145 127 120 146 128 121 147 129 123
148 130 123 215 197 191 215 198 191 215 198 191
214 197 191 213 196 190 212 195 189 211 194 188
210 193 187 209 192 185 208 191 184 206 189 183
205 188 182 205 188 181 204 187 181 204 187 180
203 186 180 203 186 180 203 186 179 203 186 179
203 186 180 204 186 180 204 187 180 205 188 181
206 189 182 207 190 183 209 191 184 210 192 185
212 194 187 147 129 122 150 132 125 152 134 127
155 137 130 158 140 132 228 209 202 230 212 204
233 214 206 234 216 208 236 217 209 237 218 210
236 217 209 235 216 208 234 214 206 231 212 203
229 209 201 226 206 198 222 202 194 219 199 191
217 197 188 215 195 186 214 193 184 213 192 183
212 192 183 212 192 182 212 191 182 212 191 182
211 191 182 210 191 182 153 189 239 153 189 239
153 189 239 153 189 239 153 189 239 153 189 239
153 189 240 153 189 240 86 123 173 87 123 173
87 123 173 87 123 173 87 123 173 87 123 173
87 123 173 87 123 174 87 123 174 87 124 174
87 124 174 154 191 241 154 191 241 155 191 241
155 191 241 155 191 241 155 191 241 155 191 241
155 191 241 155 191 241 155 191 242 155 191 242
155 191 242 155 192 242 155 192 242 155 192 242
156 192 242 156 192 242 156 192 242 156 192 242
156 192 242 156 192 242 89 125 175 89 125 175
89 125 176 89 125 176 89 126 176 89 126 176
89 126 176 89 126 176 90 126 176 90 126 176
90 126 176 90 126 176 90 126 176 90 126 176
90 126 176 90 126 176 90 126 176 90 126 176
90 126 176 90 126 176 90 126 177 90 126 177
90 126 177 90 126 177 90 127 177 90 127 177
90 127 177 19 92 192 19 92 192 19 92 192
19 92 192 19 92 192 19 92 192 19 92 192
19 92 192 19 92 192 19 92 192 19 92 192
19 92 192 19 92 192 19 92 192 19 92 192
19 92 192 19 92 192 19 92 192 19 92 192
19 92 192 19 92 192 19 92 192 19 92 192
19 92 192 19 92 192 19 92 192 19 92 192
19 92 192 19 92 192 19 92 192 19 92 192
19 92 192 19 92 192 19 92 192 19 92 192
76 112 162 76 112 162 76 112 162 76 112 162
76 112 162 76 112 162 76 112 162 76 112 162
76 112 162 76 112 162 76 112 162 76 112 162
76 112 162 76 112 162 76 112 163 76 112 163
76 112 163 76 112 163 76 112 163 76 112 163
76 112 163 76 113 163 76 113 163 76 113 163
76 113 163 76 113 163 143 179 229 143 179 229
143 179 229 143 179 229 143 179 229 143 179 229
143 179 229 77 113 163 77 113 163 77 113 163
77 113 163 77 113 163 77 113 163 77 113 163
97 96 103 100 98 103 102 99 104 102 99 104
104 100 104 104 100 104 106 101 104 107 102 105
108 103 106 112 107 110 117 112 115 126 118 119
130 119 118 131 117 113 132 115 109 138 118 110
149 127 117 154 129 117 151 124 110 78 114 164
78 114 164 78 114 164 78 114 164 78 114 165
78 114 165 78 114 165 145 181 231 145 181 231
145 181 231 145 181 231 145 181 231 155 150 149
197 181 175 199 182 175 200 182 175 135 116 109
135 116 109 135 117 109 136 117 109 136 117 109
136 117 109 136 117 109 136 117 109 137 117 109
137 118 110 137 118 110 137 118 110 138 119 111
138 119 111 139 120 112 140 121 113 141 122 114
142 123 115 143 124 116 144 125 118 145 126 119
146 127 119 146 128 120 213 195 187 213 195 188
213 195 187 213 194 187 212 194 186 211 193 186
211 192 185 210 191 184 209 191 183 208 190 182
207 189 182 207 189 181 206 188 181 206 188 180
206 188 180 206 187 180 206 187 180 206 188 180
206 188 180 207 188 181 208 189 182 209 190 182
210 191 183 211 192 184 213 194 186 147 128 121
149 130 122 151 132 124 154 135 127 157 137 129
159 140 132 162 142 134 164 144 136 233 213 205
235 215 206 236 216 207 236 216 207 236 216 207
235 215 206 233 213 204 231 211 202 229 208 199
226 205 196 223 202 193 221 200 190 218 197 188
217 195 186 215 194 185 214 193 184 214 193 183
214 192 183 214 192 183 213 192 183 213 192 183
212 192 183 209 190 183 153 189 239 153 189 239
153 189 240 153 190 240 153 190 240 153 190 240
154 190 240 154 190 240 154 190 240 87 123 173
87 123 173 87 123 173 87 123 174 87 124 174
87 124 174 87 124 174 88 124 174 155 191 241
155 191 241 155 191 241 155 191 241 155 191 241
155 191 241 155 191 242 155 191 242 155 192 242
155 192 242 155 192 242 156 192 242 156 192 242
156 192 242 156 192 242 156 192 242 156 192 242
156 192 242 156 192 242 156 192 243 156 192 243
156 193 243 156 193 243 156 193 243 157 193 243
90 126 176 90 126 176 90 126 176 90 126 176
90 126 176 90 126 176 90 126 176 90 126 176
90 126 176 90 126 176 90 126 177 90 126 177
90 126 177 90 127 177 90 127 177 90 127 177
90 127 177 90 127 177 91 127 177 91 127 177
91 127 177 91 127 177 91 127 177 19 92 192
19 92 192 19 92 192 19 92 192 19 92 192
19 92 192 19 92 192 19 92 192 19 92 192
19 92 192 19 92 192 19 92 192 19 92 192
19 92 192 19 92 192 19 92 192 19 92 192
19 92 192 19 92 192 19 92 192 19 92 192
19 92 192 19 92 192 19 92 192 19 92 192
19 92 192 19 92 192 19 92 192 19 92 192
19 92 192 19 92 192 19 92 192 19 92 192
19 92 192 19 92 192 19 92 192 19 92 192
19 92 192 76 112 162 76 112 162 76 112 162
76 112 162 76 112 162 76 112 162 76 112 162
76 112 162 76 112 163 76 112 163 76 112 163
76 112 163 76 112 163 76 112 163 76 112 163
76 113 163 76 113 163 76 113 163 76 113 163
76 113 163 76 113 163 76 113 163 77 113 163
143 179 229 143 179 229 143 179 229 143 179 229
143 179 229 143 179 229 143 179 229 143 179 229
143 179 229 143 179 229 77 113 163 77 113 163
77 113 163 77 113 163 77 113 163 91 81 73
98 97 103 101 98 104 103 99 104 104 100 104
105 100 104 106 101 104 107 102 105 109 103 106
113 107 109 119 113 115 126 119 122 137 126 125
136 123 119 134 117 111 137 118 109 147 125 114
153 129 116 151 124 110 78 114 164 78 114 164
78 114 165 78 114 165 78 114 165 78 115 165
78 115 165 78 115 165 145 181 231 145 181 231
145 181 232 145 181 232 145 182 232 145 182 232
128 113 108 133 115 108 134 116 109 135 117 109
136 117 109 137 117 109 137 118 109 137 118 109
138 118 109 138 118 110 138 118 110 138 118 110
138 118 110 139 119 110 139 119 110 139 119 111
140 120 111 140 120 111 140 121 112 141 121 113
142 122 113 142 123 114 143 123 115 144 124 116
145 125 116 145 125 117 145 126 117 212 193 184
212 193 184 212 193 184 212 192 184 212 192 184
211 192 183 211 191 183 210 191 182 210 190 182
209 190 181 209 189 181 209 189 181 208 189 181
208 189 180 208 189 180 209 189 181 209 189 181
209 190 181 210 190 182 211 191 183 212 192 183
213 193 185 148 128 119 149 129 120 151 131 122
153 133 124 155 135 126 157 137 128 160 139 130
162 141 132 164 143 134 165 145 136 167 146 137
235 214 205 235 214 205 235 214 204 234 213 203
232 211 201 230 209 199 228 207 197 226 204 195
224 202 192 221 200 190 219 198 188 218 196 186
217 195 185 216 194 184 215 194 184 215 193 183
215 193 183 215 193 183 214 193 183 214 193 183
212 192 183 153 189 240 153 190 240 153 190 240
154 190 240 154 190 240 154 190 240 154 190 240
154 190 240 154 190 240 154 190 241 154 190 241
87 124 174 87 124 174 88 124 174 88 124 174
88 124 174 155 191 241 155 191 241 155 191 241
155 191 242 155 191 242 155 192 242 155 192 242
155 192 242 156 192 242 156 192 242 156 192 242
156 192 242 156 192 242 156 192 242 156 192 242
156 192 243 156 192 243 156 193 243 156 193 243
156 193 243 157 193 243 157 193 243 157 193 243
157 193 243 157 193 243 157 193 243 157 193 243
157 193 243 90 126 176 90 126 176 90 126 177
90 126 177 90 126 177 90 127 177 90 127 177
90 127 177 90 127 177 91 127 177 91 127 177
91 127 177 91 127 177 91 127 177 91 127 177
91 127 177 91 127 177 91 127 177 91 127 177
91 127 177 91 127 177 19 92 192 19 92 192
19 92 192 19 92 192 19 92 192 19 92 192
19 92 192 19 92 192 19 92 192 19 92 192
19 92 192 19 92 192 19 92 192 19 92 192
19 92 192 19 92 192 19 92 192 19 92 192
19 92 192 19 92 192 19 92 192 19 92 192
19 92 192 19 92 192 19 92 192 19 92 192
19 92 192 19 92 192 19 92 192 19 92 192
19 92 192 19 92 192 19 92 192 19 92 192
19 92 192 19 92 192 19 92 192 19 92 192
19 92 192 19 92 192 76 112 162 76 112 162
76 112 163 76 112 163 76 112 163 76 112 163
76 112 163 76 112 163 76 112 163 76 113 163
76 113 163 76 113 163 76 113 163 76 113 163
76 113 163 76 113 163 76 113 163 77 113 163
77 113 163 77 113 163 143 179 229 143 179 229
143 179 229 143 179 229 143 179 229 143 179 229
143 179 229 143 179 230 143 179 230 143 179 230
143 179 230 143 180 230 77 113 163 77 113 163
77 113 164 77 113 164 77 113 164 93 94 103
99 97 104 101 99 104 103 100 104 105 101 104
106 101 105 107 102 105 109 103 105 111 105 107
118 111 113 128 121 122 142 131 130 144 130 127
139 123 117 137 118 110 144 122 112 153 129 116
151 124 110 78 114 165 78 114 165 78 114 165
78 115 165 78 115 165 78 115 165 78 115 165
79 115 165 79 115 165 79 115 165 145 182 232
145 182 232 145 182 232 79 115 165 79 115 165
79 115 165 131 114 108 134 116 109 136 117 109
137 118 109 138 118 109 138 118 110 139 119 110
139 119 110 140 119 110 140 119 110 140 119 110
140 119 110 140 120 110 141 120 110 141 120 111
141 120 111 141 120 111 142 121 111 142 121 112
142 122 112 143 122 113 143 123 113 144 123 114
144 124 114 145 124 115 145 124 115 145 125 115
212 192 182 212 192 182 212 191 182 212 191 182
212 191 182 212 191 182 211 191 182 211 190 181
211 190 181 211 190 181 211 190 181 211 190 181
211 190 181 211 190 181 211 190 181 212 191 182
212 191 182 213 192 183 214 193 183 148 127 118
149 128 119 151 129 120 152 131 121 154 133 123
155 134 125 157 136 126 159 138 128 161 140 130
163 141 131 164 143 133 166 144 134 166 144 134
167 145 135 233 212 201 233 211 200 231 209 199
230 207 197 228 206 195 226 204 193 224 202 191
222 200 189 220 198 187 219 197 186 218 196 185
217 195 184 217 195 184 217 194 184 217 194 184
216 194 184 216 194 184 215 193 184 213 193 184
154 190 240 154 190 240 154 190 240 154 190 240
154 190 240 154 190 240 154 190 241 154 190 241
154 191 241 154 191 241 155 191 241 155 191 241
155 191 241 88 124 174 88 124 174 155 191 241
155 191 242 155 191 242 155 192 242 155 192 242
156 192 242 156 192 242 156 192 242 156 192 242
156 192 242 156 192 242 156 192 242 156 192 243
156 192 243 156 193 243 156 193 243 156 193 243
157 193 243 157 193 243 157 193 243 157 193 243
157 193 243 157 193 243 157 193 243 157 193 244
157 193 244 157 193 244 157 194 244 157 194 244
157 194 244 158 194 244 90 127 177 91 127 177
91 127 177 91 127 177 91 127 177 91 127 177
91 127 177 91 127 177 91 127 177 91 127 177
91 127 177 91 127 178 91 127 178 91 127 178
91 127 178 91 128 178 91 128 178 91 128 178
19 92 192 19 92 192 19 92 192 19 92 192
19 92 192 19 92 192 19 92 192 19 92 192
19 92 192 19 92 192 19 92 192 19 92 192
19 92 192 19 92 192 19 92 192 19 92 192
19 92 192 19 92 192 19 92 192 19 92 192
19 92 192 19 92 192 19 92 192 19 92 192
19 92 192 19 92 192 19 92 192 19 92 192
19 92 192 19 92 192 19 92 192 19 92 192
19 92 192 19 92 192 19 92 192 19 92 192
19 92 192 19 92 192 19 92 192 19 92 192
19 92 192 19 92 192 76 112 163 76 112 163
76 112 163 76 113 163 76 113 163 76 113 163
76 113 163 76 113 163 76 113 163 76 113 163
76 113 163 76 113 163 77 113 163 77 113 163
77 113 163 77 113 163 77 113 163 143 179 229
143 179 229 143 179 229 143 179 229 143 179 229
143 179 230 143 179 230 143 179 230 143 179 230
143 180 230 143 180 230 143 180 230 143 180 230
143 180 230 144 180 230 144 180 230 77 113 164
77 113 164 77 114 164 77 114 164 94 95 103
100 98 104 102 99 104 104 100 104 106 101 105
108 102 105 109 103 105 111 104 106 115 108 109
124 117 119 135 128 129 151 138 135 145 129 124
139 120 112 142 121 111 153 128 116 151 125 111
149 123 110 78 115 165 78 115 165 78 115 165
78 115 165 79 115 165 79 115 165 79 115 165
79 115 165 79 115 165 79 115 165 79 115 165
79 115 165 79 115 165 79 115 166 79 115 166
79 116 166 79 116 166 133 115 109 136 117 109
137 118 109 139 118 110 139 119 110 140 119 110
141 120 110 141 120 110 141 120 110 142 120 110
142 120 111 142 120 111 142 121 111 143 121 111
143 121 111 143 121 111 143 121 111 143 122 112
144 122 112 144 122 112 144 123 113 145 123 113
145 123 113 145 124 114 146 124 114 146 124 114
146 124 114 213 191 181 213 191 181 213 191 181
213 191 181 213 191 181 213 191 181 213 191 181
213 191 181 213 191 181 213 191 181 213 191 181
213 191 181 213 191 181 214 192 182 214 192 182
215 193 183 148 127 116 149 127 117 150 128 118
152 130 119 153 131 120 154 132 122 156 134 123
157 135 125 159 137 126 160 138 127 162 139 129
163 140 130 164 141 131 165 142 131 165 142 131
165 142 131 164 141 131 230 207 196 229 206 195
227 204 193 226 203 192 224 201 190 223 200 189
221 198 187 220 197 186 219 196 185 219 196 184
218 195 184 218 195 184 218 195 184 218 195 184
217 195 184 216 194 184 214 193 184 154 190 240
154 190 240 154 190 240 154 190 241 154 190 241
154 191 241 154 191 241 155 191 241 155 191 241
155 191 241 155 191 241 155 191 241 155 191 241
155 191 242 88 124 175 88 124 175 155 192 242
156 192 242 156 192 242 156 192 242 156 192 242
156 192 242 156 192 242 156 192 243 156 192 243
156 193 243 156 193 243 156 193 243 157 193 243
157 193 243 157 193 243 157 193 243 157 193 243
157 193 243 157 193 243 157 193 244 157 193 244
157 194 244 157 194 244 157 194 244 158 194 244
158 194 244 158 194 244 158 194 244 158 194 244
158 194 244 158 194 244 158 194 244 91 127 177
91 127 177 91 127 177 91 127 178 91 127 178
91 127 178 91 128 178 91 128 178 91 128 178
91 128 178 92 128 178 92 128 178 92 128 178
92 128 178 92 128 178 19 92 192 19 92 192
19 92 192 19 92 192 19 92 192 19 92 192
19 92 192 19 92 192 19 92 192 19 92 192
19 92 192 19 92 192 19 92 192 19 92 192
19 92 192 19 92 192 19 92 192 19 92 192
19 92 192 19 92 192 19 92 192 19 92 192
19 92 192 19 92 192 19 92 192 19 92 192
19 92 192 19 92 192 19 92 192 19 92 192
19 92 192 19 92 192 19 92 192 19 92 192
19 92 192 19 92 192 19 92 192 19 92 192
19 92 192 19 92 192 19 92 192 19 92 192
19 92 192 19 92 192 19 92 192 76 113 163
76 113 163 76 113 163 76 113 163 76 113 163
76 113 163 77 113 163 77 113 163 77 113 163
77 113 163 77 113 163 77 113 163 77 113 163
77 113 163 143 179 229 143 179 229 143 179 230
143 179 230 143 179 230 143 179 230 143 180 230
143 180 230 143 180 230 143 180 230 143 180 230
144 180 230 144 180 230 144 180 230 144 180 230
144 180 230 144 180 230 144 180 230 144 180 230
77 114 164 77 114 164 78 114 164 95 96 103
100 98 104 103 100 104 105 101 105 107 102 105
109 103 105 111 104 106 113 106 107 120 112 113
132 124 125 150 138 136 152 137 132 143 125 118
142 120 110 149 125 114 152 126 113 148 123 110
78 115 165 78 115 165 79 115 165 79 115 165
79 115 165 79 115 165 79 115 165 79 115 165
79 115 165 79 115 165 146 182 232 146 182 232
146 182 232 79 115 166 79 116 166 79 116 166
79 116 166 80 116 166 80 116 166 134 116 109
137 118 110 139 119 110 140 119 110 141 120 110
142 120 110 142 120 110 143 121 111 143 121 111
143 121 111 144 121 111 144 122 111 144 122 111
144 122 111 145 122 111 145 122 112 145 122 112
145 123 112 145 123 112 146 123 112 146 123 113
146 124 113 146 124 113 147 124 113 147 124 113
147 124 114 147 124 114 214 191 181 214 192 181
214 192 181 214 192 181 214 192 181 214 192 181
214 192 181 214 192 181 215 192 181 215 192 181
215 192 181 215 193 182 216 193 182 149 126 116
150 127 116 151 128 117 151 129 118 152 129 118
154 130 119 155 132 120 156 133 122 157 134 123
158 135 124 160 136 125 161 137 126 162 138 127
162 139 128 163 139 128 163 140 128 163 140 128
163 139 128 162 139 127 161 137 126 227 203 191
226 202 190 225 201 189 223 200 188 222 199 187
221 198 186 221 197 185 220 196 185 220 196 184
220 196 184 219 196 184 219 196 184 219 195 184
218 195 184 216 194 184 154 190 241 154 190 241
154 191 241 154 191 241 155 191 241 155 191 241
155 191 241 155 191 241 155 191 241 155 191 241
155 191 242 155 191 242 155 192 242 155 192 242
88 125 175 88 125 175 89 125 175 89 125 175
156 192 242 156 192 242 156 192 243 156 192 243
156 193 243 156 193 243 157 193 243 157 193 243
157 193 243 157 193 243 157 193 243 157 193 243
157 193 243 157 193 244 157 193 244 157 194 244
157 194 244 158 194 244 158 194 244 158 194 244
158 194 244 158 194 244 158 194 244 158 194 244
158 194 244 158 194 245 158 194 245 158 195 245
158 195 245 158 195 245 159 195 245 159 195 245
159 195 245 91 128 178 92 128 178 92 128 178
92 128 178 92 128 178 92 128 178 92 128 178
92 128 178 92 128 178 92 128 178 92 128 178
19 92 192 19 92 192 19 92 192 19 92 192
19 92 192 19 92 192 19 92 192 19 92 192
19 92 192 19 92 192 19 92 192 19 92 192
19 92 192 19 92 192 19 92 192 19 92 192
19 92 192 19 92 192 19 92 192 19 92 192
19 92 192 19 92 192 19 92 192 19 92 192
19 92 192 19 92 192 19 92 192 19 92 192
19 92 192 19 92 192 19 92 192 19 92 192
19 92 192 19 92 192 19 92 192 19 92 192
19 92 192 19 92 192 19 92 192 19 92 192
19 92 192 19 92 192 19 92 192 19 92 192
19 92 192 19 92 192 19 92 192 77 113 163
77 113 163 77 113 163 77 113 163 77 113 163
77 113 163 77 113 163 77 113 163 77 113 163
77 113 163 77 113 163 143 179 230 143 179 230
143 179 230 143 179 230 143 180 230 143 180 230
143 180 230 143 180 230 143 180 230 144 180 230
144 180 230 144 180 230 144 180 230 144 180 230
144 180 230 144 180 230 144 180 230 144 180 230
144 180 230 144 180 230 144 180 230 144 180 230
78 114 164 78 114 164 78 114 164 96 96 104
101 99 104 104 100 105 106 101 105 108 102 105
110 103 105 112 105 106 116 108 109 126 117 118
139 131 131 156 142 138 150 132 126 141 121 112
146 123 111 153 127 114 149 123 110 79 115 165
79 115 165 79 115 165 79 115 165 79 115 165
79 115 165 79 115 165 79 115 165 146 182 232
146 182 232 146 182 232 146 182 232 146 182 232
146 182 233 79 116 166 80 116 166 80 116 166
80 116 166 80 116 166 80 116 166 80 116 166
136 117 110 139 119 110 140 120 110 142 120 110
142 121 111 143 121 111 144 121 111 144 122 111
145 122 111 145 122 111 145 122 111 146 123 111
146 123 112 146 123 112 146 123 112 147 123 112
147 123 112 147 124 112 147 124 112 147 124 113
148 124 113 148 124 113 148 125 113 148 125 113
148 125 113 148 125 114 149 125 114 216 192 181
216 192 181 216 192 181 216 192 181 216 193 181
216 193 181 216 193 181 217 193 181 217 193 182
217 193 182 151 127 115 151 127 115 151 128 116
152 128 116 153 129 117 153 129 118 154 130 118
155 131 119 156 132 120 157 133 121 158 134 122
159 135 123 160 136 124 161 137 125 161 137 125
162 137 125 162 138 126 162 138 125 162 137 125
161 137 125 161 136 124 160 135 123 159 134 122
225 200 188 224 200 187 223 199 187 223 198 186
222 198 185 222 197 185 221 197 185 221 197 185
221 197 185 220 196 185 220 196 185 219 196 185
217 195 185 154 191 241 154 191 241 155 191 241
155 191 241 155 191 241 155 191 241 155 191 241
155 191 242 155 191 242 155 192 242 155 192 242
156 192 242 156 192 242 89 125 175 89 125 175
89 125 175 89 125 175 89 125 175 89 125 175
89 125 176 156 193 243 157 193 243 157 193 243
157 193 243 157 193 243 157 193 243 157 193 243
157 193 244 157 193 244 157 194 244 157 194 244
158 194 244 158 194 244 158 194 244 158 194 244
158 194 244 158 194 244 158 194 244 158 194 245
158 194 245 158 195 245 158 195 245 158 195 245
159 195 245 159 195 245 159 195 245 159 195 245
159 195 245 159 195 245 159 195 245 159 195 245
159 195 246 159 195 246 92 128 178 92 128 178
92 128 178 92 128 179 92 128 179 92 128 179
92 129 179 92 129 179 92 129 179 19 92 192
19 92 192 19 92 192 19 92 192 19 92 192
19 92 192 19 92 192 19 92 192 19 92 192
19 92 192 19 92 192 19 92 192 19 92 192
19 92 192 19 92 192 19 92 192 19 92 192
19 92 192 19 92 192 19 92 192 19 92 192
19 92 192 19 92 192 19 92 192 19 92 192
19 92 192 19 92 192 19 92 192 19 92 192
19 92 192 19 92 192 19 92 192 19 92 192
19 92 192 19 92 192 19 92 192 19 92 192
19 92 192 19 92 192 19 92 192 19 92 192
19 92 192 19 92 192 19 92 192 19 92 192
19 92 192 19 92 192 19 92 192 19 92 192
77 113 163 77 113 163 77 113 163 77 113 163
77 113 163 77 113 163 77 113 163 77 113 163
143 179 230 143 180 230 143 180 230 143 180 230
143 180 230 143 180 230 144 180 230 144 180 230
144 180 230 144 180 230 144 180 230 144 180 230
144 180 230 144 180 230 144 180 230 144 180 230
144 180 230 144 180 230 144 180 230 144 180 231
144 180 231 144 180 231 144 180 231 144 181 231
144 181 231 78 114 164 78 114 164 97 97 104
101 99 104 104 101 105 107 102 105 109 103 105
111 104 106 114 106 107 120 111 112 134 125 124
153 140 137 156 139 134 146 126 118 144 121 110
152 127 114 151 124 111 89 84 82 79 115 165
79 115 165 79 115 165 79 115 165 79 115 165
79 115 165 146 182 232 146 182 232 146 182 232
146 182 233 146 182 233 146 183 233 146 183 233
146 183 233 147 183 233 80 116 166 80 116 166
80 116 166 80 116 166 80 116 166 80 116 167
80 116 167 137 118 110 140 120 110 142 120 111
143 121 111 144 122 111 145 122 111 145 122 111
146 123 111 146 123 112 147 123 112 147 123 112
147 124 112 148 124 112 148 124 112 148 124 112
148 124 112 149 124 113 149 125 113 149 125 113
149 125 113 149 125 113 150 125 113 150 125 113
150 126 113 150 126 114 150 126 114 217 193 181
218 193 181 218 193 181 218 193 181 218 193 181
218 194 181 218 194 182 151 127 115 152 127 115
152 127 115 152 128 115 153 128 116 153 129 116
154 129 117 154 130 117 155 130 118 156 131 118
156 132 119 157 132 120 158 133 121 159 134 121
159 134 122 160 135 123 161 136 123 161 136 123
161 136 123 161 136 123 161 136 123 161 136 123
160 135 123 160 135 122 159 134 121 158 133 120
158 132 120 224 199 186 224 199 186 223 198 186
223 198 185 223 198 185 222 198 185 222 197 185
222 197 185 221 197 185 220 197 185 218 196 185
155 191 241 155 191 241 155 191 241 155 191 241
155 191 241 155 191 242 155 192 242 155 192 242
156 192 242 156 192 242 156 192 242 156 192 242
89 125 175 89 125 175 89 125 175 89 125 175
89 125 175 89 125 176 89 126 176 89 126 176
89 126 176 90 126 176 157 193 243 157 193 243
157 193 244 157 194 244 157 194 244 157 194 244
158 194 244 158 194 244 158 194 244 158 194 244
158 194 244 158 194 244 158 194 245 158 194 245
158 195 245 158 195 245 158 195 245 159 195 245
159 195 245 159 195 245 159 195 245 159 195 245
159 195 245 159 195 245 159 195 246 159 195 246
159 196 246 159 196 246 159 196 246 160 196 246
160 196 246 160 196 246 160 196 246 92 129 179
92 129 179 93 129 179 93 129 179 93 129 179
93 129 179 19 92 192 19 92 192 19 92 192
19 92 192 19 92 192 19 92 192 19 92 192
19 92 192 19 92 192 19 92 192 19 92 192
19 92 192 19 92 192 19 92 192 19 92 192
19 92 192 19 92 192 19 92 192 19 92 192
19 92 192 19 92 192 19 92 192 19 92 192
19 92 192 19 92 192 19 92 192 19 92 192
19 92 192 19 92 192 19 92 192 19 92 192
19 92 192 19 92 192 19 92 192 19 92 192
19 92 192 19 92 192 19 92 192 19 92 192
19 92 192 19 92 192 19 92 192 19 92 192
19 92 192 19 92 192 19 92 192 19 92 192
19 92 192 19 92 192 19 92 192 19 92 192
77 113 163 77 113 163 77 113 163 77 113 163
77 113 163 143 180 230 143 180 230 143 180 230
143 180 230 144 180 230 144 180 230 144 180 230
144 180 230 144 180 230 144 180 230 144 180 230
144 180 230 144 180 230 144 180 230 144 180 230
144 180 230 144 180 230 144 180 230 144 180 231
144 180 231 144 180 231 144 181 231 144 181 231
144 181 231 144 181 231 144 181 231 145 181 231
145 181 231 145 181 231 78 114 164 97 97 104
102 99 105 105 101 105 108 102 105 110 103 106
112 105 106 116 108 109 125 116 117 144 133 131
158 143 138 152 133 126 144 122 112 148 124 112
152 127 113 146 122 110 79 115 165 79 115 165
79 115 165 79 115 165 79 115 166 146 182 232
146 182 232 146 182 233 146 182 233 146 183 233
146 183 233 146 183 233 147 183 233 147 183 233
147 183 233 147 183 233 147 183 233 80 116 166
80 116 166 80 116 167 80 116 167 80 117 167
80 117 167 80 117 167 138 119 110 141 120 111
143 121 111 144 122 111 145 122 111 146 123 112
147 123 112 147 124 112 148 124 112 148 124 112
149 124 112 149 125 112 149 125 113 150 125 113
150 125 113 150 125 113 150 125 113 151 126 113
151 126 113 151 126 113 151 126 113 151 126 114
151 126 114 152 127 114 152 127 114 152 127 114
219 194 181 219 194 181 220 194 182 220 194 182
153 127 115 153 128 115 153 128 115 154 128 115
154 128 115 154 129 116 154 129 116 155 129 116
155 130 117 156 130 117 156 131 118 157 131 118
158 132 119 158 132 119 159 133 120 159 134 120
160 134 121 160 134 121 161 135 122 161 135 122
161 135 122 161 135 122 161 135 121 160 135 121
160 134 121 159 134 120 159 133 120 158 133 119
158 132 119 158 132 119 224 199 186 224 199 186
224 198 185 224 198 185 223 198 185 223 198 185
222 198 185 221 197 185 220 196 185 155 191 241
155 191 241 155 191 242 155 191 242 155 192 242
155 192 242 156 192 242 156 192 242 156 192 242
156 192 242 156 192 242 89 125 175 89 125 175
89 125 175 89 125 176 89 125 176 89 126 176
89 126 176 90 126 176 90 126 176 90 126 176
90 126 176 90 126 176 90 126 176 158 194 244
158 194 244 158 194 244 158 194 244 158 194 244
158 194 244 158 194 245 158 194 245 158 195 245
158 195 245 158 195 245 159 195 245 159 195 245
159 195 245 159 195 245 159 195 245 159 195 245
159 195 246 159 195 246 159 195 246 159 196 246
159 196 246 160 196 246 160 196 246 160 196 246
160 196 246 160 196 246 160 196 246 160 196 246
160 196 246 160 196 247 160 196 247 160 196 247
160 197 247 93 129 179 93 129 179 19 92 192
19 92 192 19 92 192 19 92 192 19 92 192
19 92 192 19 92 192 19 92 192 19 92 192
19 92 192 19 92 192 19 92 192 19 92 192
19 92 192 19 92 192 19 92 192 19 92 192
19 92 192 19 92 192 19 92 192 19 92 192
19 92 192 19 92 192 19 92 192 19 92 192
19 92 192 19 92 192 19 92 192 19 92 192
19 92 192 19 92 192 19 92 192 19 92 192
19 92 192 19 92 192 19 92 192 19 92 192
19 92 192 19 92 192 19 92 192 19 92 192
19 92 192 19 92 192 19 92 192 19 92 192
19 92 192 19 92 192 19 92 192 19 92 192
19 92 192 19 92 192 19 92 192 19 92 192
19 92 192 77 113 163 77 113 163 144 180 230
144 180 230 144 180 230 144 180 230 144 180 230
144 180 230 144 180 230 144 180 230 144 180 230
144 180 230 144 180 230 144 180 230 144 180 230
144 180 230 144 180 230 144 180 231 144 180 231
144 180 231 144 180 231 144 181 231 144 181 231
144 181 231 144 181 231 145 181 231 145 181 231
145 181 231 145 181 231 145 181 231 145 181 231
145 181 231 145 181 231 88 92 103 98 97 104
102 100 105 105 101 105 108 103 106 111 104 106
113 106 107 118 110 111 133 123 123 152 139 136
157 140 133 147 127 118 146 122 111 153 127 114
150 124 111 79 115 165 79 115 165 79 115 166
79 115 166 146 182 233 146 182 233 146 183 233
146 183 233 146 183 233 147 183 233 147 183 233
147 183 233 147 183 233 147 183 233 147 183 233
147 183 233 147 183 233 147 183 234 147 183 234
80 117 167 80 117 167 80 117 167 81 117 167
81 117 167 81 117 167 81 117 167 140 120 111
142 121 111 144 122 111 146 123 112 147 123 112
147 124 112 148 124 112 149 124 112 149 125 112
150 125 113 150 125 113 151 126 113 151 126 113
151 126 113 151 126 113 152 126 113 152 126 113
152 127 114 153 127 114 153 127 114 153 127 114
153 127 114 153 127 114 153 128 114 154 128 114
154 128 114 221 195 182 154 128 115 154 128 115
154 128 115 155 129 115 155 129 115 155 129 116
155 129 116 156 130 116 156 130 116 156 130 117
157 130 117 157 131 117 158 131 118 158 132 118
159 132 118 159 133 119 159 133 119 160 133 120
160 134 120 160 134 120 161 134 120 161 134 121
161 134 121 161 134 120 161 134 120 160 134 120
160 134 120 160 133 119 159 133 119 159 133 119
159 132 119 158 132 119 158 132 118 225 199 186
225 199 186 224 199 186 224 199 186 223 198 186
222 198 186 221 197 186 155 191 242 155 192 242
155 192 242 156 192 242 156 192 242 156 192 242
156 192 242 156 192 242 156 192 243 156 192 243
89 125 175 89 125 175 89 125 176 89 125 176
89 126 176 89 126 176 90 126 176 90 126 176
90 126 176 90 126 176 90 126 176 90 126 177
90 126 177 90 127 177 90 127 177 91 127 177
158 194 244 158 194 245 158 194 245 158 195 245
158 195 245 159 195 245 159 195 245 159 195 245
159 195 245 159 195 245 159 195 245 159 195 246
159 195 246 159 196 246 159 196 246 159 196 246
160 196 246 160 196 246 160 196 246 160 196 246
160 196 246 160 196 246 160 196 246 160 196 247
160 196 247 160 196 247 160 197 247 160 197 247
160 197 247 161 197 247 161 197 247 161 197 247
161 197 247 161 197 247 19 92 192 19 92 192
19 92 192 19 92 192 19 92 192 19 92 192
19 92 192 19 92 192 19 92 192 19 92 192
19 92 192 19 92 192 19 92 192 19 92 192
19 92 192 19 92 192 19 92 192 19 92 192
19 92 192 19 92 192 19 92 192 19 92 192
19 92 192 19 92 192 19 92 192 19 92 192
19 92 192 19 92 192 19 92 192 19 92 192
19 92 192 19 92 192 19 92 192 19 92 192
19 92 192 19 92 192 19 92 192 19 92 192
19 92 192 19 92 192 19 92 192 19 92 192
19 92 192 19 92 192 19 92 192 19 92 192
19 92 192 19 92 192 19 92 192 19 92 192
19 92 192 19 92 192 19 92 192 19 92 192
19 92 192 144 180 230 144 180 230 144 180 230
144 180 230 144 180 230 144 180 230 144 180 230
144 180 230 144 180 230 144 180 230 144 180 230
144 180 230 144 180 231 144 180 231 144 180 231
144 180 231 144 181 231 144 181 231 144 181 231
144 181 231 145 181 231 145 181 231 145 181 231
145 181 231 145 181 231 145 181 231 145 181 231
145 181 231 145 181 231 145 181 231 145 181 231
145 181 231 145 181 232 157 161 171 98 98 105
103 100 105 106 101 105 109 103 106 111 104 106
115 107 108 123 114 114 142 131 129 157 142 138
152 133 126 145 123 113 149 124 112 152 126 113
144 121 110 79 115 166 146 182 233 146 182 233
146 183 233 146 183 233 146 183 233 147 183 233
147 183 233 147 183 233 147 183 233 147 183 233
147 183 233 147 183 233 147 183 233 147 183 234
147 183 234 147 184 234 147 184 234 147 184 234
81 117 167 81 117 167 81 117 167 81 117 167
81 117 167 81 117 167 81 117 167 81 117 167
141 120 111 144 122 112 145 123 112 147 123 112
148 124 112 149 125 112 150 125 113 150 125 113
151 126 113 151 126 113 152 126 113 152 126 113
152 127 113 153 127 114 153 127 114 153 127 114
154 127 114 154 128 114 154 128 114 154 128 114
154 128 114 155 128 114 155 128 115 155 129 115
223 196 182 223 196 182 156 129 115 156 129 115
156 129 115 156 130 115 157 130 116 157 130 116
157 130 116 157 130 116 158 131 116 158 131 117
158 131 117 158 132 117 159 132 118 159 132 118
160 133 118 160 133 119 160 133 119 161 133 119
161 134 119 161 134 120 161 134 120 161 134 120
161 134 120 161 134 120 161 134 120 161 134 120
160 134 119 160 133 119 160 133 119 160 133 119
159 133 119 159 133 119 159 132 119 159 132 119
226 200 186 225 199 186 224 199 186 223 199 186
222 198 186 218 196 186 156 192 242 156 192 242
156 192 242 156 192 242 156 192 242 156 192 243
156 192 243 156 193 243 89 125 175 89 125 176
89 126 176 89 126 176 90 126 176 90 126 176
90 126 176 90 126 176 90 126 176 90 126 176
90 126 177 90 126 177 90 127 177 90 127 177
91 127 177 91 127 177 91 127 177 91 127 177
91 127 177 159 195 245 159 195 245 159 195 245
159 195 245 159 195 245 159 195 245 159 195 246
159 195 246 159 196 246 159 196 246 160 196 246
160 196 246 160 196 246 160 196 246 160 196 246
160 196 246 160 196 246 160 196 247 160 196 247
160 197 247 160 197 247 160 197 247 161 197 247
161 197 247 161 197 247 161 197 247 161 197 247
161 197 247 161 197 247 161 197 248 161 197 248
19 92 192 19 92 192 19 92 192 19 92 192
19 92 192 19 92 192 19 92 192 19 92 192
19 92 192 19 92 192 19 92 192 19 92 192
19 92 192 19 92 192 19 92 192 19 92 192
19 92 192 19 92 192 19 92 192 19 92 192
19 92 192 19 92 192 19 92 192 19 92 192
19 92 192 19 92 192 19 92 192 19 92 192
19 92 192 19 92 192 19 92 192 19 92 192
19 92 192 19 92 192 19 92 192 19 92 192
19 92 192 19 92 192 19 92 192 19 92 192
19 92 192 19 92 192 19 92 192 19 92 192
19 92 192 19 92 192 19 92 192 19 92 192
19 92 192 19 92 192 19 92 192 19 92 192
19 92 192 19 92 192 19 92 192 19 92 192
19 92 192 19 92 192 144 180 230 144 180 230
144 180 230 144 180 230 144 180 230 144 180 231
144 180 231 144 180 231 144 180 231 144 181 231
144 181 231 144 181 231 144 181 231 144 181 231
145 181 231 145 181 231 145 181 231 145 181 231
145 181 231 145 181 231 145 181 231 145 181 231
145 181 231 145 181 231 145 181 231 145 181 231
145 181 231 145 181 232 145 181 232 145 181 232
145 182 232 145 182 232 160 162 171 99 98 105
103 100 105 106 102 106 109 103 106 112 105 107
118 109 110 130 121 121 150 137 134 157 140 134
148 127 118 146 122 111 152 127 114 150 124 111
146 183 233 146 183 233 146 183 233 147 183 233
147 183 233 147 183 233 147 183 233 147 183 233
147 183 233 147 183 233 147 183 233 147 183 234
147 183 234 147 183 234 147 184 234 147 184 234
148 184 234 148 184 234 148 184 234 148 184 234
148 184 234 81 117 167 81 117 167 81 117 167
81 117 167 81 117 168 81 117 168 81 118 168
81 118 168 142 121 112 145 122 112 147 123 112
148 124 113 149 125 113 150 125 113 151 126 113
151 126 113 152 126 113 153 127 113 153 127 114
154 127 114 154 128 114 154 128 114 155 128 114
155 128 114 155 128 114 155 129 114 156 129 115
156 129 115 156 129 115 224 197 182 224 197 182
224 197 182 224 197 183 225 197 183 157 130 116
158 130 116 158 130 116 158 131 116 158 131 116
159 131 116 159 131 117 159 131 117 159 132 117
159 132 117 160 132 117 160 132 118 160 133 118
161 133 118 161 133 118 161 133 119 161 134 119
161 134 119 162 134 119 162 134 119 162 134 119
162 134 119 162 134 119 161 134 119 161 134 119
161 134 119 161 134 119 161 133 119 161 133 119
160 133 119 160 133 119 160 133 119 159 133 119
159 133 119 225 200 186 224 199 186 223 198 186
156 192 242 156 192 242 156 192 242 156 192 242
156 192 243 156 193 243 156 193 243 157 193 243
89 125 176 89 126 176 89 126 176 90 126 176
90 126 176 90 126 176 90 126 176 90 126 176
90 126 176 90 126 177 90 127 177 90 127 177
91 127 177 91 127 177 91 127 177 91 127 177
91 127 177 91 127 177 91 127 178 91 127 178
91 128 178 91 128 178 92 128 178 159 195 246
159 196 246 159 196 246 160 196 246 160 196 246
160 196 246 160 196 246 160 196 246 160 196 246
160 196 246 160 196 247 160 196 247 160 197 247
160 197 247 161 197 247 161 197 247 161 197 247
161 197 247 161 197 247 161 197 247 161 197 247
161 197 248 161 197 248 161 197 248 161 198 248
161 198 248 161 198 248 19 92 192 19 92 192
19 92 192 19 92 192 19 92 192 19 92 192
19 92 192 19 92 192 19 92 192 19 92 192
19 92 192 19 92 192 19 92 192 19 92 192
19 92 192 19 92 192 19 92 192 19 92 192
19 92 192 19 92 192 19 92 192 19 92 192
19 92 192 19 92 192 19 92 192 19 92 192
19 92 192 19 92 192 19 92 192 19 92 192
19 92 192 19 92 192 19 92 192 19 92 192
19 92 192 19 92 192 19 92 192 19 92 192
19 92 192 19 92 192 19 92 192 19 92 192
19 92 192 19 92 192 19 92 192 19 92 192
19 92 192 19 92 192 19 92 192 19 92 192
19 92 192 19 92 192 19 92 192 19 92 192
19 92 192 19 92 192 19 92 192 19 92 192
19 92 192 19 92 192 144 180 231 144 180 231
144 180 231 144 180 231 144 181 231 144 181 231
144 181 231 144 181 231 144 181 231 145 181 231
145 181 231 145 181 231 145 181 231 145 181 231
145 181 231 145 181 231 145 181 231 145 181 231
145 181 231 145 181 231 145 181 231 145 181 231
145 181 232 145 181 232 145 181 232 145 182 232
145 182 232 145 182 232 145 182 232 146 182 232
146 182 232 146 182 232 160 162 171 166 165 172
104 100 105 107 102 106 110 104 106 114 106 108
121 113 114 141 130 129 157 142 138 153 134 127
145 123 113 149 124 112 220 194 180 212 188 177
147 183 233 147 183 233 147 183 233 147 183 233
147 183 233 147 183 233 147 183 233 147 183 233
147 183 234 147 183 234 147 184 234 147 184 234
147 184 234 148 184 234 148 184 234 148 184 234
148 184 234 148 184 234 148 184 234 148 184 234
148 184 235 148 184 235 81 117 168 81 117 168
81 118 168 81 118 168 81 118 168 82 118 168
82 118 168 82 118 168 143 122 112 146 123 112
148 124 113 149 125 113 150 126 113 151 126 113
152 127 113 153 127 114 153 127 114 154 128 114
154 128 114 155 128 114 155 128 114 156 129 114
156 129 115 156 129 115 157 129 115 157 130 115
225 197 182 225 197 183 225 197 183 225 198 183
226 198 183 226 198 183 226 198 183 226 198 183
159 131 116 159 131 116 159 131 116 160 132 117
160 132 117 160 132 117 160 132 117 160 132 117
161 133 117 161 133 118 161 133 118 162 133 118
162 133 118 162 134 118 162 134 119 162 134 119
162 134 119 162 134 119 163 134 119 163 134 119
162 134 119 162 134 119 162 134 119 162 134 119
162 134 119 162 134 119 162 134 119 161 134 119
161 134 119 161 134 119 160 133 119 160 133 119
159 133 119 158 132 119 224 199 187 156 192 242
156 192 242 156 192 243 156 193 243 156 193 243
157 193 243 157 193 243 89 126 176 89 126 176
90 126 176 90 126 176 90 126 176 90 126 176
90 126 176 90 126 176 90 126 177 90 127 177
90 127 177 91 127 177 91 127 177 91 127 177
91 127 177 91 127 177 91 127 177 91 127 178
91 128 178 91 128 178 92 128 178 92 128 178
92 128 178 92 128 178 92 128 178 92 128 178
160 196 246 160 196 246 160 196 246 160 196 246
160 196 247 160 196 247 160 197 247 160 197 247
161 197 247 161 197 247 161 197 247 161 197 247
161 197 247 161 197 247 161 197 247 161 197 248
161 197 248 161 198 248 161 198 248 161 198 248
162 198 248 162 198 248 162 198 248 162 198 248
162 198 248 19 92 192 19 92 192 19 92 192
19 92 192 19 92 192 19 92 192 19 92 192
19 92 192 19 92 192 19 92 192 19 92 192
19 92 192 19 92 192 19 92 192 19 92 192
19 92 192 19 92 192 19 92 192 19 92 192
19 92 192 19 92 192 19 92 192 19 92 192
19 92 192 19 92 192 19 92 192 19 92 192
19 92 192 19 92 192 19 92 192 19 92 192
19 92 192 19 92 192 19 92 192 19 92 192
19 92 192 19 92 192 19 92 192 19 92 192
19 92 192 19 92 192 19 92 192 19 92 192
19 92 192 19 92 192 19 92 192 19 92 192
19 92 192 19 92 192 19 92 192 19 92 192
19 92 192 19 92 192 19 92 192 19 92 192
19 92 192 19 92 192 19 92 192 19 92 192
19 92 192 19 92 192 19 92 192 144 181 231
144 181 231 144 181 231 145 181 231 145 181 231
145 181 231 145 181 231 145 181 231 145 181 231
145 181 231 145 181 231 145 181 231 145 181 231
145 181 231 145 181 231 145 181 231 145 181 232
145 181 232 145 181 232 145 181 232 145 182 232
145 182 232 145 182 232 145 182 232 146 182 232
146 182 232 146 182 232 146 182 232 146 182 232
146 182 232 146 141 137 161 163 172 167 166 172
171 168 173 108 103 106 111 104 107 116 108 110
127 118 119 151 139 136 158 142 136 148 128 119
213 190 178 219 194 181 217 192 179 202 184 176
147 183 233 147 183 233 147 183 233 147 183 233
147 183 234 147 183 234 147 183 234 147 184 234
147 184 234 147 184 234 148 184 234 148 184 234
148 184 234 148 184 234 148 184 234 148 184 234
148 184 234 148 184 235 148 184 235 148 185 235
148 185 235 149 185 235 149 185 235 81 118 168
82 118 168 82 118 168 82 118 168 82 118 168
82 118 168 82 118 168 82 118 168 144 122 112
147 124 113 149 125 113 150 126 113 151 126 114
152 127 114 153 127 114 154 128 114 155 128 114
155 128 114 156 129 115 156 129 115 157 129 115
157 130 115 157 130 115 225 197 183 226 198 183
226 198 183 226 198 183 226 198 183 227 198 183
227 199 183 227 199 183 227 199 184 228 199 184
228 199 184 161 132 117 161 132 117 161 132 117
161 133 117 161 133 117 162 133 117 162 133 117
162 133 118 162 133 118 162 134 118 163 134 118
163 134 118 163 134 119 163 134 119 163 134 119
163 135 119 163 135 119 163 135 119 163 135 119
163 135 119 163 135 119 163 135 119 163 135 119
163 135 119 163 134 119 162 134 119 162 134 119
162 134 119 161 134 120 161 134 120 160 133 120
159 133 120 157 132 120 89 125 175 156 193 243
156 193 243 157 193 243 157 193 243 157 193 243
157 193 243 90 126 176 90 126 176 90 126 176
90 126 176 90 126 176 90 126 177 90 126 177
90 127 177 90 127 177 91 127 177 91 127 177
91 127 177 91 127 177 91 127 177 91 127 178
91 127 178 91 128 178 91 128 178 92 128 178
92 128 178 92 128 178 92 128 178 92 128 178
92 128 179 92 128 179 92 129 179 92 129 179
93 129 179 160 197 247 160 197 247 160 197 247
161 197 247 161 197 247 161 197 247 161 197 247
161 197 247 161 197 247 161 197 248 161 197 248
161 198 248 161 198 248 162 198 248 162 198 248
162 198 248 162 198 248 162 198 248 162 198 248
162 198 248 162 198 249 162 198 249 19 92 192
19 92 192 19 92 192 19 92 192 19 92 192
19 92 192 19 92 192 19 92 192 19 92 192
19 92 192 19 92 192 19 92 192 19 92 192
19 92 192 19 92 192 19 92 192 19 92 192
19 92 192 19 92 192 19 92 192 19 92 192
19 92 192 19 92 192 19 92 192 19 92 192
19 92 192 19 92 192 19 92 192 19 92 192
19 92 192 19 92 192 19 92 192 19 92 192
19 92 192 19 92 192 19 92 192 19 92 192
19 92 192 19 92 192 19 92 192 19 92 192
19 92 192 19 92 192 19 92 192 19 92 192
19 92 192 19 92 192 19 92 192 19 92 192
19 92 192 19 92 192 19 92 192 19 92 192
19 92 192 19 92 192 19 92 192 19 92 192
19 92 192 19 92 192 19 92 192 19 92 192
19 92 192 19 92 192 19 92 192 145 181 231
145 181 231 145 181 231 145 181 231 145 181 231
145 181 231 145 181 231 145 181 231 145 181 231
145 181 231 145 181 231 145 181 232 145 181 232
145 181 232 145 181 232 145 182 232 145 182 232
145 182 232 145 182 232 146 182 232 146 182 232
146 182 232 146 182 232 146 182 232 146 182 232
146 182 232 146 182 232 146 182 232 146 182 232
146 182 232 154 159 171 162 163 172 167 166 172
171 168 173 108 103 106 112 105 107 119 111 113
137 127 127 224 210 206 220 202 195 212 191 181
216 192 179 220 195 181 214 190 178 147 183 233
147 183 233 147 183 234 147 183 234 147 184 234
147 184 234 147 184 234 148 184 234 148 184 234
148 184 234 148 184 234 148 184 234 148 184 234
148 184 234 148 184 234 148 184 235 148 184 235
148 185 235 148 185 235 149 185 235 149 185 235
149 185 235 149 185 235 149 185 235 149 185 235
82 118 168 82 118 168 82 118 168 82 118 168
82 118 168 82 118 169 82 119 169 82 119 169
147 124 113 148 124 113 150 126 114 151 126 114
152 127 114 154 128 114 154 128 114 155 129 114
156 129 115 157 129 115 157 130 115 158 130 115
225 198 183 226 198 183 226 198 183 227 198 183
227 199 183 227 199 183 228 199 183 228 199 184
228 199 184 228 200 184 229 200 184 229 200 184
229 200 184 229 200 184 162 133 117 162 133 117
162 133 117 163 133 117 163 134 118 163 134 118
163 134 118 163 134 118 164 134 118 164 134 118
164 135 119 164 135 119 164 135 119 164 135 119
164 135 119 164 135 119 164 135 119 164 135 119
164 135 119 164 135 119 164 135 120 164 135 120
164 135 120 163 135 120 163 135 120 163 135 120
162 134 120 161 134 120 161 134 120 159 133 120
89 125 175 89 125 175 89 125 175 89 125 176
157 193 243 157 193 243 157 193 244 90 126 176
90 126 176 90 126 176 90 126 176 90 126 176
90 126 177 90 127 177 90 127 177 91 127 177
91 127 177 91 127 177 91 127 177 91 127 177
91 127 178 91 127 178 91 128 178 91 128 178
92 128 178 92 128 178 92 128 178 92 128 178
92 128 178 92 128 179 92 128 179 92 129 179
92 129 179 93 129 179 93 129 179 93 129 179
93 129 179 93 129 179 161 197 247 161 197 247
161 197 247 161 197 248 161 197 248 161 198 248
161 198 248 162 198 248 162 198 248 162 198 248
162 198 248 162 198 248 162 198 248 162 198 248
162 198 249 162 198 249 162 199 249 162 199 249
163 199 249 19 92 192 19 92 192 19 92 192
19 92 192 19 92 192 19 92 192 19 92 192
19 92 192 19 92 192 19 92 192 19 92 192
19 92 192 19 92 192 19 92 192 19 92 192
19 92 192 19 92 192 19 92 192 19 92 192
19 92 192 19 92 192 19 92 192 19 92 192
19 92 192 19 92 192 19 92 192 19 92 192
19 92 192 19 92 192 19 92 192 19 92 192
19 92 192 19 92 192 19 92 192 19 92 192
19 92 192 19 92 192 19 92 192 19 92 192
19 92 192 19 92 192 19 92 192 19 92 192
19 92 192 19 92 192 19 92 192 19 92 192
19 92 192 19 92 192 19 92 192 19 92 192
19 92 192 19 92 192 19 92 192 19 92 192
19 92 192 19 92 192 19 92 192 19 92 192
19 92 192 19 92 192 19 92 192 19 92 192
19 92 192 19 92 192 19 92 192 19 92 192
145 181 231 145 181 231 145 181 231 145 181 231
145 181 231 145 181 232 145 181 232 145 181 232
145 181 232 145 182 232 145 182 232 145 182 232
145 182 232 146 182 232 146 182 232 146 182 232
146 182 232 146 182 232 146 182 232 146 182 232
146 182 232 146 182 232 146 182 232 146 182 232
146 182 232 146 182 233 146 182 233 146 182 233
146 183 233 156 161 171 163 164 172 168 166 173
172 169 173 176 170 174 114 107 109 192 184 185
216 205 203 225 210 205 215 195 187 212 190 179
219 194 181 218 193 180 208 187 177 147 184 234
147 184 234 147 184 234 148 184 234 148 184 234
148 184 234 148 184 234 148 184 234 148 184 234
148 184 234 148 184 234 148 184 235 148 184 235
148 185 235 148 185 235 148 185 235 149 185 235
149 185 235 149 185 235 149 185 235 149 185 235
149 185 235 149 185 235 149 185 236 149 185 236
82 118 168 82 118 168 82 118 169 82 118 169
82 119 169 82 119 169 83 119 169 83 119 169
83 119 169 83 119 169 149 125 114 151 126 114
152 127 114 154 128 114 155 128 115 156 129 115
156 129 115 157 130 115 225 197 183 226 198 183
226 198 183 227 198 183 227 199 183 228 199 183
228 199 184 228 199 184 229 200 184 229 200 184
229 200 184 230 200 184 230 200 184 230 201 185
230 201 185 230 201 185 231 201 185 163 134 118
164 134 118 164 134 118 164 134 118 164 134 118
164 135 118 164 135 118 165 135 119 165 135 119
165 135 119 165 135 119 165 135 119 165 135 119
165 136 119 165 136 119 165 136 120 165 136 120
165 136 120 165 136 120 165 136 120 164 136 120
164 135 120 164 135 120 163 135 120 163 135 120
162 135 120 161 134 120 160 134 120 89 125 175
89 125 175 89 125 176 89 126 176 89 126 176
90 126 176 90 126 176 90 126 176 90 126 176
90 126 176 90 126 177 90 127 177 90 127 177
91 127 177 91 127 177 91 127 177 91 127 177
91 127 177 91 127 178 91 127 178 91 128 178
92 128 178 92 128 178 92 128 178 92 128 178
92 128 178 92 128 178 92 128 179 92 129 179
92 129 179 93 129 179 93 129 179 93 129 179
93 129 179 93 129 179 93 129 179 93 129 180
93 130 180 93 130 180 94 130 180 161 198 248
161 198 248 162 198 248 162 198 248 162 198 248
162 198 248 162 198 248 162 198 248 162 198 249
162 198 249 162 199 249 162 199 249 163 199 249
163 199 249 163 199 249 163 199 249 163 199 249
19 92 192 19 92 192 19 92 192 19 92 192
19 92 192 19 92 192 19 92 192 19 92 192
19 92 192 19 92 192 19 92 192 19 92 192
19 92 192 19 92 192 19 92 192 19 92 192
19 92 192 19 92 192 19 92 192 19 92 192
19 92 192 19 92 192 19 92 192 19 92 192
19 92 192 19 92 192 19 92 192 19 92 192
19 92 192 19 92 192 19 92 192 19 92 192
19 92 192 19 92 192 19 92 192 19 92 192
19 92 192 19 92 192 19 92 192 19 92 192
19 92 192 19 92 192 19 92 192 19 92 192
19 92 192 19 92 192 19 92 192 19 92 192
19 92 192 19 92 192 19 92 192 19 92 192
19 92 192 19 92 192 19 92 192 19 92 192
19 92 192 19 92 192 19 92 192 19 92 192
19 92 192 19 92 192 19 92 192 19 92 192
19 92 192 19 92 192 19 92 192 19 92 192
145 181 232 145 181 232 145 181 232 145 182 232
145 182 232 145 182 232 145 182 232 145 182 232
146 182 232 146 182 232 146 182 232 146 182 232
146 182 232 146 182 232 146 182 232 146 182 232
146 182 232 146 182 232 146 182 232 146 182 232
146 182 233 146 182 233 146 182 233 146 182 233
146 183 233 146 183 233 146 183 233 147 183 233
148 156 171 157 161 172 163 164 172 168 167 173
172 169 174 109 104 107 117 110 113 201 193 194
223 210 207 219 202 196 211 190 181 216 192 180
221 195 182 216 191 178 147 184 234 148 184 234
148 184 234 148 184 234 148 184 234 148 184 234
148 184 234 148 184 234 148 184 234 148 184 235
148 184 235 148 185 235 148 185 235 148 185 235
149 185 235 149 185 235 149 185 235 149 185 235
149 185 235 149 185 235 149 185 235 149 185 236
149 185 236 149 186 236 149 186 236 150 186 236
150 186 236 82 119 169 82 119 169 82 119 169
83 119 169 83 119 169 83 119 169 83 119 169
83 119 169 83 119 169 83 119 170 83 119 170
152 127 114 153 128 115 154 128 115 156 129 115
224 197 183 225 197 183 226 198 183 226 198 183
227 199 183 227 199 184 228 199 184 228 200 184
229 200 184 229 200 184 230 200 184 230 201 184
230 201 185 231 201 185 231 201 185 231 201 185
231 202 185 232 202 185 232 202 185 232 202 185
165 135 118 165 135 118 165 135 118 165 135 118
165 135 119 165 135 119 166 136 119 166 136 119
166 136 119 166 136 119 166 136 119 166 136 119
166 136 120 166 136 120 166 136 120 166 136 120
166 136 120 165 136 120 165 136 120 165 136 120
165 136 120 164 136 120 164 135 120 163 135 120
162 135 120 89 125 175 89 125 176 89 126 176
89 126 176 90 126 176 90 126 176 158 194 244
158 194 244 158 194 244 90 126 177 90 127 177
90 127 177 91 127 177 91 127 177 91 127 177
91 127 177 91 127 177 91 127 178 91 127 178
91 128 178 92 128 178 92 128 178 92 128 178
92 128 178 92 128 178 92 128 179 92 128 179
92 129 179 92 129 179 93 129 179 93 129 179
93 129 179 93 129 179 93 129 179 93 129 180
93 129 180 93 130 180 93 130 180 94 130 180
94 130 180 94 130 180 94 130 180 94 130 180
162 198 248 162 198 248 162 198 249 162 198 249
162 199 249 162 199 249 163 199 249 163 199 249
163 199 249 163 199 249 163 199 249 163 199 249
163 199 249 163 199 250 19 92 192 19 92 192
19 92 192 19 92 192 19 92 192 19 92 192
19 92 192 19 92 192 19 92 192 19 92 192
19 92 192 19 92 192 19 92 192 19 92 192
19 92 192 19 92 192 19 92 192 19 92 192
19 92 192 19 92 192 19 92 192 19 92 192
19 92 192 19 92 192 19 92 192 19 92 192
19 92 192 19 92 192 19 92 192 19 92 192
19 92 192 19 92 192 19 92 192 19 92 192
19 92 192 19 92 192 19 92 192 19 92 192
19 92 192 19 92 192 19 92 192 19 92 192
19 92 192 19 92 192 19 92 192 19 92 192
19 92 192 19 92 192 19 92 192 19 92 192
19 92 192 19 92 192 19 92 192 19 92 192
19 92 192 19 92 192 19 92 192 19 92 192
19 92 192 19 92 192 19 92 192 19 92 192
19 92 192 19 92 192 19 92 192 19 92 192
19 92 192 19 92 192 19 92 192 19 92 192
19 92 192 145 182 232 145 182 232 146 182 232
146 182 232 146 182 232 146 182 232 146 182 232
146 182 232 146 182 232 146 182 232 146 182 232
146 182 232 146 182 232 146 182 232 146 182 232
146 182 233 146 182 233 146 182 233 146 183 233
146 183 233 146 183 233 146 183 233 147 183 233
147 183 233 147 183 233 147 183 233 147 183 233
151 158 171 159 162 172 164 165 173 101 100 106
105 102 107 110 105 108 122 115 117 212 202 201
221 207 202 212 193 186 212 190 179 219 195 182
219 193 180 212 189 178 148 184 234 148 184 234
148 184 234 148 184 234 148 184 234 148 184 235
148 184 235 148 185 235 148 185 235 148 185 235
149 185 235 149 185 235 149 185 235 149 185 235
149 185 235 149 185 235 149 185 235 149 185 236
149 185 236 149 186 236 149 186 236 149 186 236
150 186 236 150 186 236 150 186 236 150 186 236
150 186 236 150 186 236 83 119 169 83 119 169
83 119 169 83 119 169 83 119 169 83 119 170
83 119 170 83 120 170 83 120 170 84 120 170
84 120 170 84 120 170 222 196 183 223 197 183
224 197 183 225 198 183 226 198 183 227 199 184
227 199 184 228 199 184 229 200 184 229 200 184
230 200 184 230 201 184 230 201 185 231 201 185
231 201 185 232 202 185 232 202 185 232 202 185
232 202 185 233 202 186 233 203 186 233 203 186
166 135 118 166 135 118 166 136 119 166 136 119
166 136 119 166 136 119 167 136 119 167 136 119
167 136 119 167 136 120 167 136 120 167 137 120
167 137 120 167 137 120 167 137 120 166 137 120
166 137 120 166 137 120 166 136 120 165 136 120
165 136 121 164 136 121 164 136 121 89 125 176
89 125 176 89 126 176 89 126 176 90 126 176
90 126 176 158 194 244 158 194 244 158 194 244
158 194 244 158 194 245 158 195 245 91 127 177
91 127 177 91 127 177 91 127 177 91 127 178
91 127 178 91 128 178 92 128 178 92 128 178
92 128 178 92 128 178 92 128 178 92 128 179
92 128 179 92 129 179 92 129 179 93 129 179
93 129 179 93 129 179 93 129 179 93 129 179
93 129 180 93 130 180 93 130 180 94 130 180
94 130 180 94 130 180 94 130 180 94 130 180
94 130 180 94 130 181 94 131 181 94 131 181
94 131 181 95 131 181 163 199 249 163 199 249
163 199 249 163 199 249 163 199 249 163 199 249
163 199 250 163 199 250 163 200 250 163 200 250
19 92 192 19 92 192 19 92 192 19 92 192
19 92 192 19 92 192 19 92 192 19 92 192
19 92 192 19 92 192 19 92 192 19 92 192
19 92 192 19 92 192 19 92 192 19 92 192
19 92 192 19 92 192 19 92 192 19 92 192
19 92 192 19 92 192 19 92 192 19 92 192
19 92 192 19 92 192 19 92 192 19 92 192
19 92 192 19 92 192 19 92 192 19 92 192
19 92 192 19 92 192 19 92 192 19 92 192
19 92 192 19 92 192 19 92 192 19 92 192
19 92 192 19 92 192 19 92 192 19 92 192
19 92 192 19 92 192 19 92 192 19 92 192
19 92 192 19 92 192 19 92 192 19 92 192
19 92 192 19 92 192 19 92 192 19 92 192
19 92 192 19 92 192 19 92 192 19 92 192
19 92 192 19 92 192 19 92 192 19 92 192
19 92 192 19 92 192 19 92 192 19 92 192
19 92 192 19 92 192 19 92 192 19 92 192
19 92 192 146 182 232 146 182 232 146 182 232
146 182 232 146 182 232 146 182 232 146 182 232
146 182 232 146 182 232 146 182 232 146 182 233
146 182 233 146 182 233 146 183 233 146 183 233
146 183 233 146 183 233 147 183 233 147 183 233
147 183 233 147 183 233 147 183 233 147 183 233
147 183 233 147 183 233 147 183 233 141 153 171
153 159 172 92 95 105 97 98 106 102 100 106
106 102 107 112 107 110 126 120 122 149 137 135
214 198 193 210 189 180 216 192 181 221 196 183
216 192 179 148 184 234 148 184 234 148 184 235
148 184 235 148 184 235 148 185 235 148 185 235
148 185 235 149 185 235 149 185 235 149 185 235
149 185 235 149 185 235 149 185 235 149 185 235
149 185 236 149 185 236 149 186 236 149 186 236
149 186 236 150 186 236 150 186 236 150 186 236
150 186 236 150 186 236 150 186 236 150 186 237
150 186 237 150 187 237 150 187 237 83 119 169
83 119 169 83 119 170 83 119 170 83 120 170
83 120 170 84 120 170 84 120 170 84 120 170
151 188 238 152 188 238 152 188 238 152 188 238
224 197 183 225 198 183 226 198 184 227 199 184
228 199 184 228 200 184 229 200 184 230 201 185
230 201 185 231 201 185 231 201 185 232 202 185
232 202 185 232 202 185 233 202 186 233 203 186
233 203 186 233 203 186 234 203 186 234 203 186
234 204 186 167 136 119 167 136 119 167 136 119
167 136 119 167 137 119 167 137 119 167 137 120
167 137 120 167 137 120 167 137 120 168 137 120
167 137 120 167 137 120 167 137 120 167 137 120
167 137 121 166 137 121 166 137 121 166 137 121
166 137 121 89 125 176 89 126 176 89 126 176
90 126 176 90 126 176 90 126 176 158 194 244
158 194 244 158 194 244 158 194 245 158 195 245
158 195 245 159 195 245 159 195 245 159 195 245
91 127 178 91 127 178 91 128 178 91 128 178
92 128 178 92 128 178 92 128 178 92 128 178
92 128 179 92 128 179 92 129 179 92 129 179
93 129 179 93 129 179 93 129 179 93 129 179
93 129 179 93 129 180 93 130 180 93 130 180
94 130 180 94 130 180 94 130 180 94 130 180
94 130 180 94 130 181 94 130 181 94 131 181
94 131 181 95 131 181 95 131 181 95 131 181
95 131 181 95 131 181 95 131 181 163 199 250
163 199 250 163 200 250 163 200 250 164 200 250
164 200 250 164 200 250 164 200 250 19 92 192
19 92 192 19 92 192 19 92 192 19 92 192
19 92 192 19 92 192 19 92 192 19 92 192
19 92 192 19 92 192 19 92 192 19 92 192
19 92 192 19 92 192 19 92 192 19 92 192
19 92 192 19 92 192 19 92 192 19 92 192
19 92 192 19 92 192 19 92 192 19 92 192
19 92 192 19 92 192 19 92 192 19 92 192
19 92 192 19 92 192 19 92 192 19 92 192
19 92 192 19 92 192 19 92 192 19 92 192
19 92 192 19 92 192 19 92 192 19 92 192
19 92 192 19 92 192 19 92 192 19 92 192
19 92 192 19 92 192 19 92 192 19 92 192
19 92 192 19 92 192 19 92 192 19 92 192
19 92 192 19 92 192 19 92 192 19 92 192
19 92 192 19 92 192 19 92 192 19 92 192
19 92 192 19 92 192 19 92 192 19 92 192
19 92 192 19 92 192 19 92 192 19 92 192
19 92 192 19 92 192 19 92 192 19 92 192
19 92 192 19 92 192 146 182 232 146 182 232
146 182 232 146 182 233 146 182 233 146 182 233
146 182 233 146 183 233 146 183 233 146 183 233
146 183 233 146 183 233 147 183 233 147 183 233
147 183 233 147 183 233 147 183 233 147 183 233
147 183 233 147 183 233 147 183 233 147 183 233
147 183 234 147 183 234 80 116 166 80 89 104
87 93 105 93 96 105 98 98 106 102 101 107
107 103 108 116 110 114 136 127 128 146 132 128
141 123 116 211 190 180 220 196 184 219 194 181
213 190 179 148 184 235 148 185 235 148 185 235
148 185 235 149 185 235 149 185 235 149 185 235
149 185 235 149 185 235 149 185 235 149 185 235
149 185 235 149 185 236 149 185 236 149 186 236
149 186 236 150 186 236 150 186 236 150 186 236
150 186 236 150 186 236 150 186 236 150 186 236
150 186 237 150 186 237 150 187 237 150 187 237
151 187 237 151 187 237 151 187 237 83 119 170
83 120 170 83 120 170 84 120 170 84 120 170
84 120 170 84 120 170 152 188 238 152 188 238
152 188 238 152 188 238 152 188 238 152 188 239
152 188 239 152 189 239 231 201 184 227 199 184
228 200 184 229 200 185 230 201 185 230 201 185
231 201 185 231 202 185 232 202 185 232 202 186
233 202 186 233 203 186 233 203 186 234 203 186
234 203 186 234 204 186 235 204 187 235 204 187
235 204 187 235 204 187 168 137 119 168 137 119
168 137 120 168 137 120 168 137 120 168 137 120
168 137 120 168 137 120 168 137 120 168 138 120
168 138 121 168 138 121 168 137 121 167 137 121
167 137 121 167 138 121 89 125 176 89 125 176
89 126 176 90 126 176 90 126 176 90 126 176
90 126 176 158 194 244 158 194 244 158 194 245
158 195 245 158 195 245 159 195 245 159 195 245
159 195 245 159 195 245 159 195 245 159 195 246
159 196 246 92 128 178 92 128 178 92 128 178
92 128 178 92 128 178 92 128 179 92 129 179
92 129 179 93 129 179 93 129 179 93 129 179
93 129 179 93 129 179 93 129 180 93 130 180
93 130 180 94 130 180 94 130 180 94 130 180
94 130 180 94 130 180 94 130 181 94 131 181
94 131 181 95 131 181 95 131 181 95 131 181
95 131 181 95 131 181 95 131 181 95 131 182
95 132 182 95 132 182 95 132 182 96 132 182
164 200 250 164 200 250 164 200 250 164 200 250
164 200 250 19 92 192 19 92 192 19 92 192
19 92 192 19 92 192 19 92 192 19 92 192
19 92 192 19 92 192 19 92 192 19 92 192
19 92 192 19 92 192 19 92 192 19 92 192
19 92 192 19 92 192 19 92 192 19 92 192
19 92 192 19 92 192 19 92 192 19 92 192
19 92 192 19 92 192 19 92 192 19 92 192
19 92 192 19 92 192 19 92 192 19 92 192
19 92 192 19 92 192 19 92 192 19 92 192
19 92 192 19 92 192 19 92 192 19 92 192
19 92 192 19 92 192 19 92 192 19 92 192
19 92 192 19 92 192 19 92 192 19 92 192
19 92 192 19 92 192 19 92 192 19 92 192
19 92 192 19 92 192 19 92 192 19 92 192
19 92 192 19 92 192 19 92 192 19 92 192
19 92 192 19 92 192 19 92 192 19 92 192
19 92 192 19 92 192 19 92 192 19 92 192
19 92 192 19 92 192 19 92 192 19 92 192
19 92 192 19 92 192 19 92 192 19 92 192
19 92 192 19 92 192 146 182 233 146 182 233
146 183 233 146 183 233 146 183 233 146 183 233
147 183 233 147 183 233 147 183 233 147 183 233
147 183 233 147 183 233 147 183 233 147 183 233
147 183 233 147 183 233 147 183 233 147 183 233
147 183 234 147 183 234 147 183 234 147 184 234
80 116 166 80 116 166 74 86 104 82 90 104
88 93 105 93 96 106 98 99 106 103 101 107
109 105 109 119 114 117 138 127 126 140 124 119
140 121 112 217 194 183 221 196 183 217 192 179
148 185 235 149 185 235 149 185 235 149 185 235
149 185 235 149 185 235 149 185 235 149 185 235
149 185 235 149 185 236 149 185 236 149 186 236
149 186 236 149 186 236 150 186 236 150 186 236
150 186 236 150 186 236 150 186 236 150 186 236
150 186 236 150 186 237 150 186 237 150 187 237
150 187 237 151 187 237 151 187 237 151 187 237
151 187 237 151 187 237 151 187 237 151 187 238
84 120 170 84 120 170 84 120 170 84 120 170
152 188 238 152 188 238 152 188 238 152 188 238
152 188 239 152 188 239 152 189 239 152 189 239
153 189 239 153 189 239 153 189 239 153 189 239
153 189 239 233 193 164 230 201 185 230 201 185
231 202 185 232 202 186 232 202 186 233 203 186
233 203 186 234 203 186 234 203 186 234 204 186
235 204 187 235 204 187 235 204 187 236 205 187
236 205 187 236 205 187 236 205 187 168 137 120
169 137 120 169 138 120 169 138 120 169 138 120
169 138 120 169 138 121 169 138 121 169 138 121
169 138 121 168 138 121 170 139 121 89 125 175
89 125 176 89 126 176 89 126 176 90 126 176
90 126 176 90 126 176 90 126 176 158 194 244
158 194 245 158 194 245 158 195 245 159 195 245
159 195 245 159 195 245 159 195 245 159 195 245
159 195 246 159 196 246 159 196 246 160 196 246
160 196 246 160 196 246 92 128 178 92 128 179
92 129 179 92 129 179 93 129 179 93 129 179
93 129 179 93 129 179 93 129 179 93 129 180
93 130 180 93 130 180 94 130 180 94 130 180
94 130 180 94 130 180 94 130 180 94 130 181
94 131 181 94 131 181 95 131 181 95 131 181
95 131 181 95 131 181 95 131 181 95 131 182
95 131 182 95 132 182 95 132 182 96 132 182
96 132 182 96 132 182 96 132 182 96 132 182
96 132 183 164 200 251 164 201 251 19 92 192
19 92 192 19 92 192 19 92 192 19 92 192
19 92 192 19 92 192 19 92 192 19 92 192
19 92 192 19 92 192 19 92 192 19 92 192
19 92 192 19 92 192 19 92 192 19 92 192
19 92 192 19 92 192 19 92 192 19 92 192
19 92 192 19 92 192 19 92 192 19 92 192
19 92 192 19 92 192 19 92 192 19 92 192
19 92 192 19 92 192 19 92 192 19 92 192
19 92 192 19 92 192 19 92 192 19 92 192
19 92 192 19 92 192 19 92 192 19 92 192
19 92 192 19 92 192 19 92 192 19 92 192
19 92 192 19 92 192 19 92 192 19 92 192
19 92 192 19 92 192 19 92 192 19 92 192
19 92 192 19 92 192 19 92 192 19 92 192
19 92 192 19 92 192 19 92 192 19 92 192
19 92 192 19 92 192 19 92 192 19 92 192
19 92 192 19 92 192 19 92 192 19 92 192
19 92 192 19 92 192 19 92 192 19 92 192
19 92 192 19 92 192 19 92 192 19 92 192
19 92 192 19 92 192 19 92 192 147 183 233
147 183 233 147 183 233 147 183 233 147 183 233
147 183 233 147 183 233 147 183 233 147 183 233
147 183 233 147 183 233 147 183 233 147 183 234
147 183 234 147 183 234 147 184 234 147 184 234
147 184 234 147 184 234 80 116 166 80 116 167
80 116 167 74 86 104 77 88 104 84 91 105
89 94 105 94 97 106 99 99 106 103 101 107
110 106 111 125 117 119 135 122 119 137 120 113
145 123 114 154 130 118 219 193 181 214 191 179
149 185 235 149 185 235 149 185 235 149 185 235
149 185 235 149 185 235 149 185 236 149 185 236
149 186 236 149 186 236 149 186 236 150 186 236
150 186 236 150 186 236 150 186 236 150 186 236
150 186 236 150 186 237 150 186 237 150 187 237
150 187 237 150 187 237 151 187 237 151 187 237
151 187 237 151 187 237 151 187 237 151 187 237
151 187 238 151 187 238 151 188 238 151 188 238
152 188 238 84 120 170 152 188 238 152 188 238
152 188 238 152 188 239 152 188 239 152 189 239
152 189 239 153 189 239 153 189 239 153 189 239
153 189 239 153 189 239 153 189 240 153 189 240
153 190 240 153 190 240 154 190 240 154 190 240
154 190 240 154 190 240 236 204 186 233 203 186
234 203 186 234 204 187 235 204 187 235 204 187
235 204 187 236 205 187 236 205 187 236 205 187
236 205 188 237 205 188 237 206 188 237 206 188
169 138 120 169 138 120 169 138 120 169 138 121
169 138 121 170 139 121 173 140 121 89 125 175
89 125 175 89 125 176 89 125 176 89 126 176
90 126 176 90 126 176 90 126 176 90 126 176
90 126 176 90 126 177 158 194 245 158 195 245
159 195 245 159 195 245 159 195 245 159 195 245
159 195 245 159 195 246 159 196 246 159 196 246
160 196 246 160 196 246 160 196 246 160 196 246
160 196 247 160 196 247 160 197 247 93 129 179
93 129 179 93 129 179 93 129 179 93 129 179
93 129 180 93 130 180 93 130 180 94 130 180
94 130 180 94 130 180 94 130 180 94 130 180
94 130 181 94 131 181 94 131 181 95 131 181
95 131 181 95 131 181 95 131 181 95 131 181
95 131 182 95 132 182 95 132 182 96 132 182
96 132 182 96 132 182 96 132 182 96 132 182
96 132 182 96 132 183 96 133 183 96 133 183
97 133 183 97 133 183 19 92 192 19 92 192
19 92 192 19 92 192 19 92 192 19 92 192
19 92 192 19 92 192 19 92 192 19 92 192
19 92 192 19 92 192 19 92 192 19 92 192
19 92 192 19 92 192 19 92 192 19 92 192
19 92 192 19 92 192 19 92 192 19 92 192
19 92 192 19 92 192 19 92 192 19 92 192
19 92 192 19 92 192 19 92 192 19 92 192
19 92 192 19 92 192 19 92 192 19 92 192
19 92 192 19 92 192 19 92 192 19 92 192
19 92 192 19 92 192 19 92 192 19 92 192
19 92 192 19 92 192 19 92 192 19 92 192
19 92 192 19 92 192 19 92 192 19 92 192
19 92 192 19 92 192 19 92 192 19 92 192
19 92 192 19 92 192 19 92 192 19 92 192
19 92 192 19 92 192 19 92 192 19 92 192
19 92 192 19 92 192 19 92 192 19 92 192
19 92 192 19 92 192 19 92 192 19 92 192
19 92 192 19 92 192 19 92 192 19 92 192
19 92 192 19 92 192 19 92 192 19 92 192
19 92 192 19 92 192 19 92 192 147 183 233
147 183 233 147 183 233 147 183 233 147 183 233
147 183 233 147 183 233 147 183 234 147 183 234
147 183 234 147 183 234 147 184 234 147 184 234
147 184 234 147 184 234 148 184 234 148 184 234
80 116 167 80 116 167 80 116 167 80 117 167
74 86 104 74 86 104 79 89 105 85 92 105
90 95 106 95 97 106 99 99 107 104 102 108
112 107 112 127 117 116 133 118 113 140 120 112
152 129 119 152 128 115 150 125 112 149 185 235
149 185 235 149 185 235 149 185 236 149 185 236
149 186 236 149 186 236 149 186 236 150 186 236
150 186 236 150 186 236 150 186 236 150 186 236
150 186 236 150 186 236 150 186 237 150 186 237
150 187 237 150 187 237 150 187 237 151 187 237
151 187 237 151 187 237 151 187 237 151 187 237
151 187 237 151 187 238 151 187 238 151 188 238
151 188 238 152 188 238 152 188 238 152 188 238
84 120 170 84 120 171 152 188 238 152 188 239
152 189 239 152 189 239 153 189 239 153 189 239
153 189 239 153 189 239 153 189 239 153 189 239
153 189 240 153 190 240 153 190 240 154 190 240
154 190 240 154 190 240 154 190 240 154 190 240
154 190 241 154 191 241 154 191 241 155 191 241
155 191 241 155 191 241 155 191 241 155 191 241
155 191 242 149 147 146 243 208 188 243 209 188
243 209 189 243 209 189 244 209 189 156 192 242
156 192 243 88 125 175 89 125 175 89 125 175
89 125 175 89 125 175 89 125 175 89 125 176
89 126 176 89 126 176 90 126 176 90 126 176
90 126 176 90 126 176 90 126 176 90 126 177
158 195 245 158 195 245 159 195 245 159 195 245
159 195 245 159 195 245 159 195 246 159 196 246
159 196 246 160 196 246 160 196 246 160 196 246
160 196 246 160 196 247 160 196 247 160 197 247
161 197 247 161 197 247 161 197 247 161 197 247
93 129 179 93 129 180 93 130 180 93 130 180
94 130 180 94 130 180 94 130 180 94 130 180
94 130 180 94 130 181 94 131 181 94 131 181
95 131 181 95 131 181 95 131 181 95 131 181
95 131 181 95 131 182 95 132 182 95 132 182
96 132 182 96 132 182 96 132 182 96 132 182
96 132 182 96 132 183 96 132 183 96 133 183
96 133 183 97 133 183 97 133 183 97 133 183
19 92 192 19 92 192 19 92 192 19 92 192
19 92 192 19 92 192 19 92 192 19 92 192
19 92 192 19 92 192 19 92 192 19 92 192
19 92 192 19 92 192 19 92 192 19 92 192
19 92 192 19 92 192 19 92 192 19 92 192
19 92 192 19 92 192 19 92 192 19 92 192
19 92 192 19 92 192 19 92 192 19 92 192
19 92 192 19 92 192 19 92 192 19 92 192
19 92 192 19 92 192 19 92 192 19 92 192
19 92 192 19 92 192 19 92 192 19 92 192
19 92 192 19 92 192 19 92 192 19 92 192
19 92 192 19 92 192 19 92 192 19 92 192
19 92 192 19 92 192 19 92 192 19 92 192
19 92 192 19 92 192 19 92 192 19 92 192
19 92 192 19 92 192 19 92 192 19 92 192
19 92 192 19 92 192 19 92 192 19 92 192
19 92 192 19 92 192 19 92 192 19 92 192
19 92 192 19 92 192 19 92 192 19 92 192
19 92 192 19 92 192 19 92 192 19 92 192
19 92 192 19 92 192 19 92 192 19 92 192
19 92 192 19 92 192 19 92 192 19 92 192
147 183 233 147 183 234 147 183 234 147 183 234
147 183 234 147 184 234 147 184 234 147 184 234
147 184 234 148 184 234 148 184 234 148 184 234
148 184 234 80 116 167 80 117 167 80 117 167
80 117 167 80 117 167 80 117 167 74 87 104
74 87 104 74 87 104 81 90 105 86 93 105
91 95 106 96 98 107 100 100 107 104 103 108
117 110 112 128 115 113 135 118 112 148 127 117
154 130 118 151 126 113 81 118 168 149 185 236
149 185 236 149 186 236 149 186 236 150 186 236
150 186 236 150 186 236 150 186 236 150 186 236
150 186 236 150 186 236 150 186 236 150 186 237
150 186 237 150 187 237 150 187 237 151 187 237
151 187 237 151 187 237 151 187 237 151 187 237
151 187 237 151 187 237 151 187 238 151 188 238
151 188 238 151 188 238 152 188 238 152 188 238
152 188 238 152 188 238 84 120 171 84 120 171
84 121 171 84 121 171 85 121 171 153 189 239
153 189 239 153 189 239 153 189 239 153 189 239
153 189 239 153 189 240 153 190 240 153 190 240
154 190 240 154 190 240 154 190 240 154 190 240
154 190 240 154 190 241 154 190 241 154 191 241
155 191 241 155 191 241 155 191 241 155 191 241
155 191 241 155 191 242 155 191 242 155 192 242
156 192 242 156 192 242 156 192 242 156 192 242
156 192 242 156 192 243 156 193 243 156 193 243
157 193 243 157 193 243 89 125 175 89 125 175
89 125 175 89 125 176 89 126 176 89 126 176
90 126 176 90 126 176 90 126 176 90 126 176
90 126 177 90 127 177 158 195 245 159 195 245
159 195 245 159 195 245 159 195 245 159 195 246
159 196 246 159 196 246 160 196 246 160 196 246
160 196 246 160 196 246 160 196 247 160 196 247
160 197 247 161 197 247 161 197 247 161 197 247
161 197 247 161 197 247 161 197 248 161 198 248
161 198 248 94 130 180 94 130 180 94 130 180
94 130 180 94 130 180 94 130 181 94 131 181
94 131 181 95 131 181 95 131 181 95 131 181
95 131 181 95 131 181 95 131 182 95 132 182
95 132 182 96 132 182 96 132 182 96 132 182
96 132 182 96 132 182 96 132 183 96 133 183
96 133 183 97 133 183 97 133 183 97 133 183
97 133 183 97 133 183 19 92 192 19 92 192
19 92 192 19 92 192 19 92 192 19 92 192
19 92 192 19 92 192 19 92 192 19 92 192
19 92 192 19 92 192 19 92 192 19 92 192
19 92 192 19 92 192 19 92 192 19 92 192
19 92 192 19 92 192 19 92 192 19 92 192
19 92 192 19 92 192 19 92 192 19 92 192
19 92 192 19 92 192 19 92 192 19 92 192
19 92 192 19 92 192 19 92 192 19 92 192
19 92 192 19 92 192 19 92 192 19 92 192
19 92 192 19 92 192 19 92 192 19 92 192
19 92 192 19 92 192 19 92 192 19 92 192
19 92 192 19 92 192 19 92 192 19 92 192
19 92 192 19 92 192 19 92 192 19 92 192
19 92 192 19 92 192 19 92 192 19 92 192
19 92 192 19 92 192 19 92 192 19 92 192
19 92 192 19 92 192 19 92 192 19 92 192
19 92 192 19 92 192 19 92 192 19 92 192
19 92 192 19 92 192 19 92 192 19 92 192
19 92 192 19 92 192 19 92 192 19 92 192
19 92 192 19 92 192 19 92 192 19 92 192
19 92 192 19 92 192 19 92 192 19 92 192
147 184 234 147 184 234 147 184 234 147 184 234
148 184 234 148 184 234 148 184 234 148 184 234
148 184 234 148 184 234 148 184 234 80 117 167
80 117 167 80 117 167 80 117 167 81 117 167
81 117 167 81 117 167 74 87 104 74 87 104
74 87 104 74 87 104 82 91 105 87 93 106
92 96 106 97 98 107 101 100 107 110 106 109
122 112 111 132 116 111 144 124 116 155 132 121
151 126 113 82 118 168 82 118 168 82 118 168
150 186 236 150 186 236 150 186 236 150 186 236
150 186 236 150 186 236 150 186 236 150 186 237
150 186 237 150 187 237 150 187 237 150 187 237
151 187 237 151 187 237 151 187 237 151 187 237
151 187 237 151 187 237 151 187 238 151 187 238
151 188 238 151 188 238 151 188 238 152 188 238
152 188 238 152 188 238 152 188 238 152 188 238
84 120 171 84 121 171 84 121 171 85 121 171
85 121 171 85 121 171 85 121 171 153 189 239
153 189 239 153 189 239 153 189 240 153 190 240
153 190 240 154 190 240 154 190 240 154 190 240
154 190 240 154 190 240 154 190 241 154 190 241
154 191 241 154 191 241 155 191 241 155 191 241
155 191 241 155 191 241 155 191 241 155 191 242
155 192 242 155 192 242 156 192 242 156 192 242
156 192 242 156 192 242 156 192 243 156 192 243
156 193 243 157 193 243 157 193 243 157 193 243
157 193 243 157 193 243 157 193 244 89 126 176
89 126 176 90 126 176 90 126 176 90 126 176
90 126 176 90 126 176 90 126 177 90 127 177
159 195 245 159 195 245 159 195 245 159 195 245
159 195 246 159 195 246 159 196 246 160 196 246
160 196 246 160 196 246 160 196 246 160 196 246
160 196 247 160 197 247 161 197 247 161 197 247
161 197 247 161 197 247 161 197 247 161 197 248
161 198 248 161 198 248 162 198 248 162 198 248
162 198 248 162 198 248 94 130 180 94 130 181
94 131 181 94 131 181 95 131 181 95 131 181
95 131 181 95 131 181 95 131 181 95 131 182
95 132 182 95 132 182 96 132 182 96 132 182
96 132 182 96 132 182 96 132 182 96 132 183
96 133 183 96 133 183 97 133 183 97 133 183
97 133 183 97 133 183 97 133 183 97 133 184
97 134 184 19 92 192 19 92 192 19 92 192
19 92 192 19 92 192 19 92 192 19 92 192
19 92 192 19 92 192 19 92 192 19 92 192
19 92 192 19 92 192 19 92 192 19 92 192
19 92 192 19 92 192 19 92 192 19 92 192
19 92 192 19 92 192 19 92 192 19 92 192
19 92 192 19 92 192 19 92 192 19 92 192
19 92 192 19 92 192 19 92 192 19 92 192
19 92 192 19 92 192 19 92 192 19 92 192
19 92 192 19 92 192 19 92 192 19 92 192
19 92 192 19 92 192 19 92 192 19 92 192
19 92 192 19 92 192 19 92 192 19 92 192
19 92 192 19 92 192 19 92 192 19 92 192
19 92 192 19 92 192 19 92 192 19 92 192
19 92 192 19 92 192 19 92 192 19 92 192
19 92 192 19 92 192 19 92 192 19 92 192
19 92 192 19 92 192 19 92 192 19 92 192
19 92 192 19 92 192 19 92 192 19 92 192
19 92 192 19 92 192 19 92 192 19 92 192
19 92 192 19 92 192 19 92 192 19 92 192
19 92 192 19 92 192 19 92 192 19 92 192
19 92 192 19 92 192 19 92 192 19 92 192
19 92 192 148 184 234 148 184 234 148 184 234
148 184 234 148 184 234 148 184 234 148 184 234
148 184 234 80 117 167 80 117 167 81 117 167
81 117 167 81 117 167 81 117 167 81 117 167
81 117 167 74 87 104 74 87 104 74 87 104
75 87 105 75 87 105 83 92 105 88 94 106
93 96 107 97 99 107 103 101 108 116 108 110
127 114 111 139 121 114 155 133 122 152 127 114
73 77 83 82 118 168 82 118 168 82 118 168
150 186 236 150 186 236 150 186 236 150 186 236
150 186 237 150 186 237 150 187 237 150 187 237
151 187 237 151 187 237 151 187 237 151 187 237
151 187 237 151 187 237 151 187 237 151 187 238
151 187 238 151 188 238 151 188 238 152 188 238
152 188 238 152 188 238 152 188 238 152 188 238
152 188 238 84 120 171 84 121 171 84 121 171
84 121 171 85 121 171 85 121 171 85 121 171
85 121 171 85 121 171 85 121 171 85 121 172
153 190 240 153 190 240 154 190 240 154 190 240
154 190 240 154 190 240 154 190 240 154 190 240
154 190 241 154 191 241 154 191 241 155 191 241
155 191 241 155 191 241 155 191 241 155 191 241
155 191 242 155 192 242 155 192 242 156 192 242
156 192 242 156 192 242 156 192 242 156 192 242
156 192 243 156 193 243 156 193 243 157 193 243
157 193 243 157 193 243 157 193 243 157 193 244
157 194 244 157 194 244 158 194 244 158 194 244
90 126 176 90 126 176 90 126 176 90 126 177
90 126 177 90 127 177 159 195 245 159 195 245
159 195 245 159 195 245 159 195 246 159 196 246
160 196 246 160 196 246 160 196 246 160 196 246
160 196 246 160 196 247 160 197 247 160 197 247
161 197 247 161 197 247 161 197 247 161 197 247
161 197 248 161 198 248 161 198 248 162 198 248
162 198 248 162 198 248 162 198 248 162 198 249
162 199 249 162 199 249 163 199 249 95 131 181
95 131 181 95 131 181 95 131 181 95 131 181
95 131 182 95 132 182 95 132 182 96 132 182
96 132 182 96 132 182 96 132 182 96 132 183
96 132 183 96 133 183 96 133 183 97 133 183
97 133 183 97 133 183 97 133 183 97 133 183
97 133 184 97 134 184 97 134 184 19 92 192
19 92 192 19 92 192 19 92 192 19 92 192
19 92 192 19 92 192 19 92 192 19 92 192
19 92 192 19 92 192 19 92 192 19 92 192
19 92 192 19 92 192 19 92 192 19 92 192
19 92 192 19 92 192 19 92 192 19 92 192
19 92 192 19 92 192 19 92 192 19 92 192
19 92 192 19 92 192 19 92 192 19 92 192
19 92 192 19 92 192 19 92 192 19 92 192
19 92 192 19 92 192 19 92 192 19 92 192
19 92 192 19 92 192 19 92 192 19 92 192
19 92 192 19 92 192 19 92 192 19 92 192
19 92 192 19 92 192 19 92 192 19 92 192
19 92 192 19 92 192 19 92 192 19 92 192
19 92 192 19 92 192 19 92 192 19 92 192
19 92 192 19 92 192 19 92 192 19 92 192
19 92 192 19 92 192 19 92 192 19 92 192
19 92 192 19 92 192 19 92 192 19 92 192
19 92 192 19 92 192 19 92 192 19 92 192
19 92 192 19 92 192 19 92 192 19 92 192
19 92 192 19 92 192 19 92 192 19 92 192
19 92 192 19 92 192 19 92 192 19 92 192
19 92 192 19 92 192 19 92 192 19 92 192
19 92 192 148 184 234 148 184 234 148 184 234
148 184 234 148 184 235 148 184 235 81 117 167
81 117 167 81 117 167 81 117 167 81 117 167
81 117 167 81 117 167 81 117 167 81 117 167
75 87 105 75 87 105 75 87 105 75 87 105
75 87 105 79 90 105 84 92 106 89 95 106
94 97 107 98 99 107 110 105 109 122 111 110
134 118 112 153 133 124 152 128 115 155 128 113
82 118 168 82 118 168 82 118 169 82 118 169
82 119 169 150 186 237 150 187 237 150 187 237
150 187 237 151 187 237 151 187 237 151 187 237
151 187 237 151 187 237 151 187 237 151 187 237
151 187 238 151 187 238 151 188 238 151 188 238
152 188 238 152 188 238 152 188 238 152 188 238
152 188 238 152 188 238 152 188 239 84 120 171
84 121 171 84 121 171 85 121 171 85 121 171
85 121 171 85 121 171 85 121 171 85 121 171
85 121 172 85 121 172 85 122 172 85 122 172
86 122 172 154 190 240 154 190 240 154 190 240
154 190 240 154 190 241 154 191 241 154 191 241
155 191 241 155 191 241 155 191 241 155 191 241
155 191 241 155 191 242 155 192 242 155 192 242
156 192 242 156 192 242 156 192 242 156 192 242
156 192 242 156 192 243 156 193 243 156 193 243
157 193 243 157 193 243 157 193 243 157 193 243
157 193 244 157 193 244 157 194 244 158 194 244
158 194 244 158 194 244 158 194 244 158 194 244
158 194 245 90 126 177 90 127 177 90 127 177
159 195 245 159 195 245 159 195 245 159 195 246
159 196 246 159 196 246 160 196 246 160 196 246
160 196 246 160 196 246 160 196 247 160 197 247
160 197 247 161 197 247 161 197 247 161 197 247
161 197 247 161 197 248 161 198 248 161 198 248
162 198 248 162 198 248 162 198 248 162 198 248
162 198 249 162 199 249 162 199 249 163 199 249
163 199 249 163 199 249 163 199 249 163 199 250
95 131 181 95 131 182 95 132 182 95 132 182
96 132 182 96 132 182 96 132 182 96 132 182
96 132 182 96 132 183 96 133 183 96 133 183
97 133 183 97 133 183 97 133 183 97 133 183
97 133 184 97 133 184 97 134 184 97 134 184
98 134 184 19 92 192 19 92 192 19 92 192
19 92 192 19 92 192 19 92 192 19 92 192
19 92 192 19 92 192 19 92 192 19 92 192
19 92 192 19 92 192 19 92 192 19 92 192
19 92 192 19 92 192 19 92 192 19 92 192
19 92 192 19 92 192 19 92 192 19 92 192
19 92 192 19 92 192 19 92 192 19 92 192
19 92 192 19 92 192 19 92 192 19 92 192
19 92 192 19 92 192 19 92 192 19 92 192
19 92 192 19 92 192 19 92 192 19 92 192
19 92 192 19 92 192 19 92 192 19 92 192
19 92 192 19 92 192 19 92 192 19 92 192
19 92 192 19 92 192 19 92 192 19 92 192
19 92 192 19 92 192 19 92 192 19 92 192
19 92 192 19 92 192 19 92 192 19 92 192
19 92 192 19 92 192 19 92 192 19 92 192
19 92 192 19 92 192 19 92 192 19 92 192
19 92 192 19 92 192 19 92 192 19 92 192
19 92 192 19 92 192 19 92 192 19 92 192
19 92 192 19 92 192 19 92 192 19 92 192
19 92 192 19 92 192 19 92 192 19 92 192
19 92 192 19 92 192 19 92 192 19 92 192
19 92 192 19 92 192 19 92 192 19 92 192
19 92 192 19 92 192 148 184 235 148 185 235
81 117 167 81 117 167 81 117 167 81 117 167
81 117 167 81 117 167 81 117 167 81 117 167
81 117 167 81 117 167 81 117 168 75 87 105
75 87 105 75 87 105 75 87 105 75 87 105
77 88 105 81 91 106 86 93 106 90 95 107
95 97 107 98 99 108 117 109 110 130 116 112
151 132 124 153 128 116 156 128 114 82 118 169
82 118 169 82 119 169 82 119 169 82 119 169
83 119 169 83 119 169 151 187 237 151 187 237
151 187 237 151 187 237 151 187 237 151 187 237
151 187 238 151 187 238 151 188 238 151 188 238
151 188 238 152 188 238 152 188 238 152 188 238
152 188 238 152 188 238 152 188 238 152 188 239
152 188 239 84 121 171 84 121 171 85 121 171
85 121 171 85 121 171 85 121 171 85 121 171
85 121 171 85 121 172 85 121 172 85 122 172
85 122 172 86 122 172 86 122 172 86 122 172
86 122 172 86 122 172 154 190 241 154 191 241
154 191 241 155 191 241 155 191 241 155 191 241
155 191 241 155 191 241 155 191 242 155 191 242
155 192 242 156 192 242 156 192 242 156 192 242
156 192 242 156 192 242 156 192 243 156 192 243
156 193 243 157 193 243 157 193 243 157 193 243
157 193 243 157 193 243 157 193 244 157 194 244
157 194 244 158 194 244 158 194 244 158 194 244
158 194 244 158 194 245 158 195 245 158 195 245
159 195 245 91 127 177 159 195 245 159 195 245
159 195 246 159 196 246 159 196 246 160 196 246
160 196 246 160 196 246 160 196 246 160 196 247
160 197 247 160 197 247 161 197 247 161 197 247
161 197 247 161 197 247 161 197 248 161 198 248
161 198 248 162 198 248 162 198 248 162 198 248
162 198 248 162 198 249 162 199 249 162 199 249
163 199 249 163 199 249 163 199 249 163 199 249
163 199 250 163 199 250 163 200 250 164 200 250
164 200 250 96 132 182 96 132 182 96 132 182
96 132 182 96 132 182 96 132 183 96 133 183
96 133 183 97 133 183 97 133 183 97 133 183
97 133 183 97 133 184 97 133 184 97 134 184
98 134 184 98 134 184 98 134 184 19 92 192
19 92 192 19 92 192 19 92 192 19 92 192
19 92 192 19 92 192 19 92 192 19 92 192
19 92 192 19 92 192 19 92 192 19 92 192
19 92 192 19 92 192 19 92 192 19 92 192
19 92 192 19 92 192 19 92 192 19 92 192
19 92 192 19 92 192 19 92 192 19 92 192
19 92 192 19 92 192 19 92 192 19 92 192
19 92 192 19 92 192 19 92 192 19 92 192
19 92 192 19 92 192 19 92 192 19 92 192
19 92 192 19 92 192 19 92 192 19 92 192
19 92 192 19 92 192 19 92 192 19 92 192
19 92 192 19 92 192 19 92 192 19 92 192
19 92 192 19 92 192 19 92 192 19 92 192
19 92 192 19 92 192 19 92 192 19 92 192
19 92 192 19 92 192 19 92 192 19 92 192
19 92 192 19 92 192 19 92 192 19 92 192
19 92 192 19 92 192 19 92 192 19 92 192
19 92 192 19 92 192 19 92 192 19 92 192
19 92 192 19 92 192 19 92 192 19 92 192
19 92 192 19 92 192 19 92 192 19 92 192
19 92 192 19 92 192 19 92 192 19 92 192
19 92 192 19 92 192 19 92 192 19 92 192
19 92 192 19 92 192 19 92 192 19 92 192
19 92 192 19 92 192 81 117 167 81 117 167
81 117 167 81 117 167 81 117 167 81 117 167
81 117 167 81 117 167 81 117 168 81 117 168
81 117 168 81 118 168 75 87 105 75 87 105
75 88 105 75 88 105 75 88 105 75 88 105
78 89 106 83 92 106 87 94 107 92 96 107
95 98 107 113 107 109 126 114 111 149 131 123
153 130 118 82 119 169 82 119 169 82 119 169
82 119 169 83 119 169 83 119 169 83 119 169
83 119 169 83 119 169 151 187 237 151 187 237
151 187 237 151 187 238 151 187 238 151 188 238
151 188 238 152 188 238 152 188 238 152 188 238
152 188 238 152 188 238 152 188 238 152 188 238
152 188 239 152 188 239 152 189 239 84 121 171
84 121 171 85 121 171 85 121 171 85 121 171
85 121 171 85 121 171 85 121 171 85 121 172
85 122 172 85 122 172 85 122 172 86 122 172
86 122 172 86 122 172 86 122 172 86 122 172
86 122 173 86 122 173 155 191 241 155 191 241
155 191 241 155 191 241 155 191 241 155 191 242
155 191 242 155 192 242 155 192 242 156 192 242
156 192 242 156 192 242 156 192 242 156 192 243
156 192 243 156 193 243 156 193 243 157 193 243
157 193 243 157 193 243 157 193 243 157 193 244
157 194 244 157 194 244 158 194 244 158 194 244
158 194 244 158 194 244 158 194 245 158 194 245
158 195 245 159 195 245 159 195 245 159 195 245
159 195 245 91 127 177 159 195 246 159 196 246
160 196 246 160 196 246 160 196 246 160 196 246
160 196 246 160 196 247 160 197 247 161 197 247
161 197 247 161 197 247 161 197 247 161 197 248
161 197 248 161 198 248 162 198 248 162 198 248
162 198 248 162 198 248 162 198 249 162 198 249
162 199 249 163 199 249 163 199 249 163 199 249
163 199 249 163 199 250 163 199 250 163 200 250
164 200 250 164 200 250 164 200 250 164 200 250
164 200 251 164 200 251 96 132 182 96 132 183
96 133 183 96 133 183 97 133 183 97 133 183
97 133 183 97 133 183 97 133 184 97 133 184
97 134 184 98 134 184 98 134 184 98 134 184
98 134 184 98 134 184 19 92 192 19 92 192
19 92 192 19 92 192 19 92 192 19 92 192
19 92 192 19 92 192 19 92 192 19 92 192
19 92 192 19 92 192 19 92 192 19 92 192
19 92 192 19 92 192 19 92 192 19 92 192
19 92 192 19 92 192 19 92 192 19 92 192
19 92 192 19 92 192 19 92 192 19 92 192
19 92 192 19 92 192 19 92 192 19 92 192
19 92 192 19 92 192 19 92 192 19 92 192
19 92 192 19 92 192 19 92 192 19 92 192
19 92 192 19 92 192 19 92 192 19 92 192
19 92 192 19 92 192 19 92 192 19 92 192
19 92 192 19 92 192 19 92 192 19 92 192
19 92 192 19 92 192 19 92 192 19 92 192
19 92 192 19 92 192 19 92 192 19 92 192
19 92 192 19 92 192 19 92 192 19 92 192
19 92 192 19 92 192 19 92 192 19 92 192
19 92 192 19 92 192 19 92 192 19 92 192
19 92 192 19 92 192 19 92 192 19 92 192
19 92 192 19 92 192 19 92 192 19 92 192
19 92 192 19 92 192 19 92 192 19 92 192
19 92 192 19 92 192 19 92 192 19 92 192
19 92 192 19 92 192 19 92 192 19 92 192
19 92 192 19 92 192 19 92 192 19 92 192
19 92 192 19 92 192 19 92 192 81 117 167
81 117 167 81 117 168 81 117 168 81 117 168
81 117 168 81 118 168 81 118 168 81 118 168
81 118 168 75 88 105 75 88 105 75 88 105
75 88 105 75 88 105 75 88 105 76 88 105
80 90 106 84 93 106 89 95 107 93 97 107
109 105 109 123 112 111 146 129 122 153 129 117
82 119 169 83 119 169 83 119 169 83 119 169
83 119 169 83 119 169 83 119 169 83 119 169
83 119 169 83 119 170 83 119 170 151 188 238
151 188 238 151 188 238 152 188 238 152 188 238
152 188 238 152 188 238 152 188 238 152 188 238
152 188 238 152 188 239 152 188 239 152 189 239
152 189 239 84 121 171 85 121 171 85 121 171
85 121 171 85 121 171 85 121 171 85 121 171
85 121 172 85 121 172 85 122 172 85 122 172
86 122 172 86 122 172 86 122 172 86 122 172
86 122 172 86 122 172 86 122 173 86 123 173
86 123 173 87 123 173 87 123 173 155 191 241
155 191 241 155 191 242 155 192 242 155 192 242
156 192 242 156 192 242 156 192 242 156 192 242
156 192 242 156 192 243 156 193 243 156 193 243
157 193 243 157 193 243 157 193 243 157 193 243
157 193 244 157 193 244 157 194 244 158 194 244
158 194 244 158 194 244 158 194 244 158 194 244
158 194 245 158 195 245 158 195 245 159 195 245
159 195 245 159 195 245 159 195 245 91 127 177
91 127 177 91 127 178 91 128 178 160 196 246
160 196 246 160 196 246 160 196 247 160 197 247
160 197 247 161 197 247 161 197 247 161 197 247
161 197 247 161 197 248 161 198 248 161 198 248
162 198 248 162 198 248 162 198 248 162 198 248
162 198 249 162 199 249 163 199 249 163 199 249
163 199 249 163 199 249 163 199 249 163 199 250
163 200 250 164 200 250 164 200 250 164 200 250
164 200 250 164 200 251 164 200 251 164 201 251
165 201 251 165 201 251 165 201 251 97 133 183
97 133 183 97 133 183 97 133 183 97 133 184
97 133 184 97 134 184 98 134 184 98 134 184
98 134 184 98 134 184 98 134 184 98 134 185
19 92 192 19 92 192 19 92 192 19 92 192
19 92 192 19 92 192 19 92 192 19 92 192
19 92 192 19 92 192 19 92 192 19 92 192
19 92 192 19 92 192 19 92 192 19 92 192
19 92 192 19 92 192 19 92 192 19 92 192
19 92 192 19 92 192 19 92 192 19 92 192
19 92 192 19 92 192 19 92 192 19 92 192
19 92 192 19 92 192 19 92 192 19 92 192
19 92 192 19 92 192 19 92 192 19 92 192
19 92 192 19 92 192 19 92 192 19 92 192
19 92 192 19 92 192 19 92 192 19 92 192
19 92 192 19 92 192 19 92 192 19 92 192
19 92 192 19 92 192 19 92 192 19 92 192
19 92 192 19 92 192 19 92 192 19 92 192
19 92 192 19 92 192 19 92 192 19 92 192
19 92 192 19 92 192 19 92 192 19 92 192
19 92 192 19 92 192 19 92 192 19 92 192
19 92 192 19 92 192 19 92 192 19 92 192
19 92 192 19 92 192 19 92 192 19 92 192
19 92 192 19 92 192 19 92 192 19 92 192
19 92 192 19 92 192 19 92 192 19 92 192
19 92 192 19 92 192 19 92 192 19 92 192
19 92 192 19 92 192 19 92 192 19 92 192
19 92 192 19 92 192 19 92 192 19 92 192
19 92 192 19 92 192 19 92 192 19 92 192
81 118 168 81 118 168 81 118 168 81 118 168
81 118 168 82 118 168 82 118 168 82 118 168
75 88 105 75 88 105 75 88 105 75 88 105
75 88 105 75 88 105 76 88 106 77 89 106
81 91 106 86 93 107 90 96 107 105 103 109
119 110 110 149 131 124 164 133 115 83 119 169
83 119 169 83 119 169 83 119 169 83 119 169
83 119 169 83 119 169 83 119 170 83 119 170
83 120 170 83 120 170 83 120 170 84 120 170
152 188 238 152 188 238 152 188 238 152 188 238
152 188 238 152 188 239 152 188 239 152 189 239
152 189 239 152 189 239 153 189 239 85 121 171
85 121 171 85 121 171 85 121 171 85 121 171
85 121 171 85 121 172 85 121 172 85 122 172
85 122 172 86 122 172 86 122 172 86 122 172
86 122 172 86 122 172 86 122 172 86 122 173
86 122 173 86 123 173 86 123 173 87 123 173
87 123 173 87 123 173 87 123 173 87 123 173
155 192 242 156 192 242 156 192 242 156 192 242
156 192 242 156 192 242 156 192 243 156 193 243
156 193 243 157 193 243 157 193 243 157 193 243
157 193 243 157 193 243 157 193 244 157 194 244
157 194 244 158 194 244 158 194 244 158 194 244
158 194 244 158 194 245 158 195 245 158 195 245
159 195 245 159 195 245 159 195 245 159 195 245
159 195 246 91 127 177 91 127 177 91 127 178
91 128 178 92 128 178 92 128 178 92 128 178
160 197 247 160 197 247 161 197 247 161 197 247
161 197 247 161 197 247 161 197 248 161 198 248
161 198 248 162 198 248 162 198 248 162 198 248
162 198 248 162 198 249 162 199 249 162 199 249
163 199 249 163 199 249 163 199 249 163 199 249
163 199 250 163 200 250 164 200 250 164 200 250
164 200 250 164 200 250 164 200 250 164 200 251
164 201 251 165 201 251 165 201 251 165 201 251
165 201 251 165 201 251 165 201 252 165 202 252
97 133 183 97 133 184 97 134 184 98 134 184
98 134 184 98 134 184 98 134 184 98 134 184
98 134 185 98 135 185 19 92 192 19 92 192
19 92 192 19 92 192 19 92 192 19 92 192
19 92 192 19 92 192 19 92 192 19 92 192
19 92 192 19 92 192 19 92 192 19 92 192
19 92 192 19 92 192 19 92 192 19 92 192
19 92 192 19 92 192 19 92 192 19 92 192
19 92 192 19 92 192 19 92 192 19 92 192
19 92 192 19 92 192 19 92 192 19 92 192
19 92 192 19 92 192 19 92 192 19 92 192
19 92 192 19 92 192 19 92 192 19 92 192
19 92 192 19 92 192 19 92 192 19 92 192
19 92 192 19 92 192 19 92 192 19 92 192
19 92 192 19 92 192 19 92 192 19 92 192
19 92 192 19 92 192 19 92 192 19 92 192
19 92 192 19 92 192 19 92 192 19 92 192
19 92 192 19 92 192 19 92 192 19 92 192
19 92 192 19 92 192 19 92 192 19 92 192
19 92 192 19 92 192 19 92 192 19 92 192
19 92 192 19 92 192 19 92 192 19 92 192
19 92 192 19 92 192 19 92 192 19 92 192
19 92 192 19 92 192 19 92 192 19 92 192
19 92 192 19 92 192 19 92 192 19 92 192
19 92 192 19 92 192 19 92 192 19 92 192
19 92 192 19 92 192 19 92 192 19 92 192
19 92 192 19 92 192 19 92 192 19 92 192
19 92 192 19 92 192 19 92 192 19 92 192
82 118 168 82 118 168 82 118 168 82 118 168
82 118 168 82 118 168 82 118 168 82 118 168
75 88 105 75 88 105 76 88 106 76 88 106
76 88 106 76 88 106 76 88 106 79 90 106
83 92 107 87 94 107 105 103 109 129 116 112
157 129 115 83 119 169 83 119 169 83 119 169
83 119 169 83 119 169 83 119 169 83 119 170
83 119 170 83 120 170 83 120 170 83 120 170
84 120 170 84 120 170 84 120 170 84 120 170
152 188 238 152 188 238 152 188 239 152 188 239
152 189 239 152 189 239 153 189 239 153 189 239
153 189 239 85 121 171 85 121 171 85 121 171
85 121 171 85 121 171 85 121 172 85 121 172
85 122 172 85 122 172 85 122 172 86 122 172
86 122 172 86 122 172 86 122 172 86 122 172
86 122 173 86 122 173 86 123 173 86 123 173
87 123 173 87 123 173 87 123 173 87 123 173
87 123 173 87 123 174 87 123 174 87 124 174
87 124 174 156 192 242 156 192 242 156 192 243
156 192 243 156 193 243 157 193 243 157 193 243
157 193 243 157 193 243 157 193 243 157 193 244
157 194 244 157 194 244 158 194 244 158 194 244
158 194 244 158 194 244 158 194 245 158 194 245
158 195 245 159 195 245 159 195 245 159 195 245
159 195 245 159 195 245 159 195 246 91 127 177
91 127 178 91 127 178 91 128 178 92 128 178
92 128 178 92 128 178 92 128 178 92 128 179
92 128 179 161 197 247 161 197 247 161 197 248
161 197 248 161 198 248 162 198 248 162 198 248
162 198 248 162 198 248 162 198 249 162 199 249
162 199 249 163 199 249 163 199 249 163 199 249
163 199 249 163 199 250 163 200 250 163 200 250
164 200 250 164 200 250 164 200 250 164 200 250
164 200 251 164 201 251 165 201 251 165 201 251
165 201 251 165 201 251 165 201 251 165 201 252
165 202 252 166 202 252 166 202 252 166 202 252
166 202 252 98 134 184 98 134 184 98 134 184
98 134 184 98 134 185 98 135 185 98 135 185
99 135 185 19 92 192 19 92 192 19 92 192
19 92 192 19 92 192 19 92 192 19 92 192
19 92 192 19 92 192 19 92 192 19 92 192
19 92 192 19 92 192 19 92 192 19 92 192
19 92 192 19 92 192 19 92 192 19 92 192
19 92 192 19 92 192 19 92 192 19 92 192
19 92 192 19 92 192 19 92 192 19 92 192
19 92 192 19 92 192 19 92 192 19 92 192
19 92 192 19 92 192 19 92 192 19 92 192
19 92 192 19 92 192 19 92 192 19 92 192
19 92 192 19 92 192 19 92 192 19 92 192
19 92 192 19 92 192 19 92 192 19 92 192
19 92 192 19 92 192 19 92 192 19 92 192
19 92 192 19 92 192 19 92 192 19 92 192
19 92 192 19 92 192 19 92 192 19 92 192
19 92 192 19 92 192 19 92 192 19 92 192
19 92 192 19 92 192 19 92 192 19 92 192
19 92 192 19 92 192 19 92 192 19 92 192
19 92 192 19 92 192 19 92 192 19 92 192
19 92 192 19 92 192 19 92 192 19 92 192
19 92 192 19 92 192 19 92 192 19 92 192
19 92 192 19 92 192 19 92 192 19 92 192
19 92 192 19 92 192 19 92 192 19 92 192
19 92 192 19 92 192 19 92 192 19 92 192
19 92 192 19 92 192 19 92 192 19 92 192
19 92 192 19 92 192 19 92 192 19 92 192
19 92 192 82 118 168 82 118 168 82 118 168
82 118 168 82 118 168 82 118 168 82 118 169
76 88 106 76 88 106 76 88 106 76 88 106
76 88 106 77 89 106 82 91 107 87 94 107
93 97 108 127 114 111 157 130 115 83 119 169
83 119 169 83 119 169 83 119 169 83 119 170
83 119 170 83 119 170 83 120 170 83 120 170
83 120 170 84 120 170 84 120 170 84 120 170
84 120 170 84 120 170 84 120 170 84 120 170
84 120 171 152 189 239 152 189 239 153 189 239
153 189 239 153 189 239 153 189 239 85 121 171
85 121 171 85 121 171 85 121 171 85 121 171
85 121 172 85 122 172 85 122 172 85 122 172
86 122 172 86 122 172 86 122 172 86 122 172
86 122 172 86 122 172 86 122 173 86 123 173
86 123 173 87 123 173 87 123 173 87 123 173
87 123 173 87 123 173 87 123 173 87 123 174
87 124 174 87 124 174 88 124 174 88 124 174
88 124 174 156 192 243 156 193 243 156 193 243
157 193 243 157 193 243 157 193 243 157 193 243
157 193 244 157 193 244 157 194 244 158 194 244
158 194 244 158 194 244 158 194 244 158 194 244
158 194 245 158 195 245 158 195 245 159 195 245
159 195 245 159 195 245 159 195 245 159 195 246
159 196 246 91 127 177 91 127 178 91 128 178
91 128 178 92 128 178 92 128 178 92 128 178
92 128 178 92 128 179 92 129 179 92 129 179
93 129 179 93 129 179 161 198 248 161 198 248
162 198 248 162 198 248 162 198 248 162 198 248
162 198 249 162 199 249 163 199 249 163 199 249
163 199 249 163 199 249 163 199 250 163 200 250
163 200 250 164 200 250 164 200 250 164 200 250
164 200 250 164 200 251 164 201 251 164 201 251
165 201 251 165 201 251 165 201 251 165 201 251
165 201 252 165 202 252 166 202 252 166 202 252
166 202 252 166 202 252 166 202 252 166 202 253
166 203 253 167 203 253 98 134 185 98 135 185
98 135 185 99 135 185 99 135 185 19 92 192
19 92 192 19 92 192 19 92 192 19 92 192
19 92 192 19 92 192 19 92 192 19 92 192
19 92 192 19 92 192 19 92 192 19 92 192
19 92 192 19 92 192 19 92 192 19 92 192
19 92 192 19 92 192 19 92 192 19 92 192
19 92 192 19 92 192 19 92 192 19 92 192
19 92 192 19 92 192 19 92 192 19 92 192
19 92 192 19 92 192 19 92 192 19 92 192
19 92 192 19 92 192 19 92 192 19 92 192
19 92 192 19 92 192 19 92 192 19 92 192
19 92 192 19 92 192 19 92 192 19 92 192
19 92 192 19 92 192 19 92 192 19 92 192
19 92 192 19 92 192 19 92 192 19 92 192
19 92 192 19 92 192 19 92 192 19 92 192
19 92 192 19 92 192 19 92 192 19 92 192
19 92 192 19 92 192 19 92 192 19 92 192
19 92 192 19 92 192 19 92 192 19 92 192
19 92 192 19 92 192 19 92 192 19 92 192
19 92 192 19 92 192 19 92 192 19 92 192
19 92 192 19 92 192 19 92 192 19 92 192
19 92 192 19 92 192 19 92 192 19 92 192
19 92 192 19 92 192 19 92 192 19 92 192
19 92 192 19 92 192 19 92 192 19 92 192
19 92 192 19 92 192 19 92 192 19 92 192
19 92 192 19 92 192 19 92 192 19 92 192
19 92 192 19 92 192 19 92 192 19 92 192
19 92 192 82 118 168 82 118 168 82 118 169
82 118 169 82 118 169 82 119 169 82 119 169
76 89 106 76 89 106 76 89 106 76 89 106
84 93 107 90 95 108 104 102 109 132 117 113
83 119 169 83 119 169 83 119 169 83 119 169
83 119 170 83 119 170 83 120 170 83 120 170
83 120 170 84 120 170 84 120 170 84 120 170
84 120 170 84 120 170 84 120 170 84 120 170
84 120 170 84 120 171 84 120 171 84 121 171
84 121 171 84 121 171 153 189 239 153 189 239
153 189 239 85 121 171 85 121 171 85 121 171
85 121 171 85 121 172 85 121 172 85 122 172
85 122 172 86 122 172 86 122 172 86 122 172
86 122 172 86 122 172 86 122 172 86 122 173
86 122 173 86 123 173 86 123 173 87 123 173
87 123 173 87 123 173 87 123 173 87 123 173
87 123 174 87 123 174 87 124 174 87 124 174
88 124 174 88 124 174 88 124 174 88 124 174
88 124 174 88 124 175 157 193 243 157 193 243
157 193 243 157 193 243 157 193 244 157 194 244
157 194 244 158 194 244 158 194 244 158 194 244
158 194 244 158 194 245 158 195 245 158 195 245
159 195 245 159 195 245 159 195 245 159 195 245
159 195 246 159 195 246 159 196 246 91 127 177
91 127 178 91 128 178 92 128 178 92 128 178
92 128 178 92 128 178 92 128 178 92 128 179
92 129 179 93 129 179 93 129 179 93 129 179
93 129 179 93 129 179 93 129 180 162 198 248
162 198 248 162 198 249 162 199 249 162 199 249
163 199 249 163 199 249 163 199 249 163 199 249
163 199 250 163 200 250 164 200 250 164 200 250
164 200 250 164 200 250 164 200 251 164 201 251
164 201 251 165 201 251 165 201 251 165 201 251
165 201 251 165 201 252 165 202 252 165 202 252
166 202 252 166 202 252 166 202 252 166 202 252
166 202 253 166 203 253 167 203 253 167 203 253
167 203 253 167 203 253 167 203 253 99 135 185
99 135 185 19 92 192 19 92 192 19 92 192
19 92 192 19 92 192 19 92 192 19 92 192
19 92 192 19 92 192 19 92 192 19 92 192
19 92 192 19 92 192 19 92 192 19 92 192
19 92 192 19 92 192 19 92 192 19 92 192
19 92 192 19 92 192 19 92 192 19 92 192
19 92 192 19 92 192 19 92 192 19 92 192
19 92 192 19 92 192 19 92 192 19 92 192
19 92 192 19 92 192 19 92 192 19 92 192
19 92 192 19 92 192 19 92 192 19 92 192
19 92 192 19 92 192 19 92 192 19 92 192
19 92 192 19 92 192 19 92 192 19 92 192
19 92 192 19 92 192 19 92 192 19 92 192
19 92 192 19 92 192 19 92 192 19 92 192
19 92 192 19 92 192 19 92 192 19 92 192
19 92 192 19 92 192 19 92 192 19 92 192
19 92 192 19 92 192 19 92 192 19 92 192
19 92 192 19 92 192 19 92 192 19 92 192
19 92 192 19 92 192 19 92 192 19 92 192
19 92 192 19 92 192 19 92 192 19 92 192
19 92 192 19 92 192 19 92 192 19 92 192
19 92 192 19 92 192 19 92 192 19 92 192
19 92 192 19 92 192 19 92 192 19 92 192
19 92 192 19 92 192 19 92 192 19 92 192
19 92 192 19 92 192 19 92 192 19 92 192
19 92 192 19 92 192 19 92 192 19 92 192
19 92 192 19 92 192 19 92 192 19 92 192
19 92 192 19 92 192 82 119 169 82 119 169
82 119 169 82 119 169 83 119 169 83 119 169
83 119 169 100 100 109 97 99 108 117 112 114
147 130 123 83 119 169 83 119 169 83 119 169
83 119 170 83 119 170 83 120 170 83 120 170
83 120 170 83 120 170 84 120 170 84 120 170
84 120 170 84 120 170 84 120 170 84 120 170
84 120 170 84 120 170 84 120 171 84 120 171
84 121 171 84 121 171 84 121 171 85 121 171
85 121 171 85 121 171 153 189 240 85 121 171
85 121 171 85 121 171 85 121 172 85 121 172
85 122 172 85 122 172 86 122 172 86 122 172
86 122 172 86 122 172 86 122 172 86 122 172
86 122 173 86 122 173 86 123 173 86 123 173
87 123 173 87 123 173 87 123 173 87 123 173
87 123 173 87 123 173 87 123 174 87 124 174
87 124 174 88 124 174 88 124 174 88 124 174
88 124 174 88 124 174 88 124 175 88 124 175
88 125 175 89 125 175 89 125 175 157 193 244
157 194 244 157 194 244 158 194 244 158 194 244
158 194 244 158 194 244 158 194 245 158 194 245
158 195 245 159 195 245 159 195 245 159 195 245
159 195 245 159 195 245 159 195 246 159 196 246
159 196 246 91 127 178 91 127 178 91 128 178
92 128 178 92 128 178 92 128 178 92 128 178
92 128 179 92 128 179 92 129 179 93 129 179
93 129 179 93 129 179 93 129 179 93 129 180
93 130 180 93 130 180 94 130 180 94 130 180
162 199 249 163 199 249 163 199 249 163 199 249
163 199 249 163 199 250 163 200 250 163 200 250
164 200 250 164 200 250 164 200 250 164 200 250
164 200 251 164 201 251 165 201 251 165 201 251
165 201 251 165 201 251 165 201 252 165 202 252
165 202 252 166 202 252 166 202 252 166 202 252
166 202 252 166 202 253 166 203 253 167 203 253
167 203 253 167 203 253 167 203 253 167 203 253
167 203 254 167 204 254 168 204 254 168 204 254
19 92 192 19 92 192 19 92 192 19 92 192
19 92 192 19 92 192 19 92 192 19 92 192
19 92 192 19 92 192 19 92 192 19 92 192
19 92 192 19 92 192 19 92 192 19 92 192
19 92 192 19 92 192 19 92 192 19 92 192
19 92 192 19 92 192 19 92 192 19 92 192
19 92 192 19 92 192 19 92 192 19 92 192
19 92 192 19 92 192 19 92 192 19 92 192
19 92 192 19 92 192 19 92 192 19 92 192
19 92 192 19 92 192 19 92 192 19 92 192
19 92 192 19 92 192 19 92 192 19 92 192
19 92 192 19 92 192 19 92 192 19 92 192
19 92 192 19 92 192 19 92 192 19 92 192
19 92 192 19 92 192 19 92 192 19 92 192
19 92 192 19 92 192 19 92 192 19 92 192
19 92 192 19 92 192 19 92 192 19 92 192
19 92 192 19 92 192 19 92 192 19 92 192
19 92 192 19 92 192 19 92 192 19 92 192
19 92 192 19 92 192 19 92 192 19 92 192
19 92 192 19 92 192 19 92 192 19 92 192
19 92 192 19 92 192 19 92 192 19 92 192
19 92 192 19 92 192 19 92 192 19 92 192
19 92 192 19 92 192 19 92 192 19 92 192
19 92 192 19 92 192 19 92 192 19 92 192
19 92 192 19 92 192 19 92 192 19 92 192
19 92 192 19 92 192 19 92 192 19 92 192
19 92 192 19 92 192 19 92 192 19 92 192
19 92 192 19 92 192 83 119 169 83 119 169
83 119 169 83 119 169 83 119 169 83 119 169
83 119 169 83 119 169 83 119 169 83 119 169
83 119 170 83 119 170 83 119 170 83 120 170
83 120 170 83 120 170 84 120 170 84 120 170
84 120 170 84 120 170 84 120 170 84 120 170
84 120 170 84 120 170 84 120 171 84 120 171
84 120 171 84 121 171 84 121 171 84 121 171
85 121 171 85 121 171 85 121 171 85 121 171
85 121 171 153 190 240 153 190 240 85 121 172
85 121 172 85 122 172 85 122 172 86 122 172
86 122 172 86 122 172 86 122 172 86 122 172
86 122 172 86 122 173 86 122 173 86 123 173
86 123 173 87 123 173 87 123 173 87 123 173
87 123 173 87 123 173 87 123 173 87 123 174
87 124 174 87 124 174 88 124 174 88 124 174
88 124 174 88 124 174 88 124 174 88 124 174
88 124 175 88 125 175 88 125 175 89 125 175
89 125 175 89 125 175 89 125 175 89 125 175
158 194 244 158 194 244 158 194 244 158 194 244
158 194 245 158 195 245 158 195 245 159 195 245
159 195 245 159 195 245 159 195 245 159 195 246
159 196 246 159 196 246 160 196 246 91 127 178
91 128 178 91 128 178 92 128 178 92 128 178
92 128 178 92 128 178 92 128 179 92 129 179
92 129 179 93 129 179 93 129 179 93 129 179
93 129 179 93 129 180 93 130 180 93 130 180
94 130 180 94 130 180 94 130 180 94 130 180
94 130 181 163 199 249 163 199 250 163 200 250
163 200 250 164 200 250 164 200 250 164 200 250
164 200 250 164 200 251 164 201 251 165 201 251
165 201 251 165 201 251 165 201 251 165 201 252
165 201 252 165 202 252 166 202 252 166 202 252
166 202 252 166 202 252 166 202 253 166 203 253
166 203 253 167 203 253 167 203 253 167 203 253
167 203 253 167 203 254 167 204 254 168 204 254
168 204 254 168 204 254 19 92 192 19 92 192
19 92 192 19 92 192 19 92 192 19 92 192
19 92 192 19 92 192 19 92 192 19 92 192
19 92 192 19 92 192 19 92 192 19 92 192
19 92 192 19 92 192 19 92 192 19 92 192
19 92 192 19 92 192 19 92 192 19 92 192
19 92 192 19 92 192 19 92 192 19 92 192
19 92 192 19 92 192 19 92 192 19 92 192
19 92 192 19 92 192 19 92 192 19 92 192
19 92 192 19 92 192 19 92 192 19 92 192
19 92 192 19 92 192 19 92 192 19 92 192
19 92 192 19 92 192 19 92 192 19 92 192
19 92 192 19 92 192 19 92 192 19 92 192
19 92 192 19 92 192 19 92 192 19 92 192
19 92 192 19 92 192 19 92 192 19 92 192
19 92 192 19 92 192 19 92 192 19 92 192
19 92 192 19 92 192 19 92 192 19 92 192
19 92 192 19 92 192 19 92 192 19 92 192
19 92 192 19 92 192 19 92 192 19 92 192
19 92 192 19 92 192 19 92 192 19 92 192
19 92 192 19 92 192 19 92 192 19 92 192
19 92 192 19 92 192 19 92 192 19 92 192
19 92 192 19 92 192 19 92 192 19 92 192
19 92 192 19 92 192 19 92 192 19 92 192
19 92 192 19 92 192 19 92 192 19 92 192
19 92 192 19 92 192 19 92 192 19 92 192
19 92 192 19 92 192 19 92 192 19 92 192
19 92 192 19 92 192 19 92 192 19 92 192
19 92 192 19 92 192 19 92 192 83 119 169
83 119 169 83 119 169 83 119 169 83 119 169
83 119 170 83 119 170 83 119 170 83 120 170
83 120 170 83 120 170 84 120 170 84 120 170
84 120 170 84 120 170 84 120 170 84 120 170
84 120 170 84 120 170 84 120 170 84 120 171
84 120 171 84 121 171 84 121 171 84 121 171
85 121 171 85 121 171 85 121 171 85 121 171
85 121 171 85 121 171 85 121 171 153 190 240
154 190 240 154 190 240 154 190 240 154 190 240
86 122 172 86 122 172 86 122 172 86 122 172
86 122 172 86 122 172 86 122 173 86 122 173
86 123 173 86 123 173 87 123 173 87 123 173
87 123 173 87 123 173 87 123 173 87 123 173
87 123 174 87 123 174 87 124 174 87 124 174
88 124 174 88 124 174 88 124 174 88 124 174
88 124 174 88 124 175 88 124 175 88 125 175
89 125 175 89 125 175 89 125 175 89 125 175
89 125 175 89 125 176 89 125 176 89 126 176
89 126 176 158 194 245 158 195 245 158 195 245
159 195 245 159 195 245 159 195 245 159 195 245
159 195 246 159 195 246 159 196 246 160 196 246
160 196 246 160 196 246 91 128 178 92 128 178
92 128 178 92 128 178 92 128 178 92 128 178
92 128 179 92 129 179 93 129 179 93 129 179
93 129 179 93 129 179 93 129 179 93 129 180
93 130 180 94 130 180 94 130 180 94 130 180
94 130 180 94 130 181 94 131 181 94 131 181
95 131 181 95 131 181 164 200 250 164 200 250
164 200 250 164 200 250 164 200 251 164 201 251
164 201 251 165 201 251 165 201 251 165 201 251
165 201 251 165 201 252 165 202 252 166 202 252
166 202 252 166 202 252 166 202 252 166 202 253
166 203 253 166 203 253 167 203 253 167 203 253
167 203 253 167 203 253 167 203 254 167 204 254
168 204 254 168 204 254 168 204 254 168 204 254
19 92 192 19 92 192 19 92 192 19 92 192
19 92 192 19 92 192 19 92 192 19 92 192
19 92 192 19 92 192 19 92 192 19 92 192
19 92 192 19 92 192 19 92 192 19 92 192
19 92 192 19 92 192 19 92 192 19 92 192
19 92 192 19 92 192 19 92 192 19 92 192
19 92 192 19 92 192 19 92 192 19 92 192
19 92 192 19 92 192 19 92 192 19 92 192
19 92 192 19 92 192 19 92 192 19 92 192
19 92 192 19 92 192 19 92 192 19 92 192
19 92 192 19 92 192 19 92 192 19 92 192
19 92 192 19 92 192 19 92 192 19 92 192
19 92 192 19 92 192 19 92 192 19 92 192
19 92 192 19 92 192 19 92 192 19 92 192
19 92 192 19 92 192 19 92 192 19 92 192
19 92 192 19 92 192 19 92 192 19 92 192
19 92 192 19 92 192 19 92 192 19 92 192
19 92 192 19 92 192 19 92 192 19 92 192
19 92 192 19 92 192 19 92 192 19 92 192
19 92 192 19 92 192 19 92 192 19 92 192
19 92 192 19 92 192 19 92 192 19 92 192
19 92 192 19 92 192 19 92 192 19 92 192
19 92 192 19 92 192 19 92 192 19 92 192
19 92 192 19 92 192 19 92 192 19 92 192
19 92 192 19 92 192 19 92 192 19 92 192
19 92 192 19 92 192 19 92 192 19 92 192
19 92 192 19 92 192 19 92 192 19 92 192
19 92 192 19 92 192 19 92 192 19 92 192
19 92 192 19 92 192 19 92 192 83 119 170
83 119 170 83 119 170 83 120 170 83 120 170
83 120 170 83 120 170 84 120 170 84 120 170
84 120 170 84 120 170 84 120 170 84 120 170
84 120 170 84 120 170 84 120 170 84 120 171
84 120 171 84 120 171 84 121 171 84 121 171
84 121 171 85 121 171 85 121 171 85 121 171
85 121 171 85 121 171 85 121 171 85 121 171
85 121 172 154 190 240 154 190 240 154 190 240
154 190 240 154 190 240 154 190 240 154 190 241
86 122 172 86 122 172 86 122 172 86 122 173
86 122 173 86 123 173 86 123 173 86 123 173
87 123 173 87 123 173 87 123 173 87 123 173
87 123 173 87 123 174 87 123 174 87 124 174
87 124 174 88 124 174 88 124 174 88 124 174
88 124 174 88 124 174 88 124 175 88 124 175
88 125 175 88 125 175 89 125 175 89 125 175
89 125 175 89 125 175 89 125 175 89 125 176
89 126 176 89 126 176 90 126 176 90 126 176
90 126 176 159 195 245 159 195 245 159 195 245
159 195 245 159 195 245 159 195 246 159 196 246
159 196 246 160 196 246 160 196 246 160 196 246
91 128 178 92 128 178 92 128 178 92 128 178
92 128 178 92 128 179 92 128 179 92 129 179
93 129 179 93 129 179 93 129 179 93 129 179
93 129 180 93 130 180 93 130 180 94 130 180
94 130 180 94 130 180 94 130 180 94 130 181
94 131 181 94 131 181 95 131 181 95 131 181
95 131 181 95 131 181 164 200 250 164 200 250
164 200 251 164 201 251 165 201 251 165 201 251
165 201 251 165 201 251 165 201 252 165 202 252
165 202 252 166 202 252 166 202 252 166 202 252
166 202 252 166 202 253 166 203 253 167 203 253
167 203 253 167 203 253 167 203 253 167 203 254
167 204 254 167 204 254 168 204 254 168 204 254
168 204 254 168 204 254 168 204 255 19 92 192
19 92 192 19 92 192 19 92 192 19 92 192
19 92 192 19 92 192 19 92 192 19 92 192
19 92 192 19 92 192 19 92 192 19 92 192
19 92 192 19 92 192 19 92 192 19 92 192
19 92 192 19 92 192 19 92 192 19 92 192
19 92 192 19 92 192 19 92 192 19 92 192
19 92 192 19 92 192 19 92 192 19 92 192
19 92 192 19 92 192 19 92 192 19 92 192
19 92 192 19 92 192 19 92 192 19 92 192
19 92 192 19 92 192 19 92 192 19 92 192
19 92 192 19 92 192 19 92 192 19 92 192
19 92 192 19 92 192 19 92 192 19 92 192
19 92 192 19 92 192 19 92 192 19 92 192
19 92 192 19 92 192 19 92 192 19 92 192
19 92 192 19 92 192 19 92 192 19 92 192
19 92 192 19 92 192 19 92 192 19 92 192
19 92 192 19 92 192 19 92 192 19 92 192
19 92 192 19 92 192 19 92 192 19 92 192
19 92 192 19 92 192 19 92 192 19 92 192
19 92 192 19 92 192 19 92 192 19 92 192
19 92 192 19 92 192 19 92 192 19 92 192
19 92 192 19 92 192 19 92 192 19 92 192
19 92 192 19 92 192 19 92 192 19 92 192
19 92 192 19 92 192 19 92 192 19 92 192
19 92 192 19 92 192 19 92 192 19 92 192
19 92 192 19 92 192 19 92 192 19 92 192
19 92 192 19 92 192 19 92 192 19 92 192
19 92 192 19 92 192 19 92 192 19 92 192
19 92 192 19 92 192 19 92 192 19 92 192
83 120 170 83 120 170 84 120 170 84 120 170
84 120 170 84 120 170 84 120 170 84 120 170
84 120 170 84 120 170 84 120 170 84 120 171
84 120 171 84 120 171 84 121 171 84 121 171
84 121 171 85 121 171 85 121 171 85 121 171
85 121 171 85 121 171 85 121 171 85 121 171
85 121 171 85 121 172 85 121 172 154 190 240
154 190 240 154 190 240 154 190 240 154 190 241
154 190 241 154 191 241 154 191 241 155 191 241
155 191 241 86 122 173 86 123 173 86 123 173
86 123 173 87 123 173 87 123 173 87 123 173
87 123 173 87 123 173 87 123 173 87 123 174
87 124 174 87 124 174 88 124 174 88 124 174
88 124 174 88 124 174 88 124 174 88 124 174
88 124 175 88 125 175 88 125 175 89 125 175
89 125 175 89 125 175 89 125 175 89 125 175
89 125 176 89 125 176 89 126 176 89 126 176
90 126 176 90 126 176 90 126 176 90 126 176
90 126 177 90 126 177 159 195 245 159 195 246
159 196 246 159 196 246 160 196 246 160 196 246
160 196 246 160 196 246 91 128 178 92 128 178
92 128 178 92 128 178 92 128 178 92 128 179
92 129 179 92 129 179 93 129 179 93 129 179
93 129 179 93 129 179 93 129 180 93 130 180
93 130 180 94 130 180 94 130 180 94 130 180
94 130 180 94 130 181 94 131 181 95 131 181
95 131 181 95 131 181 95 131 181 95 131 182
95 132 182 95 132 182 96 132 182 164 201 251
165 201 251 165 201 251 165 201 251 165 201 252
165 201 252 165 202 252 166 202 252 166 202 252
166 202 252 166 202 252 166 202 253 166 203 253
167 203 253 167 203 253 167 203 253 167 203 253
167 203 254 167 204 254 167 204 254 168 204 254
168 204 254 168 204 254 168 204 254 168 204 255
168 205 255 19 92 192 19 92 192 19 92 192
19 92 192 19 92 192 19 92 192 19 92 192
19 92 192 19 92 192 19 92 192 19 92 192
19 92 192 19 92 192 19 92 192 19 92 192
19 92 192 19 92 192 19 92 192 19 92 192
19 92 192 19 92 192 19 92 192 19 92 192
19 92 192 19 92 192 19 92 192 19 92 192
19 92 192 19 92 192 19 92 192 19 92 192
19 92 192 19 92 192 19 92 192 19 92 192
19 92 192 19 92 192 19 92 192 19 92 192
19 92 192 19 92 192 19 92 192 19 92 192
19 92 192 19 92 192 19 92 192 19 92 192
19 92 192 19 92 192 19 92 192 19 92 192
19 92 192 19 92 192 19 92 192 19 92 192
19 92 192 19 92 192 19 92 192 19 92 192
19 92 192 19 92 192 19 92 192 19 92 192
19 92 192 19 92 192 19 92 192 19 92 192
19 92 192 19 92 192 19 92 192 19 92 192
19 92 192 19 92 192 19 92 192 19 92 192
19 92 192 19 92 192 19 92 192 19 92 192
19 92 192 19 92 192 19 92 192 19 92 192
19 92 192 19 92 192 19 92 192 19 92 192
19 92 192 19 92 192 19 92 192 19 92 192
19 92 192 19 92 192 19 92 192 19 92 192
19 92 192 19 92 192 19 92 192 19 92 192
19 92 192 19 92 192 19 92 192 19 92 192
19 92 192 19 92 192 19 92 192 19 92 192
19 92 192 19 92 192 19 92 192 19 92 192
19 92 192 19 92 192 19 92 192 19 92 192
19 92 192 19 92 192 19 92 192 19 92 192
84 120 170 84 120 170 84 120 170 84 120 170
84 120 170 84 120 170 84 120 170 84 120 171
84 120 171 84 120 171 84 121 171 84 121 171
84 121 171 85 121 171 85 121 171 85 121 171
85 121 171 85 121 171 85 121 171 85 121 171
85 121 171 85 121 172 85 121 172 85 121 172
85 122 172 154 190 240 154 190 240 154 190 241
154 190 241 154 191 241 154 191 241 154 191 241
155 191 241 155 191 241 155 191 241 155 191 241
155 191 241 155 191 241 87 123 173 87 123 173
87 123 173 87 123 173 87 123 173 87 123 173
87 123 174 87 124 174 87 124 174 87 124 174
88 124 174 88 124 174 88 124 174 88 124 174
88 124 174 88 124 175 88 124 175 88 125 175
88 125 175 89 125 175 89 125 175 89 125 175
89 125 175 89 125 175 89 125 176 89 126 176
89 126 176 90 126 176 90 126 176 90 126 176
90 126 176 90 126 176 90 126 177 90 127 177
90 127 177 91 127 177 91 127 177 160 196 246
160 196 246 160 196 246 160 196 246 160 196 246
92 128 178 92 128 178 92 128 178 92 128 178
92 128 178 92 128 179 92 129 179 93 129 179
93 129 179 93 129 179 93 129 179 93 129 179
93 129 180 93 130 180 94 130 180 94 130 180
94 130 180 94 130 180 94 130 181 94 131 181
94 131 181 95 131 181 95 131 181 95 131 181
95 131 181 95 131 182 95 132 182 95 132 182
96 132 182 96 132 182 96 132 182 96 132 183
165 201 251 165 201 252 165 202 252 166 202 252
166 202 252 166 202 252 166 202 252 166 202 253
166 203 253 166 203 253 167 203 253 167 203 253
167 203 253 167 203 253 167 203 254 167 204 254
168 204 254 168 204 254 168 204 254 168 204 254
168 204 255 168 205 255 168 205 255 19 92 192
19 92 192 19 92 192 19 92 192 19 92 192
19 92 192 19 92 192 19 92 192 19 92 192
19 92 192 19 92 192 19 92 192 19 92 192
19 92 192 19 92 192 19 92 192 19 92 192
19 92 192 19 92 192 19 92 192 19 92 192
19 92 192 19 92 192 19 92 192 19 92 192
19 92 192 19 92 192 19 92 192 19 92 192
19 92 192 19 92 192 19 92 192 19 92 192
19 92 192 19 92 192 19 92 192 19 92 192
19 92 192 19 92 192 19 92 192 19 92 192
19 92 192 19 92 192 19 92 192 19 92 192
19 92 192 19 92 192 19 92 192 19 92 192
19 92 192 19 92 192 19 92 192 19 92 192
19 92 192 19 92 192 19 92 192 19 92 192
19 92 192 19 92 192 19 92 192 19 92 192
19 92 192 19 92 192 19 92 192 19 92 192
19 92 192 19 92 192 19 92 192 19 92 192
19 92 192 19 92 192 19 92 192 19 92 192
19 92 192 19 92 192 19 92 192 19 92 192
19 92 192 19 92 192 19 92 192 19 92 192
19 92 192 19 92 192 19 92 192 19 92 192
19 92 192 19 92 192 19 92 192 19 92 192
19 92 192 19 92 192 19 92 192 19 92 192
19 92 192 19 92 192 19 92 192 19 92 192
19 92 192 19 92 192 19 92 192 19 92 192
19 92 192 19 92 192 19 92 192 19 92 192
19 92 192 19 92 192 19 92 192 19 92 192
19 92 192 19 92 192 19 92 192 19 92 192
19 92 192 19 92 192 19 92 192 19 92 192
19 92 192 19 92 192 19 92 192 19 92 192
19 92 192 84 120 170 84 120 170 84 120 171
84 120 171 84 120 171 84 121 171 84 121 171
84 121 171 85 121 171 85 121 171 85 121 171
85 121 171 85 121 171 85 121 171 85 121 171
85 121 171 85 121 171 85 121 172 85 121 172
85 122 172 85 122 172 85 122 172 154 190 240
154 190 241 154 190 241 154 191 241 154 191 241
155 191 241 155 191 241 155 191 241 155 191 241
155 191 241 155 191 241 155 191 241 155 191 242
155 192 242 155 192 242 87 123 173 87 123 173
87 123 173 87 123 174 87 123 174 87 124 174
87 124 174 88 124 174 88 124 174 88 124 174
88 124 174 88 124 174 88 124 175 88 124 175
88 125 175 88 125 175 89 125 175 89 125 175
89 125 175 89 125 175 89 125 175 89 125 176
89 125 176 89 126 176 90 126 176 90 126 176
90 126 176 90 126 176 90 126 176 90 126 177
90 126 177 90 127 177 91 127 177 91 127 177
91 127 177 91 127 177 91 127 177 91 127 178
160 196 246 160 196 247 92 128 178 92 128 178
92 128 178 92 128 178 92 128 179 92 129 179
92 129 179 93 129 179 93 129 179 93 129 179
93 129 179 93 129 180 93 130 180 93 130 180
94 130 180 94 130 180 94 130 180 94 130 180
94 130 181 94 131 181 94 131 181 95 131 181
95 131 181 95 131 181 95 131 181 95 131 182
95 132 182 96 132 182 96 132 182 96 132 182
96 132 182 96 132 183 96 133 183 96 133 183
97 133 183 166 202 252 166 202 252 166 202 252
166 202 252 166 202 253 166 203 253 167 203 253
167 203 253 167 203 253 167 203 253 167 203 254
167 204 254 167 204 254 168 204 254 168 204 254
168 204 254 168 204 255 168 205 255 168 205 255
169 205 255 169 205 255 19 92 192 19 92 192
19 92 192 19 92 192 19 92 192 19 92 192
19 92 192 19 92 192 19 92 192 19 92 192
19 92 192 19 92 192 19 92 192 19 92 192
19 92 192 19 92 192 19 92 192 19 92 192
19 92 192 19 92 192 19 92 192 19 92 192
19 92 192 19 92 192 19 92 192 19 92 192
19 92 192 19 92 192 19 92 192 19 92 192
19 92 192 19 92 192 19 92 192 19 92 192
19 92 192 19 92 192 19 92 192 19 92 192
19 92 192 19 92 192 19 92 192 19 92 192
19 92 192 19 92 192 19 92 192 19 92 192
19 92 192 19 92 192 19 92 192 19 92 192
19 92 192 19 92 192 19 92 192 19 92 192
19 92 192 19 92 192 19 92 192 19 92 192
19 92 192 19 92 192 19 92 192 19 92 192
19 92 192 19 92 192 19 92 192 19 92 192
19 92 192 19 92 192 19 92 192 19 92 192
19 92 192 19 92 192 19 92 192 19 92 192
19 92 192 19 92 192 19 92 192 19 92 192
19 92 192 19 92 192 19 92 192 19 92 192
19 92 192 19 92 192 19 92 192 19 92 192
19 92 192 19 92 192 19 92 192 19 92 192
19 92 192 19 92 192 19 92 192 19 92 192
19 92 192 19 92 192 19 92 192 19 92 192
19 92 192 19 92 192 19 92 192 19 92 192
19 92 192 19 92 192 19 92 192 19 92 192
19 92 192 19 92 192 19 92 192 19 92 192
19 92 192 19 92 192 19 92 192 19 92 192
19 92 192 19 92 192 19 92 192 19 92 192
19 92 192 19 92 192 19 92 192 19 92 192
19 92 192 84 120 171 84 121 171 84 121 171
84 121 171 85 121 171 85 121 171 85 121 171
85 121 171 85 121 171 85 121 171 85 121 171
85 121 171 85 121 171 85 121 172 85 121 172
85 121 172 85 122 172 85 122 172 86 122 172
86 122 172 154 190 241 154 191 241 154 191 241
154 191 241 155 191 241 155 191 241 155 191 241
155 191 241 155 191 241 155 191 241 155 191 242
155 191 242 155 192 242 155 192 242 156 192 242
156 192 242 156 192 242 156 192 242 87 123 174
87 124 174 87 124 174 88 124 174 88 124 174
88 124 174 88 124 174 88 124 174 88 124 174
88 124 175 88 125 175 88 125 175 89 125 175
89 125 175 89 125 175 89 125 175 89 125 175
89 125 175 89 125 176 89 126 176 89 126 176
90 126 176 90 126 176 90 126 176 90 126 176
90 126 176 90 126 177 90 127 177 90 127 177
91 127 177 91 127 177 91 127 177 91 127 177
91 127 178 91 127 178 91 128 178 92 128 178
92 128 178 92 128 178 92 128 178 92 128 178
92 128 179 92 129 179 92 129 179 93 129 179
93 129 179 93 129 179 93 129 179 93 129 180
93 130 180 93 130 180 94 130 180 94 130 180
94 130 180 94 130 180 94 130 181 94 131 181
95 131 181 95 131 181 95 131 181 95 131 181
95 131 182 95 132 182 95 132 182 96 132 182
96 132 182 96 132 182 96 132 182 96 132 183
96 133 183 97 133 183 97 133 183 97 133 183
97 133 183 97 133 184 166 202 253 166 203 253
166 203 253 167 203 253 167 203 253 167 203 253
167 203 254 167 204 254 167 204 254 168 204 254
168 204 254 168 204 254 168 204 254 168 204 255
168 205 255 169 205 255 169 205 255 169 205 255
19 92 192 19 92 192 19 92 192 19 92 192
19 92 192 19 92 192 19 92 192 19 92 192
19 92 192 19 92 192 19 92 192 19 92 192
19 92 192 19 92 192 19 92 192 19 92 192
19 92 192 19 92 192 19 92 192 19 92 192
19 92 192 19 92 192 19 92 192 19 92 192
19 92 192 19 92 192 19 92 192 19 92 192
19 92 192 19 92 192 19 92 192 19 92 192
19 92 192 19 92 192 19 92 192 19 92 192
19 92 192 19 92 192 19 92 192 19 92 192
19 92 192 19 92 192 19 92 192 19 92 192
19 92 192 19 92 192 19 92 192 19 92 192
19 92 192 19 92 192 19 92 192 19 92 192
19 92 192 19 92 192 19 92 192 19 92 192
19 92 192 19 92 192 19 92 192 19 92 192
19 92 192 19 92 192 19 92 192 19 92 192
19 92 192 19 92 192 19 92 192 19 92 192
19 92 192 19 92 192 19 92 192 19 92 192
19 92 192 19 92 192 19 92 192 19 92 192
19 92 192 19 92 192 19 92 192 19 92 192
19 92 192 19 92 192 19 92 192 19 92 192
19 92 192 19 92 192 19 92 192 19 92 192
19 92 192 19 92 192 19 92 192 19 92 192
19 92 192 19 92 192 19 92 192 19 92 192
19 92 192 19 92 192 19 92 192 19 92 192
19 92 192 19 92 192 19 92 192 19 92 192
19 92 192 19 92 192 19 92 192 19 92 192
19 92 192 19 92 192 19 92 192 19 92 192
19 92 192 19 92 192 19 92 192 19 92 192
19 92 192 19 92 192 19 92 192 19 92 192
19 92 192 19 92 192 19 92 192 19 92 192
19 92 192 19 92 192 85 121 171 85 121 171
85 121 171 85 121 171 85 121 171 85 121 171
85 121 171 85 121 171 85 121 172 85 121 172
85 121 172 85 122 172 85 122 172 85 122 172
86 122 172 86 122 172 86 122 172 154 191 241
154 191 241 155 191 241 155 191 241 155 191 241
155 191 241 155 191 241 155 191 241 155 191 241
155 191 242 155 192 242 155 192 242 155 192 242
156 192 242 156 192 242 156 192 242 156 192 242
156 192 242 156 192 242 156 192 243 88 124 174
88 124 174 88 124 174 88 124 174 88 124 174
88 124 174 88 124 175 88 125 175 88 125 175
89 125 175 89 125 175 89 125 175 89 125 175
89 125 175 89 125 175 89 125 176 89 126 176
89 126 176 90 126 176 90 126 176 90 126 176
90 126 176 90 126 176 90 126 177 90 126 177
90 127 177 91 127 177 91 127 177 91 127 177
91 127 177 91 127 177 91 127 178 91 128 178
91 128 178 92 128 178 161 197 247 161 197 247
161 197 247 92 128 179 92 128 179 92 129 179
93 129 179 93 129 179 93 129 179 93 129 179
93 129 180 93 129 180 93 130 180 94 130 180
94 130 180 94 130 180 94 130 180 94 130 181
94 131 181 94 131 181 95 131 181 95 131 181
95 131 181 95 131 181 95 131 182 95 132 182
95 132 182 96 132 182 96 132 182 96 132 182
96 132 183 96 132 183 96 133 183 97 133 183
97 133 183 97 133 183 97 133 183 97 133 184
97 134 184 98 134 184 98 134 184 167 203 253
167 203 253 167 203 253 167 203 254 167 204 254
168 204 254 168 204 254 168 204 254 168 204 254
168 204 255 168 205 255 168 205 255 169 205 255
169 205 255 169 205 255 19 92 192 19 92 192
19 92 192 19 92 192 19 92 192 19 92 192
19 92 192 19 92 192 19 92 192 19 92 192
19 92 192 19 92 192 19 92 192 19 92 192
19 92 192 19 92 192 19 92 192 19 92 192
19 92 192 19 92 192 19 92 192 19 92 192
19 92 192 19 92 192 19 92 192 19 92 192
19 92 192 19 92 192 19 92 192 19 92 192
19 92 192 19 92 192 19 92 192 19 92 192
19 92 192 19 92 192 19 92 192 19 92 192
19 92 192 19 92 192 19 92 192 19 92 192
19 92 192 19 92 192 19 92 192 19 92 192
19 92 192 19 92 192 19 92 192 19 92 192
19 92 192 19 92 192 19 92 192 19 92 192
19 92 192 19 92 192 19 92 192 19 92 192
19 92 192 19 92 192 19 92 192 19 92 192
19 92 192 19 92 192 19 92 192 19 92 192
19 92 192 19 92 192 19 92 192 19 92 192
19 92 192 19 92 192 19 92 192 19 92 192
19 92 192 19 92 192 19 92 192 19 92 192
19 92 192 19 92 192 19 92 192 19 92 192
19 92 192 19 92 192 19 92 192 19 92 192
19 92 192 19 92 192 19 92 192 19 92 192
19 92 192 19 92 192 19 92 192 19 92 192
19 92 192 19 92 192 19 92 192 19 92 192
19 92 192 19 92 192 19 92 192 19 92 192
19 92 192 19 92 192 19 92 192 19 92 192
19 92 192 19 92 192 19 92 192 19 92 192
19 92 192 19 92 192 19 92 192 19 92 192
19 92 192 19 92 192 19 92 192 19 92 192
19 92 192 19 92 192 19 92 192 19 92 192
19 92 192 19 92 192 19 92 192 19 92 192
19 92 192 19 92 192 85 121 171 85 121 171
85 121 171 85 121 171 85 121 172 85 121 172
85 121 172 85 122 172 85 122 172 85 122 172
86 122 172 86 122 172 86 122 172 86 122 172
154 191 241 155 191 241 155 191 241 155 191 241
155 191 241 155 191 241 155 191 241 155 191 241
155 191 242 155 191 242 155 192 242 155 192 242
156 192 242 156 192 242 156 192 242 156 192 242
156 192 242 156 192 242 156 192 243 156 192 243
156 193 243 156 193 243 157 193 243 157 193 243
88 124 174 88 124 174 88 124 175 88 124 175
88 125 175 88 125 175 89 125 175 89 125 175
89 125 175 89 125 175 89 125 175 89 125 176
89 125 176 89 126 176 89 126 176 90 126 176
90 126 176 90 126 176 90 126 176 90 126 176
90 126 177 90 127 177 90 127 177 91 127 177
91 127 177 91 127 177 91 127 177 91 127 177
91 127 178 91 128 178 91 128 178 92 128 178
92 128 178 161 197 247 161 197 247 161 197 247
161 197 248 161 198 248 93 129 179 93 129 179
93 129 179 93 129 179 93 129 180 93 130 180
93 130 180 94 130 180 94 130 180 94 130 180
94 130 180 94 130 181 94 131 181 94 131 181
95 131 181 95 131 181 95 131 181 95 131 181
95 131 182 95 132 182 96 132 182 96 132 182
96 132 182 96 132 182 96 132 183 96 133 183
96 133 183 97 133 183 97 133 183 97 133 183
97 133 184 97 133 184 97 134 184 98 134 184
98 134 184 98 134 184 98 134 184 98 134 185
167 204 254 167 204 254 168 204 254 168 204 254
168 204 254 168 204 255 168 205 255 168 205 255
169 205 255 169 205 255 169 205 255 169 205 255
169 205 255 19 92 192 19 92 192 19 92 192
19 92 192 19 92 192 19 92 192 19 92 192
19 92 192 19 92 192 19 92 192 19 92 192
19 92 192 19 92 192 19 92 192 19 92 192
19 92 192 19 92 192 19 92 192 19 92 192
19 92 192 19 92 192 19 92 192 19 92 192
19 92 192 19 92 192 19 92 192 19 92 192
19 92 192 19 92 192 19 92 192 19 92 192
19 92 192 19 92 192 19 92 192 19 92 192
19 92 192 19 92 192 19 92 192 19 92 192
19 92 192 19 92 192 19 92 192 19 92 192
19 92 192 19 92 192 19 92 192 19 92 192
19 92 192 19 92 192 19 92 192 19 92 192
19 92 192 19 92 192 19 92 192 19 92 192
19 92 192 19 92 192 19 92 192 19 92 192
19 92 192 19 92 192 19 92 192 19 92 192
19 92 192 19 92 192 19 92 192 19 92 192
19 92 192 19 92 192 19 92 192 19 92 192
19 92 192 19 92 192 19 92 192 19 92 192
19 92 192 19 92 192 19 92 192 19 92 192
19 92 192 19 92 192 19 92 192 19 92 192
19 92 192 19 92 192 19 92 192 19 92 192
19 92 192 19 92 192 19 92 192 19 92 192
19 92 192 19 92 192 19 92 192 19 92 192
19 92 192 19 92 192 19 92 192 19 92 192
19 92 192 19 92 192 19 92 192 19 92 192
19 92 192 19 92 192 19 92 192 19 92 192
19 92 192 19 92 192 19 92 192 19 92 192
19 92 192 19 92 192 19 92 192 19 92 192
19 92 192 19 92 192 19 92 192 19 92 192
19 92 192 19 92 192 19 92 192 19 92 192
19 92 192 19 92 192 19 92 192 19 92 192
19 92 192 19 92 192 19 92 192 85 121 172
85 121 172 85 122 172 85 122 172 85 122 172
86 122 172 86 122 172 86 122 172 86 122 172
86 122 172 86 122 172 155 191 241 155 191 241
155 191 241 155 191 241 155 191 241 155 191 241
155 191 242 155 191 242 155 192 242 155 192 242
156 192 242 156 192 242 156 192 242 156 192 242
156 192 242 156 192 242 156 192 242 156 192 243
156 192 243 156 193 243 156 193 243 157 193 243
157 193 243 157 193 243 157 193 243 157 193 243
157 193 243 88 125 175 88 125 175 89 125 175
89 125 175 89 125 175 89 125 175 89 125 175
89 125 176 89 125 176 89 126 176 89 126 176
90 126 176 90 126 176 90 126 176 90 126 176
90 126 176 90 126 177 90 127 177 90 127 177
91 127 177 91 127 177 91 127 177 91 127 177
91 127 177 91 127 178 91 128 178 91 128 178
92 128 178 92 128 178 92 128 178 161 197 247
161 197 247 161 197 248 161 197 248 161 198 248
162 198 248 162 198 248 162 198 248 93 129 179
93 129 180 93 130 180 93 130 180 94 130 180
94 130 180 94 130 180 94 130 180 94 130 181
94 131 181 95 131 181 95 131 181 95 131 181
95 131 181 95 131 182 95 132 182 95 132 182
96 132 182 96 132 182 96 132 182 96 132 182
96 132 183 96 133 183 97 133 183 97 133 183
97 133 183 97 133 183 97 133 184 97 134 184
97 134 184 98 134 184 98 134 184 98 134 184
98 134 185 98 134 185 98 135 185 99 135 185
99 135 185 168 204 254 168 204 254 168 204 255
168 205 255 169 205 255 169 205 255 169 205 255
169 205 255 169 205 255 169 206 255 19 92 192
19 92 192 19 92 192 19 92 192 19 92 192
19 92 192 19 92 192 19 92 192 19 92 192
19 92 192 19 92 192 19 92 192 19 92 192
19 92 192 19 92 192 19 92 192 19 92 192
19 92 192 19 92 192 19 92 192 19 92 192
19 92 192 19 92 192 19 92 192 19 92 192
19 92 192 19 92 192 19 92 192 19 92 192
19 92 192 19 92 192 19 92 192 19 92 192
19 92 192 19 92 192 19 92 192 19 92 192
19 92 192 19 92 192 19 92 192 19 92 192
19 92 192 19 92 192 19 92 192 19 92 192
19 92 192 19 92 192 19 92 192 19 92 192
19 92 192 19 92 192 19 92 192 19 92 192
19 92 192 19 92 192 19 92 192 19 92 192
19 92 192 19 92 192 19 92 192 19 92 192
19 92 192 19 92 192 19 92 192 19 92 192
19 92 192 19 92 192 19 92 192 19 92 192
19 92 192 19 92 192 19 92 192 19 92 192
19 92 192 19 92 192 19 92 192 19 92 192
19 92 192 19 92 192 19 92 192 19 92 192
19 92 192 19 92 192 19 92 192 19 92 192
19 92 192 19 92 192 19 92 192 19 92 192
19 92 192 19 92 192 19 92 192 19 92 192
19 92 192 19 92 192 19 92 192 19 92 192
19 92 192 19 92 192 19 92 192 19 92 192
19 92 192 19 92 192 19 92 192 19 92 192
19 92 192 19 92 192 19 92 192 19 92 192
19 92 192 19 92 192 19 92 192 19 92 192
19 92 192 19 92 192 19 92 192 19 92 192
19 92 192 19 92 192 19 92 192 19 92 192
19 92 192 19 92 192 19 92 192 19 92 192
19 92 192 19 92 192 19 92 192 19 92 192
19 92 192 19 92 192 19 92 192 85 122 172
86 122 172 86 122 172 86 122 172 86 122 172
86 122 172 86 122 172 86 122 172 86 122 172
155 191 241 155 191 241 155 191 241 155 191 241
155 191 242 155 191 242 155 192 242 155 192 242
155 192 242 156 192 242 156 192 242 156 192 242
156 192 242 156 192 242 156 192 242 156 192 243
156 192 243 156 193 243 156 193 243 156 193 243
157 193 243 157 193 243 157 193 243 157 193 243
157 193 243 157 193 244 157 193 244 157 194 244
157 194 244 89 125 175 89 125 175 89 125 175
89 125 175 89 125 176 89 125 176 89 126 176
89 126 176 90 126 176 90 126 176 90 126 176
90 126 176 90 126 176 90 126 177 90 126 177
90 127 177 90 127 177 91 127 177 91 127 177
91 127 177 91 127 177 91 127 178 91 127 178
91 128 178 91 128 178 92 128 178 92 128 178
92 128 178 161 197 247 161 197 247 161 197 248
161 198 248 162 198 248 162 198 248 162 198 248
162 198 248 162 198 248 162 198 249 162 199 249
94 130 180 94 130 180 94 130 180 94 130 180
94 130 181 94 131 181 94 131 181 95 131 181
95 131 181 95 131 181 95 131 181 95 131 182
95 132 182 95 132 182 96 132 182 96 132 182
96 132 182 96 132 183 96 132 183 96 133 183
97 133 183 97 133 183 97 133 183 97 133 183
97 133 184 97 134 184 98 134 184 98 134 184
98 134 184 98 134 184 98 134 185 98 135 185
98 135 185 99 135 185 99 135 185 99 135 185
99 135 186 99 136 186 168 205 255 169 205 255
169 205 255 169 205 255 169 205 255 169 206 255
169 206 255 19 92 192 19 92 192 19 92 192
19 92 192 19 92 192 19 92 192 19 92 192
19 92 192 19 92 192 19 92 192 19 92 192
19 92 192 19 92 192 19 92 192 19 92 192
19 92 192 19 92 192 19 92 192 19 92 192
19 92 192 19 92 192 19 92 192 19 92 192
19 92 192 19 92 192 19 92 192 19 92 192
19 92 192 19 92 192 19 92 192 19 92 192
19 92 192 19 92 192 19 92 192 19 92 192
19 92 192 19 92 192 19 92 192 19 92 192
19 92 192 19 92 192 19 92 192 19 92 192
19 92 192 19 92 192 19 92 192 19 92 192
19 92 192 19 92 192 19 92 192 19 92 192
19 92 192 19 92 192 19 92 192 19 92 192
19 92 192 19 92 192 19 92 192 19 92 192
19 92 192 19 92 192 19 92 192 19 92 192
19 92 192 19 92 192 19 92 192 19 92 192
19 92 192 19 92 192 19 92 192 19 92 192
19 92 192 19 92 192 19 92 192 19 92 192
19 92 192 19 92 192 19 92 192 19 92 192
19 92 192 19 92 192 19 92 192 19 92 192
19 92 192 19 92 192 19 92 192 19 92 192
19 92 192 19 92 192 19 92 192 19 92 192
19 92 192 19 92 192 19 92 192 19 92 192
19 92 192 19 92 192 19 92 192 19 92 192
19 92 192 19 92 192 19 92 192 19 92 192
19 92 192 19 92 192 19 92 192 19 92 192
19 92 192 19 92 192 19 92 192 19 92 192
19 92 192 19 92 192 19 92 192 19 92 192
19 92 192 19 92 192 19 92 192 19 92 192
19 92 192 19 92 192 19 92 192 19 92 192
19 92 192 19 92 192 19 92 192 19 92 192
19 92 192 19 92 192 19 92 192 19 92 192
19 92 192 19 92 192 19 92 192 19 92 192
86 122 172 86 122 172 86 122 172 86 122 172
86 122 172 86 122 173 155 191 241 155 191 241
155 191 242 155 191 242 155 192 242 155 192 242
155 192 242 156 192 242 156 192 242 156 192 242
156 192 242 156 192 242 156 192 242 156 192 242
156 192 243 156 193 243 156 193 243 156 193 243
157 193 243 157 193 243 157 193 243 157 193 243
157 193 243 157 193 243 157 193 244 157 193 244
157 194 244 157 194 244 158 194 244 158 194 244
158 194 244 158 194 244 89 125 175 89 125 176
89 126 176 89 126 176 90 126 176 90 126 176
90 126 176 90 126 176 90 126 176 90 126 176
90 126 177 90 127 177 90 127 177 91 127 177
91 127 177 91 127 177 91 127 177 91 127 177
91 127 178 91 128 178 91 128 178 92 128 178
92 128 178 92 128 178 92 128 178 161 197 247
161 197 248 161 198 248 161 198 248 162 198 248
162 198 248 162 198 248 162 198 248 162 198 249
162 199 249 162 199 249 163 199 249 163 199 249
94 130 180 94 130 180 94 130 181 94 131 181
94 131 181 95 131 181 95 131 181 95 131 181
95 131 181 95 131 182 95 132 182 96 132 182
96 132 182 96 132 182 96 132 182 96 132 183
96 133 183 96 133 183 97 133 183 97 133 183
97 133 183 97 133 183 97 133 184 97 134 184
98 134 184 98 134 184 98 134 184 98 134 184
98 134 185 98 135 185 99 135 185 99 135 185
99 135 185 99 135 185 99 135 186 99 136 186
99 136 186 100 136 186 169 205 255 169 205 255
169 205 255 169 206 255 170 206 255 170 206 255
19 92 192 19 92 192 19 92 192 19 92 192
19 92 192 19 92 192 19 92 192 19 92 192
19 92 192 19 92 192 19 92 192 19 92 192
19 92 192 19 92 192 19 92 192 19 92 192
19 92 192 19 92 192 19 92 192 19 92 192
19 92 192 19 92 192 19 92 192 19 92 192
19 92 192 19 92 192 19 92 192 19 92 192
19 92 192 19 92 192 19 92 192 19 92 192
19 92 192 19 92 192 19 92 192 19 92 192
19 92 192 19 92 192 19 92 192 19 92 192
19 92 192 19 92 192 19 92 192 19 92 192
19 92 192 19 92 192 19 92 192 19 92 192
19 92 192 19 92 192 19 92 192 19 92 192
19 92 192 19 92 192 19 92 192 19 92 192
19 92 192 19 92 192 19 92 192 19 92 192
19 92 192 19 92 192 19 92 192 19 92 192
19 92 192 19 92 192 19 92 192 19 92 192
19 92 192 19 92 192 19 92 192 19 92 192
19 92 192 19 92 192 19 92 192 19 92 192
19 92 192 19 92 192 19 92 192 19 92 192
19 92 192 19 92 192 19 92 192 19 92 192
19 92 192 19 92 192 19 92 192 19 92 192
19 92 192 19 92 192 19 92 192 19 92 192
19 92 192 19 92 192 19 92 192 19 92 192
19 92 192 19 92 192 19 92 192 19 92 192
19 92 192 19 92 192 19 92 192 19 92 192
19 92 192 19 92 192 19 92 192 19 92 192
19 92 192 19 92 192 19 92 192 19 92 192
19 92 192 19 92 192 19 92 192 19 92 192
19 92 192 19 92 192 19 92 192 19 92 192
19 92 192 19 92 192 19 92 192 19 92 192
19 92 192 19 92 192 19 92 192 19 92 192
19 92 192 19 92 192 19 92 192 19 92 192
19 92 192 19 92 192 19 92 192 19 92 192
86 122 173 86 122 173 86 122 173 86 123 173
155 191 242 155 191 242 155 192 242 155 192 242
156 192 242 156 192 242 156 192 242 156 192 242
156 192 242 156 192 242 156 192 242 156 192 242
156 192 243 156 192 243 156 193 243 156 193 243
157 193 243 157 193 243 157 193 243 157 193 243
157 193 243 157 193 243 157 193 243 157 193 244
157 194 244 157 194 244 157 194 244 158 194 244
158 194 244 158 194 244 158 194 244 158 194 244
158 194 245 158 194 245 158 195 245 90 126 176
90 126 176 90 126 176 90 126 176 90 126 176
90 126 176 90 126 177 90 127 177 90 127 177
91 127 177 91 127 177 91 127 177 91 127 177
91 127 177 91 127 178 91 127 178 91 128 178
92 128 178 92 128 178 92 128 178 92 128 178
92 128 178 161 197 248 161 198 248 161 198 248
162 198 248 162 198 248 162 198 248 162 198 248
162 198 249 162 198 249 162 199 249 163 199 249
163 199 249 163 199 249 163 199 249 163 199 250
163 200 250 94 131 181 95 131 181 95 131 181
95 131 181 95 131 181 95 131 182 95 132 182
95 132 182 96 132 182 96 132 182 96 132 182
96 132 182 96 132 183 96 133 183 97 133 183
97 133 183 97 133 183 97 133 183 97 133 184
97 134 184 97 134 184 98 134 184 98 134 184
98 134 184 98 134 184 98 134 185 98 135 185
99 135 185 99 135 185 99 135 185 99 135 185
99 135 186 99 136 186 100 136 186 100 136 186
100 136 186 100 136 186 100 136 187 169 206 255
170 206 255 170 206 255 19 92 192 19 92 192
19 92 192 19 92 192 19 92 192 19 92 192
19 92 192 19 92 192 19 92 192 19 92 192
19 92 192 19 92 192 19 92 192 19 92 192
19 92 192 19 92 192 19 92 192 19 92 192
19 92 192 19 92 192 19 92 192 19 92 192
19 92 192 19 92 192 19 92 192 19 92 192
19 92 192 19 92 192 19 92 192 19 92 192
19 92 192 19 92 192 19 92 192 19 92 192
19 92 192 19 92 192 19 92 192 19 92 192
19 92 192 19 92 192 19 92 192 19 92 192
19 92 192 19 92 192 19 92 192 19 92 192
19 92 192 19 92 192 19 92 192 19 92 192
19 92 192 19 92 192 19 92 192 19 92 192
19 92 192 19 92 192 19 92 192 19 92 192
19 92 192 19 92 192 19 92 192 19 92 192
19 92 192 19 92 192 19 92 192 19 92 192
19 92 192 19 92 192 19 92 192 19 92 192
19 92 192 19 92 192 19 92 192 19 92 192
19 92 192 19 92 192 19 92 192 19 92 192
19 92 192 19 92 192 19 92 192 19 92 192
19 92 192 19 92 192 19 92 192 19 92 192
19 92 192 19 92 192 19 92 192 19 92 192
19 92 192 19 92 192 19 92 192 19 92 192
19 92 192 19 92 192 19 92 192 19 92 192
19 92 192 19 92 192 19 92 192 19 92 192
19 92 192 19 92 192 19 92 192 19 92 192
19 92 192 19 92 192 19 92 192 19 92 192
19 92 192 19 92 192 19 92 192 19 92 192
19 92 192 19 92 192 19 92 192 19 92 192
19 92 192 19 92 192 19 92 192 19 92 192
19 92 192 19 92 192 19 92 192 19 92 192
19 92 192 19 92 192 19 92 192 19 92 192
19 92 192 19 92 192 19 92 192 19 92 192
19 92 192 19 92 192 19 92 192 19 92 192
19 92 192 86 123 173 155 192 242 155 192 242
156 192 242 156 192 242 156 192 242 156 192 242
156 192 242 156 192 242 156 192 242 156 192 242
156 192 243 156 192 243 156 193 243 156 193 243
157 193 243 157 193 243 157 193 243 157 193 243
157 193 243 157 193 243 157 193 243 157 193 244
157 193 244 157 194 244 157 194 244 158 194 244
158 194 244 158 194 244 158 194 244 158 194 244
158 194 244 158 194 245 158 194 245 158 195 245
158 195 245 159 195 245 159 195 245 90 126 176
90 126 176 90 126 176 90 126 177 90 127 177
90 127 177 91 127 177 91 127 177 91 127 177
91 127 177 91 127 177 91 127 178 91 127 178
91 128 178 91 128 178 92 128 178 92 128 178
92 128 178 92 128 178 92 128 179 161 197 248
161 198 248 162 198 248 162 198 248 162 198 248
162 198 248 162 198 248 162 198 249 162 199 249
163 199 249 163 199 249 163 199 249 163 199 249
163 199 249 163 199 250 163 200 250 164 200 250
164 200 250 164 200 250 95 131 181 95 131 181
95 131 182 95 132 182 95 132 182 96 132 182
96 132 182 96 132 182 96 132 182 96 132 183
96 133 183 97 133 183 97 133 183 97 133 183
97 133 183 97 133 184 97 134 184 98 134 184
98 134 184 98 134 184 98 134 184 98 134 185
98 135 185 98 135 185 99 135 185 99 135 185
99 135 185 99 135 186 99 135 186 99 136 186
100 136 186 100 136 186 100 136 186 100 136 186
100 136 187 100 137 187 101 137 187 101 137 187
19 92 192 19 92 192 19 92 192 19 92 192
19 92 192 19 92 192 19 92 192 19 92 192
19 92 192 19 92 192 19 92 192 19 92 192
19 92 192 19 92 192 19 92 192 19 92 192
19 92 192 19 92 192 19 92 192 19 92 192
19 92 192 19 92 192 19 92 192 19 92 192
19 92 192 19 92 192 19 92 192 19 92 192
19 92 192 19 92 192 19 92 192 19 92 192
19 92 192 19 92 192 19 92 192 19 92 192
19 92 192 19 92 192 19 92 192 19 92 192
19 92 192 19 92 192 19 92 192 19 92 192
19 92 192 19 92 192 19 92 192 19 92 192
19 92 192 19 92 192 19 92 192 19 92 192
19 92 192 19 92 192 19 92 192 19 92 192
19 92 192 19 92 192 19 92 192 19 92 192
19 92 192 19 92 192 19 92 192 19 92 192
19 92 192 19 92 192 19 92 192 19 92 192
19 92 192 19 92 192 19 92 192 19 92 192
19 92 192 19 92 192 19 92 192 19 92 192
19 92 192 19 92 192 19 92 192 19 92 192
19 92 192 19 92 192 19 92 192 19 92 192
19 92 192 19 92 192 19 92 192 19 92 192
19 92 192 19 92 192 19 92 192 19 92 192
19 92 192 19 92 192 19 92 192 19 92 192
19 92 192 19 92 192 19 92 192 19 92 192
19 92 192 19 92 192 19 92 192 19 92 192
19 92 192 19 92 192 19 92 192 19 92 192
19 92 192 19 92 192 19 92 192 19 92 192
19 92 192 19 92 192 19 92 192 19 92 192
19 92 192 19 92 192 19 92 192 19 92 192
19 92 192 19 92 192 19 92 192 19 92 192
19 92 192 19 92 192 19 92 192 19 92 192
19 92 192 19 92 192 19 92 192 19 92 192
19 92 192 19 92 192 19 92 192 19 92 192
19 92 192 19 92 192 19 92 192 19 92 192
19 92 192 156 192 242 156 192 242 156 192 242
156 192 242 156 192 242 156 192 242 156 192 243
156 192 243 156 192 243 156 193 243 156 193 243
157 193 243 157 193 243 157 193 243 157 193 243
157 193 243 157 193 243 157 193 243 157 193 244
157 193 244 157 194 244 157 194 244 158 194 244
158 194 244 158 194 244 158 194 244 158 194 244
158 194 244 158 194 245 158 194 245 158 195 245
158 195 245 159 195 245 159 195 245 159 195 245
159 195 245 159 195 245 159 195 245 159 195 246
90 126 177 90 127 177 90 127 177 91 127 177
91 127 177 91 127 177 91 127 177 91 127 177
91 127 178 91 128 178 91 128 178 92 128 178
92 128 178 92 128 178 92 128 178 92 128 178
92 128 179 161 198 248 162 198 248 162 198 248
162 198 248 162 198 248 162 198 248 162 198 249
162 199 249 162 199 249 163 199 249 163 199 249
163 199 249 163 199 249 163 199 250 163 200 250
163 200 250 164 200 250 164 200 250 164 200 250
164 200 250 164 200 251 164 201 251 95 132 182
96 132 182 96 132 182 96 132 182 96 132 182
96 132 183 96 133 183 96 133 183 97 133 183
97 133 183 97 133 183 97 133 183 97 133 184
97 134 184 98 134 184 98 134 184 98 134 184
98 134 184 98 134 185 98 135 185 99 135 185
99 135 185 99 135 185 99 135 185 99 135 186
99 136 186 99 136 186 100 136 186 100 136 186
100 136 186 100 136 187 100 137 187 100 137 187
101 137 187 101 137 187 19 92 192 19 92 192
19 92 192 19 92 192 19 92 192 19 92 192
19 92 192 19 92 192 19 92 192 19 92 192
19 92 192 19 92 192 19 92 192 19 92 192
19 92 192 19 92 192 19 92 192 19 92 192
19 92 192 19 92 192 19 92 192 19 92 192
19 92 192 19 92 192 19 92 192 19 92 192
19 92 192 19 92 192 19 92 192 19 92 192
19 92 192 19 92 192 19 92 192 19 92 192
19 92 192 19 92 192 19 92 192 19 92 192
19 92 192 19 92 192 19 92 192 19 92 192
19 92 192 19 92 192 19 92 192 19 92 192
19 92 192 19 92 192 19 92 192 19 92 192
19 92 192 19 92 192 19 92 192 19 92 192
19 92 192 19 92 192 19 92 192 19 92 192
19 92 192 19 92 192 19 92 192 19 92 192
19 92 192 19 92 192 19 92 192 19 92 192
19 92 192 19 92 192 19 92 192 19 92 192
19 92 192 19 92 192 19 92 192 19 92 192
19 92 192 19 92 192 19 92 192 19 92 192
19 92 192 19 92 192 19 92 192 19 92 192
19 92 192 19 92 192 19 92 192 19 92 192
19 92 192 19 92 192 19 92 192 19 92 192
19 92 192 19 92 192 19 92 192 19 92 192
19 92 192 19 92 192 19 92 192 19 92 192
19 92 192 19 92 192 19 92 192 19 92 192
19 92 192 19 92 192 19 92 192 19 92 192
19 92 192 19 92 192 19 92 192 19 92 192
19 92 192 19 92 192 19 92 192 19 92 192
19 92 192 19 92 192 19 92 192 19 92 192
19 92 192 19 92 192 19 92 192 19 92 192
19 92 192 19 92 192 19 92 192 19 92 192
19 92 192 19 92 192 19 92 192 19 92 192
19 92 192 19 92 192 19 92 192 19 92 192
19 92 192 19 92 192 19 92 192 19 92 192
19 92 192 19 92 192 19 92 192 19 92 192
19 92 192 19 92 192 156 192 242 156 192 243
156 192 243 156 193 243 156 193 243 156 193 243
157 193 243 157 193 243 157 193 243 157 193 243
157 193 243 157 193 243 157 193 243 157 193 244
157 193 244 157 194 244 157 194 244 157 194 244
158 194 244 158 194 244 158 194 244 158 194 244
158 194 244 158 194 244 158 194 245 158 194 245
158 195 245 158 195 245 159 195 245 159 195 245
159 195 245 159 195 245 159 195 245 159 195 246
159 195 246 159 196 246 159 196 246 160 196 246
160 196 246 91 127 177 91 127 177 91 127 177
91 127 177 91 127 178 91 128 178 91 128 178
92 128 178 92 128 178 92 128 178 92 128 178
92 128 178 92 128 179 92 128 179 162 198 248
162 198 248 162 198 248 162 198 248 162 198 248
162 198 249 162 199 249 162 199 249 163 199 249
163 199 249 163 199 249 163 199 249 163 199 250
163 200 250 163 200 250 164 200 250 164 200 250
164 200 250 164 200 250 164 200 251 164 201 251
164 201 251 165 201 251 165 201 251 96 132 182
96 132 182 96 132 182 96 132 183 96 133 183
97 133 183 97 133 183 97 133 183 97 133 183
97 133 184 97 134 184 97 134 184 98 134 184
98 134 184 98 134 184 98 134 184 98 134 185
98 135 185 99 135 185 99 135 185 99 135 185
99 135 185 99 135 186 99 136 186 100 136 186
100 136 186 100 136 186 100 136 186 100 136 187
100 137 187 101 137 187 101 137 187 101 137 187
101 137 187 19 92 192 19 92 192 19 92 192
19 92 192 19 92 192 19 92 192 19 92 192
19 92 192 19 92 192 19 92 192 19 92 192
19 92 192 19 92 192 19 92 192 19 92 192
19 92 192 19 92 192 19 92 192 19 92 192
19 92 192 19 92 192 19 92 192 19 92 192
19 92 192 19 92 192 19 92 192 19 92 192
19 92 192 19 92 192 19 92 192 19 92 192
19 92 192 19 92 192 19 92 192 19 92 192
19 92 192 19 92 192 19 92 192 19 92 192
19 92 192 19 92 192 19 92 192 19 92 192
19 92 192 19 92 192 19 92 192 19 92 192
19 92 192 19 92 192 19 92 192 19 92 192
19 92 192 19 92 192 19 92 192 19 92 192
19 92 192 19 92 192 19 92 192 19 92 192
19 92 192 19 92 192 19 92 192 19 92 192
19 92 192 19 92 192 19 92 192 19 92 192
19 92 192 19 92 192 19 92 192 19 92 192
19 92 192 19 92 192 19 92 192 19 92 192
19 92 192 19 92 192 19 92 192 19 92 192
19 92 192 19 92 192 19 92 192 19 92 192
19 92 192 19 92 192 19 92 192 19 92 192
19 92 192 19 92 192 19 92 192 19 92 192
19 92 192 19 92 192 19 92 192 19 92 192
19 92 192 19 92 192 19 92 192 19 92 192
19 92 192 19 92 192 19 92 192 19 92 192
19 92 192 19 92 192 19 92 192 19 92 192
19 92 192 19 92 192 19 92 192 19 92 192
19 92 192 19 92 192 19 92 192 19 92 192
19 92 192 19 92 192 19 92 192 19 92 192
19 92 192 19 92 192 19 92 192 19 92 192
19 92 192 19 92 192 19 92 192 19 92 192
19 92 192 19 92 192 19 92 192 19 92 192
19 92 192 19 92 192 19 92 192 19 92 192
19 92 192 19 92 192 19 92 192 19 92 192
19 92 192 19 92 192 19 92 192 19 92 192
19 92 192 19 92 192 156 193 243 156 193 243
157 193 243 157 193 243 157 193 243 157 193 243
157 193 243 157 193 243 157 193 243 157 193 244
157 193 244 157 194 244 157 194 244 157 194 244
158 194 244 158 194 244 158 194 244 158 194 244
158 194 244 158 194 244 158 194 245 158 194 245
158 195 245 158 195 245 159 195 245 159 195 245
159 195 245 159 195 245 159 195 245 159 195 245
159 195 246 159 195 246 159 196 246 159 196 246
160 196 246 160 196 246 160 196 246 160 196 246
160 196 246 91 127 177 91 127 178 91 127 178
91 128 178 91 128 178 92 128 178 92 128 178
92 128 178 92 128 178 92 128 178 92 128 179
92 129 179 92 129 179 162 198 248 162 198 248
162 198 248 162 198 249 162 199 249 162 199 249
163 199 249 163 199 249 163 199 249 163 199 249
163 199 250 163 199 250 163 200 250 164 200 250
164 200 250 164 200 250 164 200 250 164 200 251
164 200 251 164 201 251 165 201 251 165 201 251
165 201 251 165 201 251 165 201 252 165 202 252
96 132 183 96 133 183 97 133 183 97 133 183
97 133 183 97 133 183 97 133 184 97 134 184
97 134 184 98 134 184 98 134 184 98 134 184
98 134 185 98 135 185 98 135 185 99 135 185
99 135 185 99 135 185 99 135 185 99 135 186
99 136 186 100 136 186 100 136 186 100 136 186
100 136 186 100 136 187 100 137 187 101 137 187
101 137 187 101 137 187 101 137 187 19 92 192
19 92 192 19 92 192 19 92 192 19 92 192
19 92 192 19 92 192 19 92 192 19 92 192
19 92 192 19 92 192 19 92 192 19 92 192
19 92 192 19 92 192 19 92 192 19 92 192
19 92 192 19 92 192 19 92 192 19 92 192
19 92 192 19 92 192 19 92 192 19 92 192
19 92 192 19 92 192 19 92 192 19 92 192
19 92 192 19 92 192 19 92 192 19 92 192
19 92 192 19 92 192 19 92 192 19 92 192
19 92 192 19 92 192 19 92 192 19 92 192
19 92 192 19 92 192 19 92 192 19 92 192
19 92 192 19 92 192 19 92 192 19 92 192
19 92 192 19 92 192 19 92 192 19 92 192
19 92 192 19 92 192 19 92 192 19 92 192
19 92 192 19 92 192 19 92 192 19 92 192
19 92 192 19 92 192 19 92 192 19 92 192
19 92 192 19 92 192 19 92 192 19 92 192
19 92 192 19 92 192 19 92 192 19 92 192
19 92 192 19 92 192 19 92 192 19 92 192
19 92 192 19 92 192 19 92 192 19 92 192
19 92 192 19 92 192 19 92 192 19 92 192
19 92 192 19 92 192 19 92 192 19 92 192
19 92 192 19 92 192 19 92 192 19 92 192
19 92 192 19 92 192 19 92 192 19 92 192
19 92 192 19 92 192 19 92 192 19 92 192
19 92 192 19 92 192 19 92 192 19 92 192
19 92 192 19 92 192 19 92 192 19 92 192
19 92 192 19 92 192 19 92 192 19 92 192
19 92 192 19 92 192 19 92 192 19 92 192
19 92 192 19 92 192 19 92 192 19 92 192
19 92 192 19 92 192 19 92 192 19 92 192
19 92 192 19 92 192 19 92 192 19 92 192
19 92 192 19 92 192 19 92 192 19 92 192
19 92 192 19 92 192 19 92 192 19 92 192
19 92 192 19 92 192 19 92 192 19 92 192
19 92 192 19 92 192 19 92 192 19 92 192
19 92 192 19 92 192 19 92 192 157 193 243
157 193 243 157 193 243 157 193 243 157 193 244
157 193 244 157 194 244 157 194 244 157 194 244
158 194 244 158 194 244 158 194 244 158 194 244
158 194 244 158 194 244 158 194 245 158 194 245
158 195 245 158 195 245 158 195 245 159 195 245
159 195 245 159 195 245 159 195 245 159 195 245
159 195 245 159 195 246 159 196 246 159 196 246
160 196 246 160 196 246 160 196 246 160 196 246
160 196 246 160 196 246 160 196 247 160 197 247
160 197 247 161 197 247 91 128 178 92 128 178
92 128 178 92 128 178 92 128 178 92 128 178
92 128 179 92 129 179 92 129 179 93 129 179
162 198 248 162 198 248 162 198 249 162 198 249
162 199 249 163 199 249 163 199 249 163 199 249
163 199 249 163 199 249 163 199 250 163 200 250
163 200 250 164 200 250 164 200 250 164 200 250
164 200 250 164 200 251 164 201 251 164 201 251
165 201 251 165 201 251 165 201 251 165 201 251
165 201 252 165 202 252 166 202 252 166 202 252
166 202 252 97 133 183 97 133 183 97 133 183
97 133 184 97 134 184 98 134 184 98 134 184
98 134 184 98 134 184 98 134 185 98 135 185
98 135 185 99 135 185 99 135 185 99 135 185
99 135 186 99 136 186 99 136 186 100 136 186
100 136 186 100 136 186 100 136 187 100 137 187
100 137 187 101 137 187 101 137 187 101 137 187
101 137 188 19 92 192 19 92 192 19 92 192
19 92 192 19 92 192 19 92 192 19 92 192
19 92 192 19 92 192 19 92 192 19 92 192
19 92 192 19 92 192 19 92 192 19 92 192
19 92 192 19 92 192 19 92 192 19 92 192
19 92 192 19 92 192 19 92 192 19 92 192
19 92 192 19 92 192 19 92 192 19 92 192
19 92 192 19 92 192 19 92 192 19 92 192
19 92 192 19 92 192 19 92 192 19 92 192
19 92 192 19 92 192 19 92 192 19 92 192
19 92 192 19 92 192 19 92 192 19 92 192
19 92 192 19 92 192 19 92 192 19 92 192
19 92 192 19 92 192 19 92 192 19 92 192
19 92 192 19 92 192 19 92 192 19 92 192
19 92 192 19 92 192 19 92 192 19 92 192
19 92 192 19 92 192 19 92 192 19 92 192
19 92 192 19 92 192 19 92 192 19 92 192
19 92 192 19 92 192 19 92 192 19 92 192
19 92 192 19 92 192 19 92 192 19 92 192
19 92 192 19 92 192 19 92 192 19 92 192
19 92 192 19 92 192 19 92 192 19 92 192
19 92 192 19 92 192 19 92 192 19 92 192
19 92 192 19 92 192 19 92 192 19 92 192
19 92 192 19 92 192 19 92 192 19 92 192
19 92 192 19 92 192 19 92 192 19 92 192
19 92 192 19 92 192 19 92 192 19 92 192
19 92 192 19 92 192 19 92 192 19 92 192
19 92 192 19 92 192 19 92 192 19 92 192
19 92 192 19 92 192 19 92 192 19 92 192
19 92 192 19 92 192 19 92 192 19 92 192
19 92 192 19 92 192 19 92 192 19 92 192
19 92 192 19 92 192 19 92 192 19 92 192
19 92 192 19 92 192 19 92 192 19 92 192
19 92 192 19 92 192 19 92 192 19 92 192
19 92 192 19 92 192 19 92 192 19 92 192
19 92 192 19 92 192 19 92 192 19 92 192
19 92 192 19 92 192 19 92 192 19 92 192
19 92 192 19 92 192 19 92 192 157 193 244
157 193 244 157 194 244 157 194 244 157 194 244
158 194 244 158 194 244 158 194 244 158 194 244
158 194 244 158 194 244 158 194 244 158 194 245
158 195 245 158 195 245 158 195 245 159 195 245
159 195 245 159 195 245 159 195 245 159 195 245
159 195 245 159 195 246 159 195 246 159 196 246
159 196 246 160 196 246 160 196 246 160 196 246
160 196 246 160 196 246 160 196 246 160 196 247
160 197 247 160 197 247 161 197 247 161 197 247
161 197 247 161 197 247 161 197 247 92 128 178
92 128 178 92 128 179 92 129 179 92 129 179
93 129 179 93 129 179 162 198 248 162 198 249
162 198 249 162 199 249 163 199 249 163 199 249
163 199 249 163 199 249 163 199 249 163 199 250
163 200 250 163 200 250 164 200 250 164 200 250
164 200 250 164 200 250 164 200 251 164 201 251
164 201 251 165 201 251 165 201 251 165 201 251
165 201 251 165 201 252 165 202 252 165 202 252
166 202 252 166 202 252 166 202 252 166 202 252
166 202 253 166 203 253 97 134 184 97 134 184
98 134 184 98 134 184 98 134 184 98 134 184
98 134 185 98 135 185 99 135 185 99 135 185
99 135 185 99 135 185 99 135 186 99 136 186
100 136 186 100 136 186 100 136 186 100 136 186
100 136 187 100 137 187 101 137 187 101 137 187
101 137 187 101 137 187 101 137 188 101 138 188
19 92 192 19 92 192 19 92 192 19 92 192
19 92 192 19 92 192 19 92 192 19 92 192
19 92 192 19 92 192 19 92 192 19 92 192
19 92 192 19 92 192 19 92 192 19 92 192
19 92 192 19 92 192 19 92 192 19 92 192
19 92 192 19 92 192 19 92 192 19 92 192
19 92 192 19 92 192 19 92 192 19 92 192
19 92 192 19 92 192 19 92 192 19 92 192
19 92 192 19 92 192 19 92 192 19 92 192
19 92 192 19 92 192 19 92 192 19 92 192
19 92 192 19 92 192 19 92 192 19 92 192
19 92 192 19 92 192 19 92 192 19 92 192
19 92 192 19 92 192 19 92 192 19 92 192
19 92 192 19 92 192 19 92 192 19 92 192
19 92 192 19 92 192 19 92 192 19 92 192
19 92 192 19 92 192 19 92 192 19 92 192
19 92 192 19 92 192 19 92 192 19 92 192
19 92 192 19 92 192 19 92 192 19 92 192
19 92 192 19 92 192 19 92 192 19 92 192
19 92 192 19 92 192 19 92 192 19 92 192
19 92 192 19 92 192 19 92 192 19 92 192
19 92 192 19 92 192 19 92 192 19 92 192
19 92 192 19 92 192 19 92 192 19 92 192
19 92 192 19 92 192 19 92 192 19 92 192
19 92 192 19 92 192 19 92 192 19 92 192
19 92 192 19 92 192 19 92 192 19 92 192
19 92 192 19 92 192 19 92 192 19 92 192
19 92 192 19 92 192 19 92 192 19 92 192
19 92 192 19 92 192 19 92 192 19 92 192
19 92 192 19 92 192 19 92 192 19 92 192
19 92 192 19 92 192 19 92 192 19 92 192
19 92 192 19 92 192 19 92 192 19 92 192
19 92 192 19 92 192 19 92 192 19 92 192
19 92 192 19 92 192 19 92 192 19 92 192
19 92 192 19 92 192 19 92 192 19 92 192
19 92 192 19 92 192 19 92 192 19 92 192
19 92 192 19 92 192 19 92 192 19 92 192
19 92 192 19 92 192 19 92 192 19 92 192
158 194 244 158 194 244 158 194 244 158 194 244
158 194 244 158 194 244 158 194 245 158 194 245
158 195 245 158 195 245 158 195 245 159 195 245
159 195 245 159 195 245 159 195 245 159 195 245
159 195 245 159 195 246 159 195 246 159 196 246
159 196 246 160 196 246 160 196 246 160 196 246
160 196 246 160 196 246 160 196 246 160 196 247
160 196 247 160 197 247 160 197 247 161 197 247
161 197 247 161 197 247 161 197 247 161 197 247
161 197 248 161 197 248 161 198 248 92 128 179
92 129 179 93 129 179 93 129 179 93 129 179
162 198 249 162 198 249 162 199 249 163 199 249
163 199 249 163 199 249 163 199 249 163 199 249
163 199 250 163 200 250 163 200 250 164 200 250
164 200 250 164 200 250 164 200 250 164 200 251
164 200 251 164 201 251 165 201 251 165 201 251
165 201 251 165 201 251 165 201 252 165 202 252
165 202 252 166 202 252 166 202 252 166 202 252
166 202 252 166 202 253 166 203 253 166 203 253
167 203 253 167 203 253 98 134 184 98 134 184
98 134 184 98 134 185 98 134 185 98 135 185
99 135 185 99 135 185 99 135 185 99 135 185
99 135 186 99 136 186 100 136 186 100 136 186
100 136 186 100 136 186 100 136 187 100 137 187
101 137 187 101 137 187 101 137 187 101 137 187
101 137 188 101 138 188 19 92 192 19 92 192
19 92 192 19 92 192 19 92 192 19 92 192
19 92 192 19 92 192 19 92 192 19 92 192
19 92 192 19 92 192 19 92 192 19 92 192
19 92 192 19 92 192 19 92 192 19 92 192
19 92 192 19 92 192 19 92 192 19 92 192
19 92 192 19 92 192 19 92 192 19 92 192
19 92 192 19 92 192 19 92 192 19 92 192
19 92 192 19 92 192 19 92 192 19 92 192
19 92 192 19 92 192 19 92 192 19 92 192
19 92 192 19 92 192 19 92 192 19 92 192
19 92 192 19 92 192 19 92 192 19 92 192
19 92 192 19 92 192 19 92 192 19 92 192
19 92 192 19 92 192 19 92 192 19 92 192
19 92 192 19 92 192 19 92 192 19 92 192
19 92 192 19 92 192 19 92 192 19 92 192
19 92 192 19 92 192 19 92 192 19 92 192
19 92 192 19 92 192 19 92 192 19 92 192
19 92 192 19 92 192 19 92 192 19 92 192
19 92 192 19 92 192 19 92 192 19 92 192
19 92 192 19 92 192 19 92 192 19 92 192
19 92 192 19 92 192 19 92 192 19 92 192
19 92 192 19 92 192 19 92 192 19 92 192
19 92 192 19 92 192 19 92 192 19 92 192
19 92 192 19 92 192 19 92 192 19 92 192
19 92 192 19 92 192 19 92 192 19 92 192
19 92 192 19 92 192 19 92 192 19 92 192
19 92 192 19 92 192 19 92 192 19 92 192
19 92 192 19 92 192 19 92 192 19 92 192
19 92 192 19 92 192 19 92 192 19 92 192
19 92 192 19 92 192 19 92 192 19 92 192
19 92 192 19 92 192 19 92 192 19 92 192
19 92 192 19 92 192 19 92 192 19 92 192
19 92 192 19 92 192 19 92 192 19 92 192
19 92 192 19 92 192 19 92 192 19 92 192
19 92 192 19 92 192 19 92 192 19 92 192
19 92 192 19 92 192 19 92 192 19 92 192
19 92 192 19 92 192 19 92 192 19 92 192
19 92 192 19 92 192 19 92 192 19 92 192
19 92 192 158 194 244 158 194 245 158 194 245
158 195 245 158 195 245 158 195 245 159 195 245
159 195 245 159 195 245 159 195 245 159 195 245
159 195 245 159 195 245 159 195 246 159 196 246
159 196 246 159 196 246 160 196 246 160 196 246
160 196 246 160 196 246 160 196 246 160 196 246
160 196 247 160 197 247 160 197 247 161 197 247
161 197 247 161 197 247 161 197 247 161 197 247
161 197 247 161 197 248 161 198 248 161 198 248
162 198 248 162 198 248 162 198 248 162 198 248
93 129 179 93 129 179 162 198 249 162 199 249
163 199 249 163 199 249 163 199 249 163 199 249
163 199 249 163 199 250 163 200 250 163 200 250
164 200 250 164 200 250 164 200 250 164 200 250
164 200 250 164 200 251 164 201 251 165 201 251
165 201 251 165 201 251 165 201 251 165 201 251
165 201 252 165 202 252 166 202 252 166 202 252
166 202 252 166 202 252 166 202 253 166 203 253
166 203 253 167 203 253 167 203 253 167 203 253
167 203 253 167 203 254 167 204 254 98 134 185
98 135 185 98 135 185 99 135 185 99 135 185
99 135 185 99 135 186 99 136 186 99 136 186
100 136 186 100 136 186 100 136 186 100 136 187
100 136 187 100 137 187 101 137 187 101 137 187
101 137 187 101 137 187 101 137 188 101 138 188
19 92 192 19 92 192 19 92 192 19 92 192
19 92 192 19 92 192 19 92 192 19 92 192
19 92 192 19 92 192 19 92 192 19 92 192
19 92 192 19 92 192 19 92 192 19 92 192
19 92 192 19 92 192 19 92 192 19 92 192
19 92 192 19 92 192 19 92 192 19 92 192
19 92 192 19 92 192 19 92 192 19 92 192
19 92 192 19 92 192 19 92 192 19 92 192
19 92 192 19 92 192 19 92 192 19 92 192
19 92 192 19 92 192 19 92 192 19 92 192
19 92 192 19 92 192 19 92 192 19 92 192
19 92 192 19 92 192 19 92 192 19 92 192
19 92 192 19 92 192 19 92 192 19 92 192
19 92 192 19 92 192 19 92 192 19 92 192
19 92 192 19 92 192 19 92 192 19 92 192
19 92 192 19 92 192 19 92 192 19 92 192
19 92 192 19 92 192 19 92 192 19 92 192
19 92 192 19 92 192 19 92 192 19 92 192
19 92 192 19 92 192 19 92 192 19 92 192
19 92 192 19 92 192 19 92 192 19 92 192
19 92 192 19 92 192 19 92 192 19 92 192
19 92 192 19 92 192 19 92 192 19 92 192
19 92 192 19 92 192 19 92 192 19 92 192
19 92 192 19 92 192 19 92 192 19 92 192
19 92 192 19 92 192 19 92 192 19 92 192
19 92 192 19 92 192 19 92 192 19 92 192
19 92 192 19 92 192 19 92 192 19 92 192
19 92 192 19 92 192 19 92 192 19 92 192
19 92 192 19 92 192 19 92 192 19 92 192
19 92 192 19 92 192 19 92 192 19 92 192
19 92 192 19 92 192 19 92 192 19 92 192
19 92 192 19 92 192 19 92 192 19 92 192
19 92 192 19 92 192 19 92 192 19 92 192
19 92 192 19 92 192 19 92 192 19 92 192
19 92 192 19 92 192 19 92 192 19 92 192
19 92 192 19 92 192 19 92 192 19 92 192
19 92 192 19 92 192 19 92 192 19 92 192
19 92 192 19 92 192 19 92 192 19 92 192
19 92 192 19 92 192 19 92 192 19 92 192
19 92 192 158 195 245 158 195 245 159 195 245
159 195 245 159 195 245 159 195 245 159 195 245
159 195 245 159 195 245 159 195 246 159 195 246
159 196 246 159 196 246 160 196 246 160 196 246
160 196 246 160 196 246 160 196 246 160 196 246
160 196 247 160 196 247 160 197 247 160 197 247
161 197 247 161 197 247 161 197 247 161 197 247
161 197 247 161 197 248 161 197 248 161 198 248
161 198 248 162 198 248 162 198 248 162 198 248
162 198 248 162 198 248 162 198 249 162 198 249
93 129 179 163 199 249 163 199 249 163 199 249
163 199 249 163 199 249 163 199 250 163 200 250
163 200 250 164 200 250 164 200 250 164 200 250
164 200 250 164 200 250 164 200 251 164 201 251
164 201 251 165 201 251 165 201 251 165 201 251
165 201 251 165 201 252 165 202 252 165 202 252
166 202 252 166 202 252 166 202 252 166 202 252
166 202 253 166 203 253 167 203 253 167 203 253
167 203 253 167 203 253 167 203 254 167 204 254
167 204 254 168 204 254 168 204 254 168 204 254
99 135 185 99 135 185 99 135 185 99 135 186
99 136 186 99 136 186 100 136 186 100 136 186
100 136 186 100 136 187 100 137 187 100 137 187
101 137 187 101 137 187 101 137 187 101 137 188
101 138 188 101 138 188 102 138 188 19 92 192
19 92 192 19 92 192 19 92 192 19 92 192
19 92 192 19 92 192 19 92 192 19 92 192
19 92 192 19 92 192 19 92 192 19 92 192
19 92 192 19 92 192 19 92 192 19 92 192
19 92 192 19 92 192 19 92 192 19 92 192
19 92 192 19 92 192 19 92 192 19 92 192
19 92 192 19 92 192 19 92 192 19 92 192
19 92 192 19 92 192 19 92 192 19 92 192
19 92 192 19 92 192 19 92 192 19 92 192
19 92 192 19 92 192 19 92 192 19 92 192
19 92 192 19 92 192 19 92 192 19 92 192
19 92 192 19 92 192 19 92 192 19 92 192
19 92 192 19 92 192 19 92 192 19 92 192
19 92 192 19 92 192 19 92 192 19 92 192
19 92 192 19 92 192 19 92 192 19 92 192
19 92 192 19 92 192 19 92 192 19 92 192
19 92 192 19 92 192 19 92 192 19 92 192
19 92 192 19 92 192 19 92 192 19 92 192
19 92 192 19 92 192 19 92 192 19 92 192
19 92 192 19 92 192 19 92 192 19 92 192
19 92 192 19 92 192 19 92 192 19 92 192
19 92 192 19 92 192 19 92 192 19 92 192
19 92 192 19 92 192 19 92 192 19 92 192
19 92 192 19 92 192 19 92 192 19 92 192
19 92 192 19 92 192 19 92 192 19 92 192
19 92 192 19 92 192 19 92 192 19 92 192
19 92 192 19 92 192 19 92 192 19 92 192
19 92 192 19 92 192 19 92 192 19 92 192
19 92 192 19 92 192 19 92 192 19 92 192
19 92 192 19 92 192 19 92 192 19 92 192
19 92 192 19 92 192 19 92 192 19 92 192
19 92 192 19 92 192 19 92 192 19 92 192
19 92 192 19 92 192 19 92 192 19 92 192
19 92 192 19 92 192 19 92 192 19 92 192
19 92 192 19 92 192 19 92 192 19 92 192
19 92 192 19 92 192 19 92 192 19 92 192
19 92 192 19 92 192 19 92 192 19 92 192
19 92 192 19 92 192 19 92 192 19 92 192
19 92 192 19 92 192 19 92 192 19 92 192
19 92 192 19 92 192 159 195 245 159 195 245
159 195 245 159 195 245 159 195 246 159 195 246
159 196 246 159 196 246 160 196 246 160 196 246
160 196 246 160 196 246 160 196 246 160 196 246
160 196 247 160 196 247 160 197 247 160 197 247
161 197 247 161 197 247 161 197 247 161 197 247
161 197 247 161 197 247 161 197 248 161 197 248
161 198 248 161 198 248 162 198 248 162 198 248
162 198 248 162 198 248 162 198 248 162 198 249
162 199 249 162 199 249 93 129 180 93 130 180
93 130 180 163 199 249 163 199 249 163 199 250
163 200 250 163 200 250 164 200 250 164 200 250
164 200 250 164 200 250 164 200 250 164 200 251
164 201 251 164 201 251 165 201 251 165 201 251
165 201 251 165 201 251 165 201 252 165 202 252
165 202 252 166 202 252 166 202 252 166 202 252
166 202 252 166 202 253 166 203 253 166 203 253
167 203 253 167 203 253 167 203 253 167 203 253
167 203 254 167 204 254 168 204 254 168 204 254
168 204 254 168 204 254 168 204 255 168 205 255
169 205 255 99 135 186 99 136 186 100 136 186
100 136 186 100 136 186 100 136 186 100 136 187
100 137 187 101 137 187 101 137 187 101 137 187
101 137 187 101 137 188 101 138 188 102 138 188
102 138 188 19 92 192 19 92 192 19 92 192
19 92 192 19 92 192 19 92 192 19 92 192
19 92 192 19 92 192 19 92 192 19 92 192
19 92 192 19 92 192 19 92 192 19 92 192
19 92 192 19 92 192 19 92 192 19 92 192
19 92 192 19 92 192 19 92 192 19 92 192
19 92 192 19 92 192 19 92 192 19 92 192
19 92 192 19 92 192 19 92 192 19 92 192
19 92 192 19 92 192 19 92 192 19 92 192
19 92 192 19 92 192 19 92 192 19 92 192
19 92 192 19 92 192 19 92 192 19 92 192
19 92 192 19 92 192 19 92 192 19 92 192
19 92 192 19 92 192 19 92 192 19 92 192
19 92 192 19 92 192 19 92 192 19 92 192
19 92 192 19 92 192 19 92 192 19 92 192
19 92 192 19 92 192 19 92 192 19 92 192
19 92 192 19 92 192 19 92 192 19 92 192
19 92 192 19 92 192 19 92 192 19 92 192
19 92 192 19 92 192 19 92 192 19 92 192
19 92 192 19 92 192 19 92 192 19 92 192
19 92 192 19 92 192 19 92 192 19 92 192
19 92 192 19 92 192 19 92 192 19 92 192
19 92 192 19 92 192 19 92 192 19 92 192
19 92 192 19 92 192 19 92 192 19 92 192
19 92 192 19 92 192 19 92 192 19 92 192
19 92 192 19 92 192 19 92 192 19 92 192
19 92 192 19 92 192 19 92 192 19 92 192
19 92 192 19 92 192 19 92 192 19 92 192
19 92 192 19 92 192 19 92 192 19 92 192
19 92 192 19 92 192 19 92 192 19 92 192
19 92 192 19 92 192 19 92 192 19 92 192
19 92 192 19 92 192 19 92 192 19 92 192
19 92 192 19 92 192 19 92 192 19 92 192
19 92 192 19 92 192 19 92 192 19 92 192
19 92 192 19 92 192 19 92 192 19 92 192
19 92 192 19 92 192 19 92 192 19 92 192
19 92 192 19 92 192 19 92 192 19 92 192
19 92 192 19 92 192 19 92 192 19 92 192
19 92 192 19 92 192 19 92 192 19 92 192
19 92 192 19 92 192 19 92 192 19 92 192
19 92 192 19 92 192 159 195 246 159 196 246
159 196 246 159 196 246 160 196 246 160 196 246
160 196 246 160 196 246 160 196 246 160 196 246
160 196 246 160 196 247 160 197 247 160 197 247
160 197 247 161 197 247 161 197 247 161 197 247
161 197 247 161 197 247 161 197 247 161 197 248
161 198 248 161 198 248 162 198 248 162 198 248
162 198 248 162 198 248 162 198 248 162 198 248
162 198 249 162 199 249 162 199 249 163 199 249
93 130 180 93 130 180 94 130 180 94 130 180
94 130 180 94 130 180 163 200 250 164 200 250
164 200 250 164 200 250 164 200 250 164 200 250
164 200 251 164 201 251 164 201 251 165 201 251
165 201 251 165 201 251 165 201 251 165 201 252
165 202 252 165 202 252 166 202 252 166 202 252
166 202 252 166 202 252 166 202 253 166 203 253
166 203 253 167 203 253 167 203 253 167 203 253
167 203 253 167 203 254 167 204 254 167 204 254
168 204 254 168 204 254 168 204 254 168 204 255
168 204 255 168 205 255 169 205 255 169 205 255
169 205 255 169 205 255 100 136 186 100 136 186
100 136 186 100 136 187 100 137 187 101 137 187
101 137 187 101 137 187 101 137 187 101 137 188
101 138 188 102 138 188 102 138 188 19 92 192
19 92 192 19 92 192 19 92 192 19 92 192
19 92 192 19 92 192 19 92 192 19 92 192
19 92 192 19 92 192 19 92 192 19 92 192
19 92 192 19 92 192 19 92 192 19 92 192
19 92 192 19 92 192 19 92 192 19 92 192
19 92 192 19 92 192 19 92 192 19 92 192
19 92 192 19 92 192 19 92 192 19 92 192
19 92 192 19 92 192 19 92 192 19 92 192
19 92 192 19 92 192 19 92 192 19 92 192
19 92 192 19 92 192 19 92 192 19 92 192
19 92 192 19 92 192 19 92 192 19 92 192
19 92 192 19 92 192 19 92 192 19 92 192
19 92 192 19 92 192 19 92 192 19 92 192
19 92 192 19 92 192 19 92 192 19 92 192
19 92 192 19 92 192 19 92 192 19 92 192
19 92 192 19 92 192 19 92 192 19 92 192
19 92 192 19 92 192 19 92 192 19 92 192
19 92 192 19 92 192 19 92 192 19 92 192
19 92 192 19 92 192 19 92 192 19 92 192
19 92 192 19 92 192 19 92 192 19 92 192
19 92 192 19 92 192 19 92 192 19 92 192
19 92 192 19 92 192 19 92 192 19 92 192
19 92 192 19 92 192 19 92 192 19 92 192
19 92 192 19 92 192 19 92 192 19 92 192
19 92 192 19 92 192 19 92 192 19 92 192
19 92 192 19 92 192 19 92 192 19 92 192
19 92 192 19 92 192 19 92 192 19 92 192
19 92 192 19 92 192 19 92 192 19 92 192
19 92 192 19 92 192 19 92 192 19 92 192
19 92 192 19 92 192 19 92 192 19 92 192
19 92 192 19 92 192 19 92 192 19 92 192
19 92 192 19 92 192 19 92 192 19 92 192
19 92 192 19 92 192 19 92 192 19 92 192
19 92 192 19 92 192 19 92 192 19 92 192
19 92 192 19 92 192 19 92 192 19 92 192
19 92 192 19 92 192 19 92 192 19 92 192
19 92 192 19 92 192 19 92 192 19 92 192
19 92 192 19 92 192 19 92 192 19 92 192
19 92 192 19 92 192 19 92 192 19 92 192
19 92 192 19 92 192 19 92 192 19 92 192
19 92 192 19 92 192 19 92 192 160 196 246
160 196 246 160 196 246 160 196 246 160 196 246
160 196 246 160 196 247 160 197 247 160 197 247
160 197 247 161 197 247 161 197 247 161 197 247
161 197 247 161 197 247 161 197 247 161 197 248
161 197 248 161 198 248 161 198 248 162 198 248
162 198 248 162 198 248 162 198 248 162 198 248
162 198 249 162 198 249 162 199 249 162 199 249
163 199 249 163 199 249 163 199 249 94 130 180
94 130 180 94 130 180 94 130 180 94 130 180
94 130 181 94 130 181 164 200 250 164 200 250
164 200 250 164 200 251 164 201 251 164 201 251
165 201 251 165 201 251 165 201 251 165 201 251
165 201 252 165 201 252 165 202 252 166 202 252
166 202 252 166 202 252 166 202 252 166 202 253
166 202 253 166 203 253 167 203 253 167 203 253
167 203 253 167 203 253 167 203 254 167 204 254
167 204 254 168 204 254 168 204 254 168 204 254
168 204 254 168 204 255 168 205 255 169 205 255
169 205 255 169 205 255 169 205 255 169 205 255
169 206 255 169 206 255 100 136 187 100 137 187
100 137 187 101 137 187 101 137 187 101 137 187
101 137 188 101 138 188 101 138 188 102 138 188
102 138 188 102 138 188 19 92 192 19 92 192
19 92 192 19 92 192 19 92 192 19 92 192
19 92 192 19 92 192 19 92 192 19 92 192
19 92 192 19 92 192 19 92 192 19 92 192
19 92 192 19 92 192 19 92 192 19 92 192
19 92 192 19 92 192 19 92 192 19 92 192
19 92 192 19 92 192 19 92 192 19 92 192
19 92 192 19 92 192 19 92 192 19 92 192
19 92 192 19 92 192 19 92 192 19 92 192
19 92 192 19 92 192 19 92 192 19 92 192
19 92 192 19 92 192 19 92 192 19 92 192
19 92 192 19 92 192 19 92 192 19 92 192
19 92 192 19 92 192 19 92 192 19 92 192
19 92 192 19 92 192 19 92 192 19 92 192
19 92 192 19 92 192 19 92 192 19 92 192
19 92 192 19 92 192 19 92 192 19 92 192
19 92 192 19 92 192 19 92 192 19 92 192
19 92 192 19 92 192 19 92 192 19 92 192
19 92 192 19 92 192 19 92 192 19 92 192
19 92 192 19 92 192 19 92 192 19 92 192
19 92 192 19 92 192 19 92 192 19 92 192
19 92 192 19 92 192 19 92 192 19 92 192
19 92 192 19 92 192 19 92 192 19 92 192
19 92 192 19 92 192 19 92 192 19 92 192
19 92 192 19 92 192 19 92 192 19 92 192
19 92 192 19 92 192 19 92 192 19 92 192
19 92 192 19 92 192 19 92 192 19 92 192
19 92 192 19 92 192 19 92 192 19 92 192
19 92 192 19 92 192 19 92 192 19 92 192
19 92 192 19 92 192 19 92 192 19 92 192
19 92 192 19 92 192 19 92 192 19 92 192
19 92 192 19 92 192 19 92 192 19 92 192
19 92 192 19 92 192 19 92 192 19 92 192
19 92 192 19 92 192 19 92 192 19 92 192
19 92 192 19 92 192 19 92 192 19 92 192
19 92 192 19 92 192 19 92 192 19 92 192
19 92 192 19 92 192 19 92 192 19 92 192
19 92 192 19 92 192 19 92 192 19 92 192
19 92 192 19 92 192 19 92 192 19 92 192
19 92 192 19 92 192 19 92 192 19 92 192
19 92 192 19 92 192 19 92 192 19 92 192
19 92 192 19 92 192 19 92 192 160 196 246
160 196 247 160 196 247 160 197 247 160 197 247
160 197 247 161 197 247 161 197 247 161 197 247
161 197 247 161 197 247 161 197 247 161 197 248
161 197 248 161 198 248 161 198 248 162 198 248
162 198 248 162 198 248 162 198 248 162 198 248
162 198 248 162 198 249 162 199 249 162 199 249
163 199 249 163 199 249 163 199 249 163 199 249
163 199 249 94 130 180 94 130 180 94 130 180
94 130 180 94 130 180 94 130 181 94 131 181
94 131 181 95 131 181 95 131 181 164 201 251
164 201 251 165 201 251 165 201 251 165 201 251
165 201 251 165 201 252 165 201 252 165 202 252
166 202 252 166 202 252 166 202 252 166 202 252
166 202 252 166 202 253 166 203 253 167 203 253
167 203 253 167 203 253 167 203 253 167 203 253
167 203 254 167 204 254 168 204 254 168 204 254
168 204 254 168 204 254 168 204 255 168 205 255
168 205 255 169 205 255 169 205 255 169 205 255
169 205 255 169 205 255 169 206 255 170 206 255
170 206 255 170 206 255 170 206 255 101 137 187
101 137 187 101 137 187 101 137 188 101 138 188
102 138 188 102 138 188 102 138 188 102 138 188
19 92 192 19 92 192 19 92 192 19 92 192
19 92 192 19 92 192 19 92 192 19 92 192
19 92 192 19 92 192 19 92 192 19 92 192
19 92 192 19 92 192 19 92 192 19 92 192
19 92 192 19 92 192 19 92 192 19 92 192
19 92 192 19 92 192 19 92 192 19 92 192
19 92 192 19 92 192 19 92 192 19 92 192
19 92 192 19 92 192 19 92 192 19 92 192
19 92 192 19 92 192 19 92 192 19 92 192
19 92 192 19 92 192 19 92 192 19 92 192
19 92 192 19 92 192 19 92 192 19 92 192
19 92 192 19 92 192 19 92 192 19 92 192
19 92 192 19 92 192 19 92 192 19 92 192
19 92 192 19 92 192 19 92 192 19 92 192
19 92 192 19 92 192 19 92 192 19 92 192
19 92 192 19 92 192 19 92 192 19 92 192
19 92 192 19 92 192 19 92 192 19 92 192
19 92 192 19 92 192 19 92 192 19 92 192
19 92 192 19 92 192 19 92 192 19 92 192
19 92 192 19 92 192 19 92 192 19 92 192
19 92 192 19 92 192 19 92 192 19 92 192
19 92 192 19 92 192 19 92 192 19 92 192
19 92 192 19 92 192 19 92 192 19 92 192
19 92 192 19 92 192 19 92 192 19 92 192
19 92 192 19 92 192 19 92 192 19 92 192
19 92 192 19 92 192 19 92 192 19 92 192
19 92 192 19 92 192 19 92 192 19 92 192
19 92 192 19 92 192 19 92 192 19 92 192
19 92 192 19 92 192 19 92 192 19 92 192
19 92 192 19 92 192 19 92 192 19 92 192
19 92 192 19 92 192 19 92 192 19 92 192
19 92 192 19 92 192 19 92 192 19 92 192
19 92 192 19 92 192 19 92 192 19 92 192
19 92 192 19 92 192 19 92 192 19 92 192
19 92 192 19 92 192 19 92 192 19 92 192
19 92 192 19 92 192 19 92 192 19 92 192
19 92 192 19 92 192 19 92 192 19 92 192
19 92 192 19 92 192 19 92 192 19 92 192
19 92 192 19 92 192 19 92 192 19 92 192
19 92 192 19 92 192 19 92 192 19 92 192
19 92 192 19 92 192 19 92 192 19 92 192
19 92 192 19 92 192 19 92 192 19 92 192
160 197 247 161 197 247 161 197 247 161 197 247
161 197 247 161 197 247 161 197 247 161 197 248
161 197 248 161 198 248 161 198 248 162 198 248
162 198 248 162 198 248 162 198 248 162 198 248
162 198 248 162 198 249 162 198 249 162 199 249
162 199 249 163 199 249 163 199 249 163 199 249
163 199 249 163 199 249 163 199 250 94 130 180
94 130 180 94 130 180 94 130 180 94 130 181
94 131 181 94 131 181 95 131 181 95 131 181
95 131 181 95 131 181 95 131 181 95 131 182
165 201 251 165 201 251 165 201 252 165 201 252
165 202 252 166 202 252 166 202 252 166 202 252
166 202 252 166 202 252 166 202 253 166 203 253
166 203 253 167 203 253 167 203 253 167 203 253
167 203 253 167 203 254 167 204 254 167 204 254
168 204 254 168 204 254 168 204 254 168 204 254
168 204 255 168 205 255 169 205 255 169 205 255
169 205 255 169 205 255 169 205 255 169 206 255
170 206 255 170 206 255 170 206 255 170 206 255
170 206 255 170 207 255 170 207 255 171 207 255
101 137 188 101 138 188 102 138 188 102 138 188
102 138 188 102 138 188 19 92 192 19 92 192
19 92 192 19 92 192 19 92 192 19 92 192
19 92 192 19 92 192 19 92 192 19 92 192
19 92 192 19 92 192 19 92 192 19 92 192
19 92 192 19 92 192 19 92 192 19 92 192
19 92 192 19 92 192 19 92 192 19 92 192
19 92 192 19 92 192 19 92 192 19 92 192
19 92 192 19 92 192 19 92 192 19 92 192
19 92 192 19 92 192 19 92 192 19 92 192
19 92 192 19 92 192 19 92 192 19 92 192
19 92 192 19 92 192 19 92 192 19 92 192
19 92 192 19 92 192 19 92 192 19 92 192
19 92 192 19 92 192 19 92 192 19 92 192
19 92 192 19 92 192 19 92 192 19 92 192
19 92 192 19 92 192 19 92 192 19 92 192
19 92 192 19 92 192 19 92 192 19 92 192
19 92 192 19 92 192 19 92 192 19 92 192
19 92 192 19 92 192 19 92 192 19 92 192
19 92 192 19 92 192 19 92 192 19 92 192
19 92 192 19 92 192 19 92 192 19 92 192
19 92 192 19 92 192 19 92 192 19 92 192
19 92 192 19 92 192 19 92 192 19 92 192
19 92 192 19 92 192 19 92 192 19 92 192
19 92 192 19 92 192 19 92 192 19 92 192
19 92 192 19 92 192 19 92 192 19 92 192
19 92 192 19 92 192 19 92 192 19 92 192
19 92 192 19 92 192 19 92 192 19 92 192
19 92 192 19 92 192 19 92 192 19 92 192
19 92 192 19 92 192 19 92 192 19 92 192
19 92 192 19 92 192 19 92 192 19 92 192
19 92 192 19 92 192 19 92 192 19 92 192
19 92 192 19 92 192 19 92 192 19 92 192
19 92 192 19 92 192 19 92 192 19 92 192
19 92 192 19 92 192 19 92 192 19 92 192
19 92 192 19 92 192 19 92 192 19 92 192
19 92 192 19 92 192 19 92 192 19 92 192
19 92 192 19 92 192 19 92 192 19 92 192
19 92 192 19 92 192 19 92 192 19 92 192
19 92 192 19 92 192 19 92 192 19 92 192
19 92 192 19 92 192 19 92 192 19 92 192
19 92 192 19 92 192 19 92 192 19 92 192
19 92 192 19 92 192 19 92 192 19 92 192
19 92 192 19 92 192 19 92 192 19 92 192
161 197 247 161 197 247 161 197 247 161 197 248
161 197 248 161 198 248 161 198 248 161 198 248
162 198 248 162 198 248 162 198 248 162 198 248
162 198 248 162 198 248 162 198 249 162 199 249
162 199 249 163 199 249 163 199 249 163 199 249
163 199 249 163 199 249 163 199 249 163 199 250
163 200 250 94 130 180 94 130 180 94 130 180
94 130 181 94 131 181 94 131 181 95 131 181
95 131 181 95 131 181 95 131 181 95 131 181
95 131 182 95 132 182 95 132 182 96 132 182
165 201 252 165 202 252 165 202 252 166 202 252
166 202 252 166 202 252 166 202 252 166 202 253
166 203 253 166 203 253 167 203 253 167 203 253
167 203 253 167 203 253 167 203 254 167 204 254
167 204 254 168 204 254 168 204 254 168 204 254
168 204 254 168 204 255 168 205 255 169 205 255
169 205 255 169 205 255 169 205 255 169 205 255
169 206 255 169 206 255 170 206 255 170 206 255
170 206 255 170 206 255 170 206 255 170 207 255
171 207 255 171 207 255 171 207 255 171 207 255
171 207 255 102 138 188 102 138 188 102 138 189
102 138 189 19 92 192 19 92 192 19 92 192
19 92 192 19 92 192 19 92 192 19 92 192
19 92 192 19 92 192 19 92 192 19 92 192
19 92 192 19 92 192 19 92 192 19 92 192
19 92 192 19 92 192 19 92 192 19 92 192
19 92 192 19 92 192 19 92 192 19 92 192
19 92 192 19 92 192 19 92 192 19 92 192
19 92 192 19 92 192 19 92 192 19 92 192
19 92 192 19 92 192 19 92 192 19 92 192
19 92 192 19 92 192 19 92 192 19 92 192
19 92 192 19 92 192 19 92 192 19 92 192
19 92 192 19 92 192 19 92 192 19 92 192
19 92 192 19 92 192 19 92 192 19 92 192
19 92 192 19 92 192 19 92 192 19 92 192
19 92 192 19 92 192 19 92 192 19 92 192
19 92 192 19 92 192 19 92 192 19 92 192
19 92 192 19 92 192 19 92 192 19 92 192
19 92 192 19 92 192 19 92 192 19 92 192
19 92 192 19 92 192 19 92 192 19 92 192
19 92 192 19 92 192 19 92 192 19 92 192
19 92 192 19 92 192 19 92 192 19 92 192
19 92 192 19 92 192 19 92 192 19 92 192
19 92 192 19 92 192 19 92 192 19 92 192
19 92 192 19 92 192 19 92 192 19 92 192
19 92 192 19 92 192 19 92 192 19 92 192
19 92 192 19 92 192 19 92 192 19 92 192
19 92 192 19 92 192 19 92 192 19 92 192
19 92 192 19 92 192 19 92 192 19 92 192
19 92 192 19 92 192 19 92 192 19 92 192
19 92 192 19 92 192 19 92 192 19 92 192
19 92 192 19 92 192 19 92 192 19 92 192
19 92 192 19 92 192 19 92 192 19 92 192
19 92 192 19 92 192 19 92 192 19 92 192
19 92 192 19 92 192 19 92 192 19 92 192
19 92 192 19 92 192 19 92 192 19 92 192
19 92 192 19 92 192 19 92 192 19 92 192
19 92 192 19 92 192 19 92 192 19 92 192
19 92 192 19 92 192 19 92 192 19 92 192
19 92 192 19 92 192 19 92 192 19 92 192
19 92 192 19 92 192 19 92 192 19 92 192
19 92 192 19 92 192 19 92 192 19 92 192
19 92 192 19 92 192 19 92 192 19 92 192
19 92 192 19 92 192 19 92 192 19 92 192
19 92 192 161 198 248 161 198 248 161 198 248
162 198 248 162 198 248 162 198 248 162 198 248
162 198 248 162 198 248 162 198 249 162 198 249
162 199 249 162 199 249 163 199 249 163 199 249
163 199 249 163 199 249 163 199 249 163 199 250
163 199 250 163 200 250 163 200 250 94 130 180
94 130 181 94 130 181 94 131 181 94 131 181
95 131 181 95 131 181 95 131 181 95 131 181
95 131 181 95 131 182 95 132 182 95 132 182
96 132 182 96 132 182 96 132 182 96 132 182
96 132 182 166 202 252 166 202 252 166 202 252
166 202 253 166 203 253 166 203 253 167 203 253
167 203 253 167 203 253 167 203 253 167 203 254
167 204 254 167 204 254 168 204 254 168 204 254
168 204 254 168 204 254 168 204 255 168 205 255
168 205 255 169 205 255 169 205 255 169 205 255
169 205 255 169 205 255 169 206 255 170 206 255
170 206 255 170 206 255 170 206 255 170 206 255
170 207 255 170 207 255 171 207 255 171 207 255
171 207 255 171 207 255 171 208 255 171 208 255
172 208 255 102 138 189 102 139 189 19 92 192
19 92 192 19 92 192 19 92 192 19 92 192
19 92 192 19 92 192 19 92 192 19 92 192
19 92 192 19 92 192 19 92 192 19 92 192
19 92 192 19 92 192 19 92 192 19 92 192
19 92 192 19 92 192 19 92 192 19 92 192
19 92 192 19 92 192 19 92 192 19 92 192
19 92 192 19 92 192 19 92 192 19 92 192
19 92 192 19 92 192 19 92 192 19 92 192
19 92 192 19 92 192 19 92 192 19 92 192
19 92 192 19 92 192 19 92 192 19 92 192
19 92 192 19 92 192 19 92 192 19 92 192
19 92 192 19 92 192 19 92 192 19 92 192
19 92 192 19 92 192 19 92 192 19 92 192
19 92 192 19 92 192 19 92 192 19 92 192
19 92 192 19 92 192 19 92 192 19 92 192
19 92 192 19 92 192 19 92 192 19 92 192
19 92 192 19 92 192 19 92 192 19 92 192
19 92 192 19 92 192 19 92 192 19 92 192
19 92 192 19 92 192 19 92 192 19 92 192
19 92 192 19 92 192 19 92 192 19 92 192
19 92 192 19 92 192 19 92 192 19 92 192
19 92 192 19 92 192 19 92 192 19 92 192
19 92 192 19 92 192 19 92 192 19 92 192
19 92 192 19 92 192 19 92 192 19 92 192
19 92 192 19 92 192 19 92 192 19 92 192
19 92 192 19 92 192 19 92 192 19 92 192
19 92 192 19 92 192 19 92 192 19 92 192
19 92 192 19 92 192 19 92 192 19 92 192
19 92 192 19 92 192 19 92 192 19 92 192
19 92 192 19 92 192 19 92 192 19 92 192
19 92 192 19 92 192 19 92 192 19 92 192
